zhaobohao-byte/Y1_1Pace/data/RS_motors/raw_csv/RS06_sin5Hz_10s_aligned.csv
time,des_dof_pos_left_hip_roll_joint,dof_pos_left_hip_roll_joint,dof_vel_left_hip_roll_joint
0.0,0.04472864850849295,-0.000502348,0.029754639
0.002,0.08894996261699846,-0.000502348,0.03209255661078129
0.004,0.1323648615483717,-0.000496280162589928,0.07615019978129496
0.006,0.17528645350908442,-9.43408563660007e-05,0.3093794968829649
0.008,0.21733333107012523,0.001062054730669189,0.5433990414140459
0.01,0.2587028786007872,0.0033512842811674274,1.081565284627432
0.012,0.29905161757774607,0.0068383037317303165,1.7995038944903348
0.014,0.33809461085969933,0.011011124365975698,2.390680842028592
0.016,0.37594484550352997,0.016762484715516196,2.761326986198229
0.018,0.4124019873155386,0.023417243854528168,3.3424120949531733
0.02,0.4470898022523554,0.031090122331258976,4.030253804185735
0.022,0.4800403475605156,0.04034723530008362,4.721478833811731
0.024,0.511111011945567,0.05035556360515378,4.952397618259827
0.026,0.5400536621221375,0.061075546136179826,5.545912532518316
0.028,0.5669635238192771,0.07294626793841012,5.998906405853903
0.03,0.5916301483740947,0.08525261666980355,6.3028187214259495
0.032,0.6138708670678329,0.09850407567659779,6.695879252930322
0.034,0.6337493977034995,0.112802352394614,7.103728673183483
0.036,0.6512379916357347,0.12668454949432567,7.098639866576872
0.038,0.6660714376209034,0.14167629905097665,7.483027868749881
0.04,0.678263826808708,0.1566289641221138,7.532004787218281
0.042,0.6877711997008721,0.17195060682080993,7.69047676250675
0.044,0.6945908682061069,0.18732498648253249,7.740066962204841
0.046,0.6986562545296142,0.20267603511775084,7.735609475407952
0.048,0.699968274146324,0.21819859651470763,7.738830771471125
0.05,0.698531883270591,0.23403405335043762,7.819499163124446
0.052,0.6942973466245678,0.24945864217905644,7.663612140600072
0.054,0.6873427177522345,0.26440955718210024,7.549828776959666
0.056,0.6776819280143654,0.27937912712935326,7.471863497795309
0.058,0.6654012743470779,0.29386209427195603,7.1988025990352495
0.06,0.6504039762907073,0.308074173071599,6.910549720898807
0.062,0.6328638551952205,0.3211236531106007,6.43398084187821
0.064,0.6128998591292234,0.3336310052989358,6.195604626730002
0.066,0.5905893602674768,0.3451723131959435,5.655496285772304
0.068,0.5655863101722454,0.35602940377562653,5.171084684441976
0.07,0.5385998171354639,0.3655703696456392,4.644467622538351
0.072,0.5094564436581767,0.37401678467293953,4.073114659106837
0.074,0.4783633573532433,0.3816660150189941,3.643129952668618
0.076,0.4452602595171139,0.38818258493381036,3.0967868675742394
0.078,0.4104534452419912,0.39354428316258033,2.4384712123403953
0.08,0.3740899840892435,0.39811520640255965,2.205211016222222
0.082,0.3365227005281842,0.40111057620314133,1.4560781632
0.084,0.2970763373458781,0.4034441598582089,0.9084614069123736
0.086,0.2566065386504472,0.4042035233447576,0.36579428163350847
0.088,0.215192422329767,0.40380280113545625,-0.32031810798075094
0.09,0.1730619655469217,0.40226036858731296,-0.6848953341852783
0.092,0.13001110783329356,0.39955227877363897,-1.5428155569828081
0.094,0.08652352584802288,0.39606248064962457,-2.0048989350017874
0.096,0.04278266700570749,0.39068206152386553,-2.6755265188426995
0.098,-0.0010655042618820157,0.3846243741124503,-3.2233873292797397
0.1,-0.04508501730208458,0.3768649363604157,-3.799834201457723
0.102,-0.08882194026455216,0.36887491348815793,-4.339995780873685
0.104,-0.13210446795342695,0.3584788597698594,-5.0042369333244805
0.106,-0.17528615398879352,0.3476338820639751,-5.425765482931832
0.108,-0.2174956029131005,0.33566847996570204,-6.045556062909967
0.11,-0.2588353350370194,0.3229922092789035,-6.532115470619309
0.112,-0.299107779132569,0.3087921396437111,-7.183250232729914
0.114,-0.33831647112063457,0.29413843007047175,-7.511041836746302
0.116,-0.3758763184888571,0.27802125202271405,-8.12081289691823
0.118,-0.4122031532552127,0.260725591457405,-8.515520557344692
0.12,-0.44689560483375224,0.24385630967241378,-8.828157624564746
0.122,-0.47996621078118656,0.2248500667021786,-9.258007745902082
0.124,-0.511051833543014,0.2063373253329357,-9.363507565767506
0.126,-0.5400958574942966,0.18637765276429336,-9.931046342559254
0.128,-0.5669111649223695,0.16647656095745442,-10.102807483441664
0.13,-0.5916149506532122,0.14576110541645768,-10.373097750016361
0.132,-0.6139682108060447,0.12461853087497014,-10.549916660015763
0.134,-0.6338334163847439,0.10309738458883975,-10.79034014144605
0.136,-0.6512507686250447,0.08156047536502445,-10.789948815035668
0.138,-0.6660920333513353,0.059676860289473686,-11.002969440473684
0.14,-0.67828492797604,0.037747614772921614,-11.0239996108095
0.142,-0.6877975447235455,0.016334715748731264,-10.964866688160747
0.144,-0.6945748158806648,-0.005696699434928229,-10.988232079702152
0.146,-0.6986542582006434,-0.02800938900547554,-10.767336005535055
0.148,-0.6999650564795419,-0.04946185908941149,-10.752149889647487
0.15,-0.6985115253285018,-0.07097379674943567,-10.740185806845075
0.152,-0.6943247771675838,-0.09237212074261099,-10.62752811504212
0.154,-0.6873518636371112,-0.11278116193506493,-10.335518775259741
0.156,-0.6776981657906676,-0.13307884176120094,-9.968617548473441
0.158,-0.6655702234733601,-0.1516589248930716,-9.529605809941687
0.16,-0.6507618428377924,-0.17069912621013378,-9.156980212322008
0.162,-0.6331579523484119,-0.1888672154533893,-8.800316049014997
0.164,-0.6129673190704824,-0.2058594447761534,-8.360290637244457
0.166,-0.5907338035443023,-0.22081879552819414,-7.8812388285084465
0.168,-0.5661566799289742,-0.23530780504061574,-7.135635866791474
0.17,-0.5390058904117226,-0.24922632279716755,-6.7262415617822855
0.172,-0.5099200743525603,-0.26151915333126863,-6.200908313259083
0.174,-0.47861593464099844,-0.27281091205689784,-5.471653298554965
0.176,-0.4460218094834532,-0.2825809743288998,-4.857240416866643
0.178,-0.4110596112681125,-0.29185422211835954,-4.373281254682336
0.18,-0.3746860833953017,-0.29917564393928575,-3.654478331565476
0.182,-0.33681445612368205,-0.30572196659782735,-3.1394503338417095
0.184,-0.29786636082363527,-0.310708368258733,-2.4386436504600355
0.186,-0.25723862841613054,-0.31460021958209317,-1.8425480623113297
0.188,-0.2158836672743975,-0.3169326694038118,-1.1195621270142944
0.19,-0.17361528148288524,-0.31810935822083036,-0.4912830877277501
0.192,-0.13097415936871776,-0.318133116,0.1480983284695641
0.194,-0.0872687943267374,-0.31700592848049924,0.7961217130190807
0.196,-0.04348442877475426,-0.3143477838471824,1.3393405560286533
0.198,0.0006987404621997175,-0.3105330737228714,2.0368528348929167
0.2,0.044121545081152465,-0.30523880331703285,2.71616197019974
0.202,0.08820191335703154,-0.29908105380593253,3.202807593834274
0.204,0.13187021034556465,-0.29132412820694664,3.7316143549079026
0.206,0.17461657189461136,-0.28298077625607165,4.432395899533483
0.208,0.21683708216692613,-0.2729642109373274,4.95486801236535
0.21,0.258380110562418,-0.2625599744378294,5.584009412231912
0.212,0.2987251905681302,-0.250674917884001,6.025920657937887
0.214,0.33801166886351797,-0.23774396178316387,6.559713768037361
0.216,0.37558616724810584,-0.22329992710005914,6.946232010563335
0.218,0.4122235581595569,-0.2079772829383506,7.630056008307782
0.22,0.4465586323382616,-0.1930039191148075,7.962098045004188
0.222,0.47953127661784894,-0.1761596550102564,8.342673100723077
0.224,0.5108991579739888,-0.15798836661858973,8.702251386297721
0.226,0.5399610079942694,-0.1407871293302994,9.072872094865389
0.228,0.566897329012497,-0.1219024606659153,9.417405504932969
0.23,0.5915257876317044,-0.10281015863295037,9.588051535359588
0.232,0.6138543407969289,-0.08337160958936397,9.851860143131233
0.234,0.6337372147146947,-0.06336019184815771,9.895523607173669
0.236,0.6511589800184232,-0.04284297913886883,10.16440704839603
0.238,0.6660395887814318,-0.02178859718298479,10.361670475572243
0.24,0.6782057773834271,-0.0022739605041796032,10.214229268930021
0.242,0.6877731922058614,0.01923926719295123,10.303979132724102
0.244,0.694581020071582,0.03985751686685858,10.517791752645197
0.246,0.6986533034312166,0.06031611770276009,10.26141469682425
0.248,0.6999713006793984,0.08081191966454353,10.15875641453975
0.25,0.6985274360550786,0.10102540586560796,10.160211334953068
0.252,0.6943273372688584,0.12104529988527336,9.925906624750567
0.254,0.6873631734891421,0.14125545626418232,9.771460555828625
0.256,0.6777567377303129,0.16034889561108445,9.518654431084334
0.258,0.665354847979914,0.17886689892074928,9.16815249611095
0.26,0.6503418351974013,0.1966241148605981,8.783366492715716
0.262,0.6328061400788095,0.21348134262638543,8.372211135515194
0.264,0.6128026206752238,0.22956548287018255,7.9160316731164535
0.266,0.59031845789369,0.24450956687630543,7.452300879924229
0.268,0.5657214348955828,0.25795115486702247,6.867138375351938
0.27,0.5387582346649246,0.2709852268006431,6.272674787386924
0.272,0.5097400562905203,0.2825224501566193,5.6994609005530625
0.274,0.47836069382812496,0.29344899673906305,5.276368382521516
0.276,0.4453098812910305,0.3026472346961194,4.65233365594388
0.278,0.4105036819552257,0.31107994400071254,4.032720105871512
0.28,0.37423582747421696,0.31794648087423744,3.3701636367128107
0.282,0.336389839331462,0.3236098146634209,2.8881101406045286
0.284,0.29710526805197135,0.32828166311837853,2.102624162203635
0.286,0.2566367230920631,0.3313465681727165,1.5198135233164887
0.288,0.2154313935676453,0.33324653487023725,0.8442793073418404
0.29,0.1729730675390299,0.33400270350375494,0.19576557976159256
0.292,0.13005667904351445,0.3336051497897774,-0.31893591935366855
0.294,0.08673364863039601,0.33208901898393284,-0.9911976561004796
0.296,0.04305046338982444,0.329378772092911,-1.51261546843382
0.298,-0.0009872439956989248,0.3252099478464437,-2.213554487028262
0.3,-0.04502970373135219,0.3197500240686274,-2.9346550213921567
0.302,-0.08884233658151082,0.3131913851451369,-3.3629863319098425
0.304,-0.13191440588588588,0.30532055199941754,-4.013014463234712
0.306,-0.1751336172902381,0.29590166217811764,-4.643761546527765
0.308,-0.21729043822097469,0.28643582518876815,-5.181435242437681
0.31,-0.25871230666053413,0.27439137422043136,-5.832416965614008
0.312,-0.29887768494475603,0.26255762956266165,-6.381605180449564
0.314,-0.338063798574994,0.24931711239501528,-6.729197196755232
0.316,-0.3759469122415563,0.2341290287749373,-7.275070499896787
0.318,-0.4123126983258427,0.21912735451612905,-7.639321898304348
0.32,-0.44676252126517146,0.20333139761290323,-8.029760170521739
0.322,-0.4799021631611826,0.18582256909215825,-8.564093634614546
0.324,-0.5109514475091907,0.1682896062435442,-8.800611908780857
0.326,-0.5400153261344098,0.1500868388779187,-9.200373966891311
0.328,-0.5668093140634141,0.13101632460630194,-9.535412448727147
0.33,-0.5910645228761274,0.11244703429743767,-9.788029410627423
0.332,-0.6136218718614026,0.09162919586538462,-9.977661930478366
0.334,-0.63357038471306,0.0716400875830549,-10.050447596182577
0.336,-0.6509989297092568,0.0513422167466365,-10.266848868332659
0.338,-0.6657983785083933,0.03073725447372791,-10.362215903089906
0.34,-0.6781078771579879,0.009165332758480166,-10.276593554263336
0.342,-0.6876077139774889,-0.011014495601890136,-10.304260283254578
0.344,-0.6945246770880497,-0.03265604010193766,-10.544181987979782
0.346,-0.698632705545357,-0.05300001267456819,-10.361227692147589
0.348,-0.6999860605231316,-0.07370857668240344,-10.398865890035765
0.35,-0.6985973779896907,-0.09470534473688583,-10.313583438279254
0.352,-0.694406488723176,-0.11515965987896945,-10.142474643469145
0.354,-0.6874970297569437,-0.1351239724946339,-9.949043073404008
0.356,-0.6778772789537586,-0.15431337386747707,-9.595451863315576
0.358,-0.6656592101911324,-0.17302309735396657,-9.283319538658128
0.36,-0.6506602926785118,-0.1911475549891031,-8.91994778162364
0.362,-0.6331625151574747,-0.2080730755086526,-8.414338322898198
0.364,-0.6131891816741732,-0.2238067441585903,-7.878425960340636
0.366,-0.5909227405713428,-0.23907205150717079,-7.470528210822686
0.368,-0.5660163487523242,-0.2530090668979004,-7.042686281276304
0.37,-0.5390473532370397,-0.2656972380275459,-6.3284491059399
0.372,-0.5099535245218216,-0.277597776894925,-5.780354424036455
0.374,-0.47900511158478126,-0.28830745525409057,-5.308262223435144
0.376,-0.44583203931444587,-0.29797930714253174,-4.592364090273196
0.378,-0.4110424693704145,-0.30645100303746126,-4.085222222585063
0.38,-0.37468845709624277,-0.31338089627339843,-3.4165037088631816
0.382,-0.3370490341876724,-0.3195023786288831,-2.751642477529405
0.384,-0.29762236176671036,-0.32417178063597124,-2.110931640516067
0.386,-0.2572774758989501,-0.327648373149428,-1.6301013792109151
0.388,-0.21586164629806895,-0.32960039137722125,-1.0178606341322598
0.39,-0.17388728564299424,-0.3307613551479199,-0.3246628455824345
0.392,-0.13070083805055444,-0.3304161058418655,0.2629486614637334
0.394,-0.0872546784648289,-0.3289169783526627,0.9114458793609468
0.396,-0.04361780112095909,-0.3258787142332934,1.5345658604814372
0.398,0.00036715219689737474,-0.3220802433726281,2.2014429502638757
0.4,0.04436638090566038,-0.3167217129970006,2.70252335430162
0.402,0.0882145920637512,-0.3102122165657109,3.2517876226537634
0.404,0.13162711778386751,-0.3025696039690329,4.005256295217722
0.406,0.17451105257037214,-0.29339498368669525,4.569502802287554
0.408,0.21675584276180257,-0.2830651302509832,5.196557763824098
0.41,0.2581248652432368,-0.27194553982374703,5.716795270259308
0.412,0.29845682721269234,-0.2597033912781418,6.223211471438356
0.414,0.33765120621585903,-0.24628738623997612,6.694461721027208
0.416,0.3754389618848586,-0.23213662550392672,7.169540375715968
0.418,0.4118265019240853,-0.21679403141404013,7.608967458266476
0.42,0.446546958546875,-0.2007036872981411,8.031826087662655
0.422,0.4795271318050696,-0.1838586776095034,8.52418219069239
0.424,0.5105520699568226,-0.16623337858336315,9.003531999828386
0.426,0.5396293770365068,-0.14819811087246482,9.22477372303937
0.428,0.5665771382332181,-0.1294087028522185,9.359368571699308
0.43,0.5912748128227727,-0.10985183430852713,9.626686887436732
0.432,0.6136147997753251,-0.08993255021138502,9.912910701325234
0.434,0.6335704075305685,-0.06996865890670484,10.167139721339417
0.436,0.6510034462415026,-0.04927679708007626,10.185869756683985
0.438,0.6658754971128455,-0.028881836800358635,10.307467046537358
0.44,0.6781111638300537,-0.00785339179576795,10.309757233
0.442,0.6876773242982603,0.012882739763779526,10.439788352135052
0.444,0.6945246665157833,0.03395707423654121,10.53211337234957
0.446,0.6986324377983909,0.05467724321811681,10.477325830338497
0.448,0.6999966664225081,0.07522651397658744,10.363525767228095
0.45,0.6985737006939354,0.09612102386863948,10.171851589698184
0.452,0.6944629345196539,0.11591694517702672,10.193033266811392
0.454,0.6874963681518714,0.13640516390331892,9.890514414945887
0.456,0.6777985529252403,0.15553282585696984,9.645684978869566
0.458,0.6655533141432314,0.17409784524464328,9.25314371901295
0.46,0.6506445039382123,0.1926412288487395,8.767661237305882
0.462,0.6330269210624255,0.2092525640115108,8.379858186194244
0.464,0.6130328511600859,0.22535673998141528,8.033483903446271
0.466,0.5905926934591388,0.24027473977581087,7.438692325900083
0.468,0.5659680546058491,0.25399483246904964,6.948442147744467
0.47,0.5387131769168657,0.26754215653415103,6.445317059793651
0.472,0.50953847203132,0.27925072598494327,5.771000394798703
0.474,0.47880042623502955,0.28968716471855455,5.215025375852676
0.476,0.4460425301106311,0.29922167386633547,4.680101583603029
0.478,0.4110553242618849,0.30774342922582193,4.051543860330933
0.48,0.3746885495979381,0.31467656118951753,3.3112954920856463
0.482,0.3370555687049122,0.32079819054961467,2.8364257458254887
0.484,0.29805946310500714,0.3254205732354965,2.1678044311806857
0.486,0.25723369926685724,0.3285716627679325,1.6129254205485233
0.488,0.21587940319661783,0.3308881314976777,0.862662346751697
0.49,0.1736868660482726,0.3316864155798409,0.3734328478029205
0.492,0.13108854818657523,0.33133670342059934,-0.2510574259860782
0.494,0.08726368754987487,0.32982003085722933,-0.9519788627958343
0.496,0.04349453785836299,0.3271604734623079,-1.3696756693626295
0.498,-0.00024072564567210382,0.32299359599466065,-1.9906899817198624
0.5,-0.04414247703023758,0.31766139375714286,-2.722320783140714
0.502,-0.08820717742314149,0.3111283388467171,-3.4328837103788263
0.504,-0.13187513844948354,0.30298169770895883,-4.013629786002906
0.506,-0.17461166351419033,0.29464197349858623,-4.555248333702286
0.508,-0.2168390697605382,0.28423754680975843,-5.181319919059008
0.51,-0.25816096116650694,0.2732235239481639,-5.763677703368875
0.512,-0.2986921922423415,0.2604282655448176,-6.314781491505436
0.514,-0.3377011738514061,0.24761933911216485,-6.720247974741248
0.516,-0.37552109923953736,0.23288549581494014,-7.164884357457633
0.518,-0.41187818557998085,0.21803048219213922,-7.649359649568959
0.52,-0.44674761406249996,0.2013744901140721,-8.091568186383578
0.522,-0.4797181551703264,0.1844834618654259,-8.531405460610594
0.524,-0.5106519474771429,0.16768006512793732,-8.896349016370756
0.526,-0.5396725619374476,0.14908018384545454,-9.064482254936364
0.528,-0.5667255187971754,0.13003272796821752,-9.418156352661148
0.53,-0.591304337102503,0.11083065098151182,-9.677806923714252
0.532,-0.6136575613191413,0.0902447582713094,-9.906087841841131
0.534,-0.6335985382083832,0.07080216340101825,-10.095907613828913
0.536,-0.6510980722007593,0.050242833878861,-10.240339295859556
0.538,-0.6658931319955884,0.029773922653710247,-10.335581250432863
0.54,-0.6781293964183551,0.008910934230482826,-10.47771893197898
0.542,-0.6876870279833434,-0.01206858760763395,-10.422043740686107
0.544,-0.6945237323291593,-0.032666584305996685,-10.388296975398909
0.546,-0.6986338472931507,-0.05414346858552004,-10.404015192087309
0.548,-0.699985905023355,-0.07485520692604503,-10.20733535161915
0.55,-0.6985993554023264,-0.09545896675788475,-10.280137017171093
0.552,-0.694407308848474,-0.11554356808970977,-10.003039760860638
0.554,-0.6874993410307473,-0.1354894582443385,-9.798356552978547
0.556,-0.6778816729591038,-0.15505448506613442,-9.607423194617969
0.558,-0.665668101040163,-0.17340323759506582,-9.231970784492823
0.56,-0.6506623320512881,-0.19153369542114093,-8.797833561608222
0.562,-0.633160110984751,-0.20844665551270125,-8.438910808615743
0.564,-0.613186609563981,-0.224564941087573,-7.858130800910759
0.566,-0.590925092719097,-0.23946690156849965,-7.4150301418934585
0.568,-0.5658616672253908,-0.2539853013150969,-6.835633112976118
0.57,-0.5388499867698356,-0.2666662318688544,-6.314439241737112
0.572,-0.5097535777453379,-0.2781699445253067,-5.893204634994284
0.574,-0.47874761731950055,-0.28888164919360587,-5.379585880524601
0.576,-0.44582392732860376,-0.29836081898776184,-4.746495307731466
0.578,-0.4110514178369436,-0.3068342243704941,-4.121377146080329
0.58,-0.3747285850525442,-0.31411398179622596,-3.308113152422858
0.582,-0.3370572673260082,-0.3198935420206946,-2.9001917985466226
0.584,-0.29736163853762293,-0.32457395913945086,-2.2596076144730253
0.586,-0.25723359119208766,-0.32803567621185836,-1.3696284221967678
0.588,-0.21586654361654226,-0.33036363026023635,-0.8977256674223469
0.59,-0.17388740291571755,-0.3311550405051461,-0.3556838218883237
0.592,-0.13072149969544478,-0.33079992004501263,0.3706451430367303
0.594,-0.08726522365201202,-0.32929006800666827,0.9081011022482735
0.596,-0.043152294513669066,-0.3265816315610437,1.5883887309985436
0.598,0.001055258715121835,-0.3223341530679273,2.114793144311574
0.6,0.045084747764320594,-0.31727148450461323,2.726106184987698
0.602,0.08881560686037916,-0.3104148640239521,3.399661401449102
0.604,0.1322485344290492,-0.30269434987532967,4.029580803876408
0.606,0.17521802703540557,-0.2938001960722326,4.50353075558091
0.608,0.21715902516918104,-0.28361210183489677,5.061913319886491
0.61,0.25868505192032965,-0.2719654434991621,5.6259493504034
0.612,0.29908714702397343,-0.2600037788582991,6.232976731976187
0.614,0.3380622730465802,-0.24679213513947215,6.75702045727261
0.616,0.37549516180392867,-0.2321541648836911,7.17369957394307
0.618,0.412223956978675,-0.21646954187011733,7.625884099048616
0.62,0.4470903350729117,-0.2005070276211054,8.144823366432494
0.622,0.4800569231778016,-0.1839697810263032,8.58263525184194
0.624,0.5110702227655914,-0.1662631796501374,8.789287230424664
0.626,0.5401490689629541,-0.14817785008650067,9.152269648837127
0.628,0.5670196305454546,-0.12937277974259082,9.332876571538002
0.63,0.591680548131991,-0.10976882154890243,9.754368698955291
0.632,0.6137546233400479,-0.09053748399092058,9.952955844478337
0.634,0.6337775541971797,-0.06899227497345133,9.938249199761062
0.636,0.6512168892723601,-0.04897932998018417,10.371610599094417
0.638,0.6660053521363419,-0.028722410017834245,10.440250243915024
0.64,0.6782560239300323,-0.007128298412202738,10.411228512391304
0.642,0.6878003556912624,0.013737637577152396,10.465786805678036
0.644,0.6946002753793844,0.03446074128285237,10.412993323880993
0.646,0.6986595577698337,0.05517704078487753,10.458036718447167
0.648,0.6999641746550903,0.07574086373637334,10.396014194364446
0.65,0.6985203999140503,0.09637502080663642,10.128595629637623
0.652,0.6943080326126878,0.11672532686813843,10.16641834613067
0.654,0.6873597085428235,0.1366789616759614,9.905607847693041
0.656,0.6778076294401971,0.15537215811792726,9.676597840397118
0.658,0.6653738381272792,0.17538723204045212,9.154219480778703
0.66,0.6504185596696886,0.19261728294667144,8.845872858804938
0.662,0.632883609424264,0.20987658416609326,8.462116657419623
0.664,0.6129511223625327,0.22552586879466166,7.88346143136104
0.666,0.5905542431059968,0.24059384731959726,7.577786561858815
0.668,0.5655779657155141,0.25519823525529367,6.915924581095107
0.67,0.5385150341482451,0.26787772304888785,6.3618772300308075
0.672,0.5094347272227001,0.27934775748869756,5.823070632705059
0.674,0.4782161580848326,0.29009922758625206,5.287741992279009
0.676,0.4451938365066794,0.2996597399236641,4.5738207179141215
0.678,0.4103845231264286,0.3080696037571429,4.131131063400001
0.68,0.3740253539219564,0.314946558085363,3.5491773326671305
0.682,0.336389839331462,0.32091782565947574,2.901942410512642
0.684,0.2971004462676225,0.3255968166069295,2.13607783053405
0.686,0.2566318144102503,0.32866345378497686,1.55742395151157
0.688,0.2154316045436684,0.33094410107194244,1.059189199647482
0.69,0.17297673193317423,0.33170128761982776,0.3414156953628319
0.692,0.13000620184013362,0.33129817279415275,-0.4461215754970167
0.694,0.08653088834062538,0.3297415316536724,-0.9086610446165915
0.696,0.04285884937352556,0.32704271256393014,-1.4457515572795472
0.698,-0.001070625200238806,0.32286317159934935,-2.3022270032706347
0.7,-0.04509077424585866,0.31741400508878836,-2.8605393149854796
0.702,-0.08884099963404508,0.31051639680745047,-3.4150038926452724
0.704,-0.13206175331336129,0.3032465237861424,-3.9667020231599137
0.706,-0.17517742934205208,0.29397977971677863,-4.572271941399953
0.708,-0.21727503670275755,0.2841117718854816,-5.136609841404887
0.71,-0.25868160729984524,0.27254170770281605,-5.6597294495530255
0.712,-0.29895302805802293,0.2601894615916578,-6.2127896732012085
0.714,-0.3381600113345234,0.24683828541805028,-6.593414950647296
0.716,-0.37592024297950133,0.23271531119499148,-7.1958563502363235
0.718,-0.41243889823478264,0.2170592687441639,-7.58940127246546
0.72,-0.4471145004291343,0.20095196916266572,-8.19738506659441
0.722,-0.4800944970881792,0.18440391673436568,-8.632480880455628
0.724,-0.5111209298165554,0.16675418849749463,-8.904408134733716
0.726,-0.5401524665831257,0.14832035000272126,-9.268370863866778
0.728,-0.5669293197433967,0.12965775817569022,-9.445916688680532
0.73,-0.5916437281809003,0.1104196895500823,-9.549430197050787
0.732,-0.6138941324573476,0.09074266110427227,-10.075274492613083
0.734,-0.633833980194765,0.06978211869600381,-10.264471585437203
0.736,-0.6512051829714183,0.04949610061557789,-10.197674190879397
0.738,-0.6660742023284097,0.029080721229027644,-10.382733162883103
0.74,-0.6782627764687611,0.00799230762181303,-10.36680916937677
0.742,-0.6877701173445804,-0.012896913099426163,-10.404855879815202
0.744,-0.6945258540474175,-0.03324536220119452,-10.488794050629581
0.746,-0.6986538524049212,-0.055241866444391406,-10.430420508424342
0.748,-0.6999622193239403,-0.07522608915716857,-10.215779751722856
0.75,-0.6984988490190703,-0.09643501658222116,-10.357341592338656
0.752,-0.6942819715437217,-0.1163758905235939,-10.080998314405505
0.754,-0.6873317988798621,-0.13629658098555872,-10.005136143817944
0.756,-0.6776893044567783,-0.15533974344206009,-9.57537231069957
0.758,-0.6653510379024652,-0.17412577253744807,-9.302564720894836
0.76,-0.6504059599291058,-0.1920696175805529,-8.821493267290753
0.762,-0.6329529879556615,-0.20893050727154108,-8.405704258881274
0.764,-0.6129432417848643,-0.22443849349888326,-7.88211884149183
0.766,-0.5905520889802074,-0.23967492808710059,-7.455850690446391
0.768,-0.5657864471646932,-0.25392912732476075,-6.915412357536962
0.77,-0.5386933429548015,-0.2668637250454327,-6.333947458282933
0.772,-0.5093921574719276,-0.27845047860468713,-5.741005299480252
0.774,-0.47824715370103704,-0.28914759393258693,-5.194883095359099
0.776,-0.44521252750273743,-0.29871126547939003,-4.675965018168215
0.778,-0.41047487014532463,-0.3071269595169059,-4.12079309277791
0.78,-0.3740999354578885,-0.314360967391619,-3.288738801875919
0.782,-0.33639840726362985,-0.31999587543632546,-2.7254273155851525
0.784,-0.2970791084070765,-0.3246589163386747,-2.2277371819363854
0.786,-0.2567172545935893,-0.32812957442855434,-1.584413585376181
0.788,-0.2151848566088407,-0.330041732898418,-0.927389330838468
0.79,-0.17296337217391305,-0.33117067901655944,-0.44373612329580653
0.792,-0.13006700686636546,-0.33077358725005945,0.23665931081887331
0.794,-0.08673862024668182,-0.32922983436378855,0.81513434458431
0.796,-0.042826353692307695,-0.3261429060085947,1.6016377602724738
0.798,0.0009493506805489261,-0.3224047520192799,1.9911639751247387
0.8,0.04494052605440229,-0.3169859242866119,2.768189469355486
0.802,0.08875168391709536,-0.3099856110248923,3.4704780775457156
0.804,0.13231700337303476,-0.3022666320105814,3.9701371633854476
0.806,0.17518160935147392,-0.29344454384551,4.677913089469449
0.808,0.21743174573361823,-0.28304462911823247,5.162858791108281
0.81,0.2586130742154379,-0.271973904690408,5.631858186882964
0.812,0.2990334558434824,-0.25929778354159794,6.148536393889465
0.814,0.33809254699904784,-0.24602606081852463,6.851391881187603
0.816,0.3758560353874164,-0.23188991435585374,7.178536701097721
0.818,0.41224711874181214,-0.21667169891804844,7.614737083797686
0.82,0.44703866086785926,-0.2001625970980205,8.127960339984261
0.822,0.4799913260209873,-0.18326771198124925,8.531821279448822
0.824,0.5110378880095012,-0.16558575648185916,8.883352617410718
0.826,0.5399683162295552,-0.14764485030669056,9.229783618636798
0.828,0.5669426582950154,-0.12879708880811455,9.446616221765156
0.83,0.5916030274172696,-0.1092197430032695,9.632568678311538
0.832,0.6138272182326326,-0.09005490499754787,9.786522625766349
0.834,0.6336774997633036,-0.06929756138130529,10.038107917811619
0.836,0.6512414976010733,-0.048161239083890216,10.322613764002863
0.838,0.6660724632987384,-0.02818057378851175,10.36480440962402
0.84,0.6782521246725285,-0.007554593625698324,10.277415462318436
0.842,0.6877549292842622,0.013481266927033492,10.387524290270335
0.844,0.6945859447262317,0.034277150893381035,10.560035760267622
0.846,0.6986544707142688,0.05575066656521739,10.434955491695652
0.848,0.6999754780057162,0.07595249423785166,10.440907873390024
0.85,0.6985490732932692,0.09629025058962433,10.198480583854382
0.852,0.6943088120349475,0.1173957864026114,10.025447338744371
0.854,0.6873561446663883,0.13705075216740406,9.947948929744948
0.856,0.6776862212630329,0.15628139774576272,9.667911564803129
0.858,0.6654030144514702,0.17496262296810416,9.491329242326485
0.86,0.6504039238468146,0.19264009327402984,8.903717642018508
0.862,0.6328620960763567,0.20990998482955744,8.413838881505692
0.864,0.6129205626453833,0.22539703304261063,7.984089488873577
0.866,0.5905898364072115,0.2410092344750296,7.39385466131077
0.868,0.5656136248194842,0.25515259985410443,6.849682102052694
0.87,0.5385657066098666,0.267827922454773,6.440483597492671
0.872,0.5094421374585465,0.27969941492433975,5.879081707977159
0.874,0.47836365098734174,0.290404062350806,5.221892605090746
0.876,0.44527771224913615,0.29998559517785434,4.722735959473328
0.878,0.4105039581118798,0.3080062306655102,3.9616460992127047
0.88,0.3740773663799976,0.31529649477530863,3.401950380785891
0.882,0.33637335010661235,0.3209696576449275,2.7939096436932367
0.884,0.29697179747160585,0.32561665501364456,2.1424322202928785
0.886,0.2565580022500298,0.32905444824411695,1.660490497401236
0.888,0.2151717998456232,0.33095018223577716,1.0442509141587717
0.89,0.1730164291995221,0.33170106960883056,0.3262053025942721
0.892,0.12999639687407583,0.331300544027937,-0.2077698100384432
0.894,0.08653874215786966,0.32974433756076654,-1.0066721694075706
0.896,0.042782527786300394,0.3270411260238629,-1.5034399395708211
0.898,-0.0010682018170121517,0.32285265111499706,-2.11088345148524
0.9,-0.044993625650985074,0.317511797,-2.909133911
0.902,-0.08883101203814975,0.3108984192411821,-3.508259288635844
0.904,-0.13225748406585539,0.3028369408922177,-3.994957982295775
0.906,-0.1751845456173913,0.2939891081584465,-4.625153148466643
0.908,-0.21736243656037668,0.2840038637831154,-5.0748653587241375
0.91,-0.2587115286352478,0.27251717146861576,-5.766901864270167
0.912,-0.2990221471273703,0.2602211925244339,-6.2394843119332535
0.914,-0.33818578390385073,0.24716741354270652,-6.772944540057996
0.916,-0.37589135567753884,0.23284156259297012,-7.252823523706502
0.918,-0.4123003849938198,0.21722848667312664,-7.716405481161969
0.92,-0.4469115682470968,0.20135271603617572,-8.084760960276721
0.922,-0.47998429228632783,0.18385211226575604,-8.514070198827342
0.924,-0.5110506351586848,0.16648600069900144,-8.869595721932715
0.926,-0.5400602588804582,0.14811687696662282,-9.20324725190896
0.928,-0.5669722906679389,0.12924877209161398,-9.441987085909458
0.93,-0.5916384827358042,0.11005277721257062,-9.672033155822977
0.932,-0.6138895322238556,0.09073270779450072,-9.869708379664495
0.934,-0.6338385734701679,0.06978506632553723,-10.169477095781193
0.936,-0.6512219560715563,0.04953143958457682,-10.280552822068639
0.938,-0.6660550534673175,0.02878964425384707,-10.401947714429559
0.94,-0.6782444375343694,0.008053586626165989,-10.329402470582874
0.942,-0.6877888081752861,-0.013103794335954254,-10.434221067506074
0.944,-0.694591842118068,-0.03380658911366889,-10.48801151266627
0.946,-0.6986562137114862,-0.054525954746623195,-10.466858999776898
0.948,-0.6999757115932568,-0.07475830300931532,-10.268639552236143
0.95,-0.6985334943265892,-0.0958628688266937,-10.161023715213382
0.952,-0.6943103314302936,-0.11654979993108802,-10.14935748766368
0.954,-0.687352160298655,-0.13577117466785968,-9.981138910720114
0.956,-0.6777065345719742,-0.15534175163137207,-9.682833359012863
0.958,-0.6653555824677805,-0.17410780384164573,-9.23257398486114
0.96,-0.6503755353270605,-0.19181092230058217,-8.983427491027088
0.962,-0.6328641000284017,-0.20937324250344666,-8.466224986294034
0.964,-0.6129057692328294,-0.22504594423167157,-7.933097045017595
0.966,-0.5905009793553936,-0.23976944811824047,-7.3279665987856895
0.968,-0.5656806719225713,-0.2537995459567193,-6.930875287112386
0.97,-0.5386123582287753,-0.26686710519885554,-6.343069838046256
0.972,-0.5095559438630597,-0.27874197688125446,-5.747310183575293
0.974,-0.4782828642872974,-0.28912937076980816,-5.225247409738949
0.976,-0.44526003608028153,-0.29869858167343766,-4.729798768032381
0.978,-0.4104533851476343,-0.30712920912189934,-4.147121381126624
0.98,-0.37423582747421696,-0.31396102155857863,-3.3108426871407297
0.982,-0.33638973925456933,-0.3196223628531723,-2.636803449923537
0.984,-0.2971003333425738,-0.32468734184597925,-2.163178340807982
0.986,-0.2566242575623216,-0.3281295006293206,-1.5448569748450536
0.988,-0.21532113344936557,-0.33003798588806416,-0.8980075102954628
0.99,-0.17290160493803622,-0.3311694334324937,-0.5011395399478333
0.992,-0.12998660125721095,-0.3307588861257727,0.269482354189729
0.994,-0.08655719337275646,-0.3288344703586879,0.978030301855479
0.996,-0.04289462470689244,-0.3261404404204868,1.5508815225060255
0.998,0.0010697310966356478,-0.3219562072183894,2.1932149491746395
1.0,0.0450554339231687,-0.3169078322919403,2.696782534081194
1.002,0.08885912754720571,-0.3099823479418494,3.3837379769866542
1.004,0.13217368672651106,-0.30229487323850573,4.004801247599617
1.006,0.1752400162425542,-0.29303472954023807,4.772252525221072
1.008,0.21741761215223096,-0.28305794691289826,5.146944453269181
1.01,0.25879269213304873,-0.271899984102734,5.614599785293289
1.012,0.29892216669741567,-0.25932626932543673,6.195673880628739
1.014,0.3381977822847862,-0.24622335282276422,6.864675008480024
1.016,0.3756904108132132,-0.23202059849430895,7.270555066333566
1.018,0.4122895931447964,-0.21632867886164875,7.714602720944086
1.02,0.44696116688748205,-0.20055302035769365,8.088068101163719
1.022,0.4799661172955359,-0.18374822552728365,8.616120327953245
1.024,0.5110448022569792,-0.16595354796839595,8.85800392918068
1.026,0.5400892789223093,-0.14789810253101973,9.12505035425303
1.028,0.5669004109761905,-0.12877331950370724,9.481292128237502
1.03,0.591638627450095,-0.1095263412113936,9.736297931793551
1.032,0.6138958852930437,-0.08982761699198373,10.048882711958363
1.034,0.6338115541890482,-0.06942250165343729,10.07023118714635
1.036,0.6511312246649874,-0.048896146628632176,10.318203085858256
1.038,0.6660510421650971,-0.027924026497673865,10.433109690943217
1.04,0.6782507962420374,-0.007192281380775676,10.407168889617909
1.042,0.6877791334019946,0.01398572320379147,10.38387103342654
1.044,0.6945709438096949,0.03457853217083383,10.44357911222359
1.046,0.6986543040299251,0.055738978004344256,10.387932019427966
1.048,0.6999695633744493,0.07576480540683339,10.417990955889397
1.05,0.6985329551661308,0.09678263719657917,10.340838683428911
1.052,0.6943433592365992,0.11737044589862028,10.114574537761849
1.054,0.6873559069564907,0.13667246812865702,9.854224058320408
1.056,0.6777270024742748,0.15595665009094112,9.523338898799082
1.058,0.6653779918120166,0.1752656861072067,9.190184883852293
1.06,0.6504530447610904,0.19289605202115384,8.928777375657692
1.062,0.6328703869519253,0.21028029550252467,8.457540506453835
1.064,0.6127773380688587,0.22574131180327284,7.823246045138267
1.066,0.5903408804963686,0.24061440623569386,7.474045484885909
1.068,0.5655910999426934,0.25479263983188266,7.01503768991153
1.07,0.5385457147055477,0.2678156983094155,6.377128033282581
1.072,0.5095757317119981,0.27945549013090654,5.839464827863143
1.074,0.478362162385403,0.290377700893518,5.29355750760296
1.076,0.4453706686348865,0.2999675637493146,4.665654634670044
1.078,0.4105037324586018,0.3083883337859532,4.051013910581462
1.08,0.37407084295958154,0.3152898230822837,3.582920883672984
1.082,0.3362932378265512,0.3209701005184922,2.879248845261854
1.084,0.29726920871983276,0.3255478393940256,2.197934884688478
1.086,0.25680127490657895,0.3289866252251868,1.6026005255528282
1.088,0.21526148006075102,0.33095237170880765,0.9618038867375674
1.09,0.1728865483059328,0.3320831185265608,0.4229346364377462
1.092,0.12997873365296858,0.3316707518148148,-0.31908218927777776
1.094,0.08644500333905171,0.3297318306798094,-0.8672137401586659
1.096,0.042691869551982856,0.3270257887980026,-1.5161376481269766
1.098,-0.0012106789903061827,0.32316889394293385,-2.1392310118079125
1.1,-0.044803967878388105,0.31753597262796124,-2.8845727145718287
1.102,-0.08883737478052274,0.31090517106283666,-3.3742049242344705
1.104,-0.13230231779333254,0.30318703103174044,-4.032028936302998
1.106,-0.17499897181454113,0.2945195872383462,-4.625672484031741
1.108,-0.2172082425743866,0.2841019972145691,-5.19224573397692
1.11,-0.2587167058170223,0.2724908347860892,-5.800077882552494
1.112,-0.2990456307826813,0.26019002693393756,-6.281994990159075
1.114,-0.33821055578726433,0.24675225056738004,-6.7090258378661805
1.116,-0.37583758540071943,0.2327523244643697,-7.106366745233067
1.118,-0.4123735542302373,0.21711333083297646,-7.72238078295075
1.12,-0.4470780003943947,0.2010233326692115,-8.196256162521411
1.122,-0.4800234946062833,0.18412881241460236,-8.494324675718383
1.124,-0.5109115329098743,0.16695167972240804,-8.906108218675584
1.126,-0.5400507772696898,0.14849801654898911,-9.22705089078215
1.128,-0.5669723694457831,0.12962267460481755,-9.414018902668019
1.13,-0.5916363839580386,0.11005406930460969,-9.705270453926916
1.132,-0.6137354730110312,0.09067534887653463,-9.88316258570871
1.134,-0.6337612688253379,0.07014806643935927,-10.176058030974588
1.136,-0.6512202244899808,0.049155239665234,-10.215379727242718
1.138,-0.6660561748999763,0.029168319251698247,-10.239668319860924
1.14,-0.6782351275806452,0.008452836389697115,-10.49431702001717
1.142,-0.6877783840215965,-0.012646271632560364,-10.36139526520918
1.144,-0.6945907233281716,-0.03342207421878716,-10.343320275329964
1.146,-0.6986543717877454,-0.054464230813038854,-10.442460563816109
1.148,-0.6999669399250089,-0.07536848172206304,-10.314152696256446
1.15,-0.6985252285263535,-0.09611234780398273,-10.253070172194818
1.152,-0.6943079298401146,-0.11618376003868196,-10.199584580883954
1.154,-0.6873515960365069,-0.13615365251333256,-9.886039759680019
1.156,-0.677681112531064,-0.15538405001273353,-9.55139771491134
1.158,-0.6653647386323635,-0.17413925175008924,-9.154080679645842
1.16,-0.6503978857636536,-0.19212614756411786,-8.883735653645235
1.162,-0.632865129232813,-0.209000007174821,-8.304596145285204
1.164,-0.6128540838352037,-0.22473331762795,-7.9270872477087
1.166,-0.5906277816921502,-0.2396244183581675,-7.423645720485655
1.168,-0.565610490719828,-0.25424694317857144,-6.814507490149068
1.17,-0.5385622412588179,-0.26691805463632035,-6.309810349563871
1.172,-0.5094442202871382,-0.27877987457404996,-5.797333047859477
1.174,-0.47844434375487965,-0.2890602454924406,-5.282213041904968
1.176,-0.44526573594319396,-0.29869583430735414,-4.60913262649602
1.178,-0.41051341607829817,-0.3070891835496602,-4.113065899919995
1.18,-0.37412209461036966,-0.31398456041094297,-3.460152444854482
1.182,-0.33659158696236624,-0.3199780725208382,-2.8343426256484285
1.184,-0.29704740663978496,-0.32467922842761027,-2.1776261845905323
1.186,-0.25657266216162095,-0.3281412055017285,-1.664342523947789
1.188,-0.2151887374348136,-0.33041923212587415,-0.9767522056582909
1.19,-0.17310300894202033,-0.33117203827186903,-0.3228493056024139
1.192,-0.13005868069798496,-0.330774442152021,0.32781929887754857
1.194,-0.08660507465211167,-0.3292213801312358,0.9011702421271683
1.196,-0.042788031892046136,-0.3261305216142252,1.555931286685351
1.198,0.0010496325492537315,-0.3223361004350012,2.070514708636581
1.2,0.045071903851480424,-0.3169350142372026,2.793250292416006
1.202,0.08890336553379426,-0.31033979782618026,3.4443256720214595
1.204,0.13232197728236275,-0.3022718935693057,4.027355503598312
1.206,0.17517964600381225,-0.2934524653053008,4.614907979621441
1.208,0.2173582528467136,-0.2830951283731806,5.215342607783583
1.21,0.2587355743543851,-0.2719472540967972,5.790899201476962
1.212,0.2990456307826813,-0.25967459871045095,6.230268309983536
1.214,0.3382120734412114,-0.24623165004259304,6.7132280455691555
1.216,0.37589550590778786,-0.23229886685572199,7.226996962555582
1.218,0.4122948377218314,-0.21593307227752048,7.70557148263116
1.22,0.44700767277541764,-0.19987725483988966,8.067703026256057
1.222,0.47997715704308386,-0.18288829561377495,8.486869117666387
1.224,0.5110551180057259,-0.1651814235121107,8.911571241997851
1.226,0.5400977880257327,-0.14711704808038586,9.18360415115434
1.228,0.5669712682634274,-0.12795785509889457,9.465219300061928
1.23,0.5916032996386614,-0.10882985235588914,9.720258885001616
1.232,0.6138387153572366,-0.0895051621652425,9.804512243977713
1.234,0.633765355009329,-0.06919062460330579,10.185745440210866
1.236,0.6512219560715563,-0.048605841482462414,10.166155316524218
1.238,0.6660558065821698,-0.027499970093671493,10.288055032497907
1.24,0.6782663856309396,-0.0070862182261282654,10.263671398622803
1.242,0.6877800469949881,0.013931663802417425,10.538911135385113
1.244,0.6945916561924039,0.03473029112084125,10.430264265946056
1.246,0.6986542032248394,0.055749848836382954,10.327903320658718
1.248,0.6999674215503691,0.07588322125636147,10.189288639354816
1.25,0.6985252061757322,0.09654720755196194,10.222774151804755
1.252,0.6943054882673587,0.11710027999952234,10.122340080005253
1.254,0.6873507502357007,0.13707033365000001,9.866100310912499
1.256,0.6776922677639485,0.15622312238866298,9.650910697947621
1.258,0.6653555366444683,0.17506151648048227,9.270968969850902
1.26,0.6503728384969588,0.19272029321216458,8.764693723825403
1.262,0.6328318929618775,0.20959453987450888,8.416128066112513
1.264,0.6128184766623067,0.2256653872933899,7.854413203740073
1.266,0.5904310423321802,0.24045228597910914,7.433079735378197
1.268,0.5656462800171796,0.254729414795,6.849708660515952
1.27,0.5386212048315939,0.2673646739915787,6.3223606239339345
1.272,0.509640791096117,0.2791937890958789,5.785938096208338
1.274,0.4783367845045937,0.2900048554069378,5.132812456766508
1.276,0.44527236065831544,0.29961043335321486,4.520254370675176
1.278,0.4104552216787922,0.30803690517382,4.099176402320651
1.28,0.3741497385576075,0.315285222687699,3.5107631059932776
1.282,0.33628354942008587,0.32097513994291194,2.8450903785653634
1.284,0.2970531768963953,0.32559318380619695,2.2239855834772104
1.286,0.2566223760257353,0.328663697829303,1.493772511652916
1.288,0.2154319208182036,0.3309434398079818,1.0365765974564463
1.29,0.17299864017637945,0.33170300437913003,0.27067207089683865
1.292,0.13007874672512526,0.3313142468736198,-0.28314431402040324
1.294,0.0866096324391635,0.3297546451979575,-0.8458586644641967
1.296,0.04296429458626027,0.3270668903501813,-1.5693495953429273
1.298,-0.0009379651856223177,0.3229248925145665,-2.105523472931906
1.3,-0.044889411941949356,0.31756686222475256,-2.8314762606880888
1.302,-0.08874466615195438,0.31096477392752936,-3.3831889528293204
1.304,-0.13202833490384613,0.30295017274664926,-4.17564675313818
1.306,-0.17527175928808303,0.2939163506222858,-4.674579720284896
1.308,-0.21750617889861643,0.2839033311219745,-5.221049962131751
1.31,-0.25886854111542124,0.27238652459604856,-5.826689550362533
1.312,-0.29911728124298403,0.26048262720766546,-6.346826660567944
1.314,-0.3380114566241371,0.24702854993658535,-6.740766050756098
1.316,-0.37578047146111443,0.23252871374872464,-7.310452003442283
1.318,-0.41229877821420907,0.21684767977668623,-7.772079035186894
1.32,-0.44700018365472777,0.20102612419574267,-8.067864670571888
1.322,-0.47998790599904567,0.18417744709573325,-8.454873492204017
1.324,-0.5110470790163193,0.16648253708621102,-8.869451217678494
1.326,-0.5400525870868167,0.1484556241243301,-9.28428107733655
1.328,-0.5669256320429747,0.12929251153836988,-9.604571956596521
1.33,-0.5916107858987432,0.11012150310507882,-9.705416042555168
1.332,-0.6138292364954654,0.09095983707180386,-9.820494391529364
1.334,-0.6337600832568873,0.06968420265049825,-10.077804435138912
1.336,-0.6511750975980615,0.04959034458702418,-10.058369007990185
1.338,-0.666058658841427,0.028783761870503594,-10.304305097052758
1.34,-0.6782652432122186,0.007580337521733981,-10.484995128310436
1.342,-0.6877787385045817,-0.012629569172434298,-10.555043041954097
1.344,-0.6945805861680793,-0.03367923178029851,-10.386742595026986
1.346,-0.6986538829524036,-0.05480494331079324,-10.462556522291289
1.348,-0.699967194594846,-0.07534801062235252,-10.33538056827833
1.35,-0.6985176288549982,-0.09575393550574712,-10.179355950551725
1.352,-0.6943149422613012,-0.11617248253413175,-10.056290312011976
1.354,-0.6873404623412774,-0.13620086641961626,-9.887603658267906
1.356,-0.6776809177671788,-0.15536806977772494,-9.611137139249019
1.358,-0.6653564510375045,-0.1740986785800453,-9.205825199506616
1.36,-0.6504162214452136,-0.19173804747353362,-8.879415422293278
1.362,-0.6328651904424589,-0.20898282429984671,-8.427043035000235
1.364,-0.6128541456622358,-0.22454002813462903,-7.788727525436004
1.366,-0.5905193054776279,-0.23979467078833847,-7.3867618760759655
1.368,-0.5657270932016303,-0.2541507854017331,-6.976151930702491
1.37,-0.5385724497947557,-0.2669091901939943,-6.330838823918494
1.372,-0.5094419385511005,-0.27840081618823115,-5.789058806682028
1.374,-0.4783601942560874,-0.2890425839084967,-5.229501437888889
1.376,-0.4454511128041002,-0.29898132491181084,-4.683458986692363
1.378,-0.4104656191548272,-0.3074972329424246,-4.133706555952676
1.38,-0.3740616017919144,-0.31437739491349886,-3.3874466712024245
1.382,-0.3362815371167002,-0.31967874853725536,-2.7340006648307003
1.384,-0.297347258131443,-0.3246108346970054,-2.2133368635541144
1.386,-0.25665489816473674,-0.3281308537417504,-1.6104945868412244
1.388,-0.21520008343650227,-0.3304181719940554,-1.0186746101656166
1.39,-0.1729797597001071,-0.3311714033336117,-0.35011665569836536
1.392,-0.13012438770253165,-0.3307742720125104,0.22006198531276064
1.394,-0.08660507465211167,-0.32922755592099917,0.8367838146769451
1.396,-0.04279311964851368,-0.3265151796435283,1.5013396201141649
1.398,0.0010472529591038407,-0.3223571275527367,2.1027377011205077
1.4,0.04476273926554622,-0.3170056402181559,2.758228491483721
1.402,0.08883232231630461,-0.3103764848292916,3.4383709672505076
1.404,0.13230841188931297,-0.3026674286010041,4.1096293521443945
1.406,0.17522275102425683,-0.2934182315151587,4.660831439771727
1.408,0.21733094880463893,-0.283077560555715,5.14407559938044
1.41,0.2587978285321658,-0.2719018280078627,5.687578982851679
1.412,0.29909566073793925,-0.25962312306218727,6.241859119814153
1.414,0.33820200518349597,-0.24657703094038613,6.748150099055324
1.416,0.37551713009473303,-0.23277200239166762,7.253935273700915
1.418,0.4122480730832935,-0.2160237024601493,7.773842483832651
1.42,0.44708225114710093,-0.2001298082512521,8.161616606721202
1.422,0.4800385094861839,-0.18360823988150185,8.611245635910558
1.424,0.5110560460745253,-0.16552166326366677,8.814400834032945
1.426,0.540130540601407,-0.1474543427487767,9.248101643891633
1.428,0.5670208877387527,-0.12862572864330457,9.510546903958161
1.43,0.5916344581563351,-0.109225141731403,9.757425303883004
1.432,0.6138423219704439,-0.08953071207886064,9.896025426942327
1.434,0.6338181933084992,-0.06928895449934672,10.218164987176625
1.436,0.6512184477754055,-0.049025298706606144,10.216924005889261
1.438,0.6660524378440095,-0.028269133397721878,10.402752757592312
1.44,0.6782082185158778,-0.007646165670702469,10.394887028709542
1.442,0.6877791835820807,0.013567638583213772,10.349726951186874
1.444,0.6945907364832024,0.034722253149381536,10.494942640675546
1.446,0.6986545639625459,0.055386953013746916,10.43097146914311
1.448,0.6999719735332856,0.07580234566795911,10.364799317697216
1.45,0.6985311743200286,0.09642186194945421,10.106916918265782
1.452,0.6943184265447923,0.11706242402439608,10.049341252514113
1.454,0.6873575684234876,0.13706718077661847,9.934154136150108
1.456,0.6777538881086748,0.1565209695593769,9.663066711497303
1.458,0.6653574056307123,0.17502440144258372,9.256425483098086
1.46,0.650379474456387,0.1930968133099144,8.834416172031027
1.462,0.6328588607016772,0.20991792922810543,8.449008485239215
1.464,0.6128814718665561,0.22588821262891884,7.907792666623078
1.466,0.5905782783499879,0.24084442128422065,7.469595603542243
1.468,0.5656240994896256,0.25475531792893763,6.9651716550453076
1.47,0.53860729082245,0.2677821113202288,6.4675269711658325
1.472,0.5094905017248514,0.27927826377882214,5.838510544974063
1.474,0.4784250477108664,0.2903640946033801,5.142701722135563
1.476,0.4452656250500238,0.2996090344773457,4.62494404241741
1.478,0.41050952973126864,0.3080123385990046,4.060938127922858
1.48,0.3741350600908661,0.31524766566365875,3.431527442354272
1.482,0.3365818542403464,0.320904088271534,2.8149632987721787
1.484,0.29702488293069307,0.3256142753819998,2.1397050848637496
1.486,0.25661237036820783,0.329040837946452,1.5513058202289802
1.488,0.21523785848347993,0.33095157456227714,1.0140795407485144
1.49,0.1731131538593974,0.3320832543014925,0.35007267935820896
1.492,0.13005709277301492,0.3313074433884892,-0.3937075168647482
1.494,0.08654889240912883,0.3297452764698106,-0.9295424845434084
1.496,0.04278023053558719,0.3270407793002922,-1.4808895471938048
1.498,-0.0009628280379458942,0.32290314803296316,-2.1002793679811806
1.5,-0.04509104541316009,0.3174240918791954,-2.754877498258391
1.502,-0.08886154241825549,0.3108991587985226,-3.311812633630287
1.504,-0.13226195088112555,0.3032139390825382,-3.939579838447996
1.506,-0.17517010237330155,0.29399264436129646,-4.6503201327845565
1.508,-0.21736762033861928,0.2840062245714286,-5.0492193696343906
1.51,-0.2587259560667302,0.2724851834992852,-5.779437623681201
1.512,-0.2990411948679313,0.26020272703126496,-6.176593611321957
1.514,-0.33820904280523323,0.24675843068200395,-6.7658178156664714
1.516,-0.37578347871474704,0.2328533080479972,-7.327897566235432
1.518,-0.4122359744525862,0.2172607061022372,-7.740619187993746
1.52,-0.44708565628746866,0.20137417267781083,-8.173487779040572
1.522,-0.4800191329727562,0.18452192532109665,-8.442609992347933
1.524,-0.5107556446528411,0.1673270749065985,-8.781622593595609
1.526,-0.5399531269653933,0.14836666010255176,-9.134310496839191
1.528,-0.5669658482867358,0.12927497884787792,-9.473867813265976
1.53,-0.5916081787322945,0.11046440382213439,-9.708399519788538
1.532,-0.6137410431788461,0.09063646106486864,-9.805125732318297
1.534,-0.6338039750343594,0.06991675970952324,-10.122975405870354
1.536,-0.6512184477754055,0.049533990300715994,-10.233639546043436
1.538,-0.6660550159057143,0.028792494065162905,-10.25247371726626
1.54,-0.6782417530708915,0.007675533109551564,-10.441973817036994
1.542,-0.6877767633620525,-0.01299622459605027,-10.398743215618552
1.544,-0.6945897504431737,-0.03379647830593553,-10.303544871114665
1.546,-0.6986542871306824,-0.05483703965523297,-10.502479221055257
1.548,-0.6999702424535396,-0.07480332025474128,-10.291180188526575
1.55,-0.6985373214354239,-0.09611714527774445,-10.1904018130018
1.552,-0.6943048977416896,-0.11619190506597057,-10.117770362424537
1.554,-0.6873617534371493,-0.1360418676399135,-9.870604660535983
1.556,-0.6776861830233967,-0.15536510452204835,-9.677692684930298
1.558,-0.6654007479643285,-0.17404919061403717,-9.228125744015957
1.56,-0.6503776709306895,-0.19179889388950933,-8.902631145075562
1.562,-0.632864945516329,-0.20898651871772272,-8.479453958838972
1.564,-0.6128453647908247,-0.2246910243912733,-8.022264162881465
1.566,-0.5904709846029411,-0.23961065474052826,-7.437454669374208
1.568,-0.5656244274021454,-0.2542056990023815,-6.806579073956895
1.57,-0.5386244424514899,-0.26684169348210024,-6.405034049577566
1.572,-0.5094975252721866,-0.2787302279289201,-5.773074457446243
1.574,-0.4784223744696535,-0.28907032381677017,-5.323269719944099
1.576,-0.44531858919551737,-0.2990438481254907,-4.684231370749852
1.578,-0.41052641961887737,-0.3070719861168955,-4.052075398130269
1.58,-0.3741352963264095,-0.3139782799966966,-3.392759340691836
1.582,-0.3364260688149541,-0.32005257819675603,-2.8158572481925246
1.584,-0.2977699499847868,-0.32459157739210154,-2.272711981555712
1.586,-0.25720618842293863,-0.32804394739430265,-1.5220987151241543
1.588,-0.2156000649339981,-0.3303950765539725,-1.027329579737503
1.59,-0.1735455828868415,-0.33116165038888884,-0.47179206885993397
1.592,-0.13101547403258385,-0.33080431604762467,0.25654453526093607
1.594,-0.08720635803312679,-0.3292884680924451,0.8975767416997344
1.596,-0.043442154821223024,-0.32662187079443716,1.366991392421392
1.598,0.0007564766000235766,-0.32237460158661513,2.128427237992752
1.6,0.044220857285132385,-0.31710773652434454,2.719580896578652
1.602,0.08821442005741513,-0.3105964861566423,3.4134950952491927
1.604,0.1316117248606147,-0.3025806596907597,3.987683567271612
1.606,0.17448867890177935,-0.29340256992588176,4.713281247199833
1.608,0.21651039218469656,-0.2834947645749022,5.059082095894081
1.61,0.25812000394447093,-0.27233546812883874,5.658218726430422
1.612,0.298452104720062,-0.2600925853049071,6.17546852677799
1.614,0.3376401299754768,-0.24668124287365784,6.678192149232999
1.616,0.3752488885585272,-0.23222305086025583,7.298631911803411
1.618,0.4118224053456496,-0.21717643477667106,7.6758702835187815
1.62,0.44654302412499997,-0.2011191266415229,8.17709718037561
1.622,0.47952586687052406,-0.18431819069164984,8.567505309441145
1.624,0.5104448001330786,-0.16665042890523424,8.817568553532864
1.626,0.5395689572854578,-0.14822008153463928,9.12637040295927
1.628,0.5666037668577051,-0.12935608550664274,9.501785441518491
1.63,0.5913049045505085,-0.11012510117455764,9.676946181205643
1.632,0.6135057236303538,-0.09043311078502472,10.068332107922062
1.634,0.63357038471306,-0.06960399003361345,10.100259220079831
1.636,0.6509998932361359,-0.0496509392763879,10.29330568861818
1.638,0.6658732543978202,-0.02856216577358941,10.31249045390612
1.64,0.6780542854280567,-0.007971184343912835,10.332105105959736
1.642,0.6876851325407833,0.01293870519865158,10.487014244802793
1.644,0.694549968550089,0.03428725023769305,10.474642499294765
1.646,0.6986343763574498,0.054367359699034834,10.324748128674553
1.648,0.6999822075442192,0.07563089395105232,10.359739630888996
1.65,0.6985660258988697,0.0957258639524314,10.152634106216532
1.652,0.6944064799224992,0.11637845822169363,10.139082014691962
1.654,0.6874965343405995,0.13603074348146377,9.881990628840708
1.656,0.6779507931383323,0.15547189834217695,9.713185454866398
1.658,0.6655743212504472,0.17403857127403674,9.220064587437523
1.66,0.6506414770341167,0.1921206618095352,8.860630680901183
1.662,0.6331359797602004,0.20903163458356197,8.464412410658952
1.664,0.6131242652166409,0.2252920146225054,7.944945818550493
1.666,0.5907469368871024,0.24013055687737744,7.436778529575546
1.668,0.5660290300593918,0.25429283158407606,6.904815558257516
1.67,0.5390423479545131,0.26699458596170367,6.421146507775471
1.672,0.5101362808885423,0.27882586638867835,5.805540832616532
1.674,0.47881906789495143,0.29004218582395297,5.122248126843754
1.676,0.44561100708500534,0.29980793734922556,4.696940851951355
1.678,0.41098560152456476,0.3077867532412736,4.041785161879245
1.68,0.37458012963473053,0.31514228829441443,3.4003327546064868
1.682,0.33654091089627,0.32093653624191615,2.7945247676443112
1.684,0.2976031801863236,0.3254713889245925,2.2791788999310425
1.686,0.25726053061799214,0.3289465331728454,1.6081140611150315
1.688,0.21611937634721057,0.33088606749378036,0.9956952000895628
1.69,0.17361243954242137,0.331690072325174,0.3828870605344372
1.692,0.1307110323578244,0.3313312204391232,-0.3300986655141769
1.694,0.08725108069279963,0.3298191907082339,-0.9105015036941526
1.696,0.0437529997809501,0.32717724171028034,-1.4474329014392522
1.698,-0.0004714339971397926,0.32297162739301155,-2.1301604924981987
1.7,-0.044412775237538754,0.31800504075657976,-2.6430798482318685
1.702,-0.08819625156141182,0.3111356024274973,-3.474431085641843
1.704,-0.13135219113562777,0.3035316844491004,-3.926680620326823
1.706,-0.17451598611638444,0.29431034036717063,-4.5691382154362845
1.708,-0.21674613271580204,0.28435315153200624,-5.099616454654786
1.71,-0.2581270538610354,0.27324688491030535,-5.666730014759541
1.712,-0.2982287854426721,0.26069678701113613,-6.244241378167516
1.714,-0.33763356639292097,0.24720938598980202,-6.817224062293941
1.716,-0.37546043261531126,0.23266317367548248,-7.262197365036455
1.718,-0.41182015330778343,0.21771040171673822,-7.718141301708155
1.72,-0.44634716392202495,0.2017291398919015,-8.020098858505328
1.722,-0.4795164669346997,0.18475562718361957,-8.378050316598415
1.724,-0.5105815568759597,0.16713766428918533,-8.86025434553061
1.726,-0.5398076283878327,0.14883208132533915,-9.163549228968508
1.728,-0.5666415821317137,0.13047566452888043,-9.472292124729023
1.73,-0.5913083344275448,0.11108105850307402,-9.724047288074605
1.732,-0.6137535233211487,0.09052954048727535,-9.98632246462622
1.734,-0.6335959905887784,0.07118848834578227,-10.127245834524622
1.736,-0.6509257999402304,0.05065913524976348,-10.275455273204589
1.738,-0.6658886368728703,0.029416952281355116,-10.417094571539645
1.74,-0.6781203028898163,0.008710838908300583,-10.400161150029653
1.742,-0.6876840106268052,-0.012022967981505787,-10.524169154428112
1.744,-0.6945344999166568,-0.03290677861846376,-10.366263762445728
1.746,-0.6986352601797268,-0.05383092715770185,-10.474093393191511
1.748,-0.6999767126379494,-0.07484715149885085,-10.267791238791702
1.75,-0.6985673747614504,-0.09489999203691077,-10.204060657074761
1.752,-0.6943909489515014,-0.11538814255082913,-10.122857492413122
1.754,-0.6874804598443114,-0.1351955285046154,-9.961564284573846
1.756,-0.6777985529252403,-0.15499622956930872,-9.640025190532029
1.758,-0.6655530254616027,-0.173203181310357,-9.311279365182044
1.76,-0.6506176440154509,-0.1917304018675465,-8.725954867304138
1.762,-0.6330267952126087,-0.20834833501511335,-8.405271694307306
1.764,-0.613029897519265,-0.2244484109878499,-7.928746401860155
1.766,-0.5907374799742212,-0.23923149234377208,-7.494496486340476
1.768,-0.5659650319161106,-0.25354585841336214,-6.880979595321798
1.77,-0.538993579936527,-0.26651048006321026,-6.288282023041903
1.772,-0.509746695774297,-0.27855595015350293,-5.780544039494875
1.774,-0.47876458376407344,-0.2887980605137809,-5.2650057086268545
1.776,-0.4453071104594594,-0.29866385443222443,-4.752103364705694
1.778,-0.41071310028615937,-0.30666092933509426,-4.085483420045624
1.78,-0.37412290722334723,-0.31398223183004287,-3.4526152613871317
1.782,-0.3362647408430156,-0.3197163512068225,-2.8408531284499046
1.784,-0.2970348812165915,-0.32468565655102044,-2.2542556064081634
1.786,-0.2568252992154914,-0.3277362148505747,-1.4857012730007184
1.788,-0.21525403653179054,-0.33003217640238663,-0.981857768172315
1.79,-0.17298329659396974,-0.3307879756477598,-0.3660888450953289
1.792,-0.13006766033186787,-0.33039163284638234,0.27252070554092905
1.794,-0.08676479500334809,-0.32885138076327114,1.004979548348637
1.796,-0.04284718938442271,-0.32576556131495404,1.6674716103435971
1.798,0.0011315764491060787,-0.3219123624949375,2.162228002870757
1.8,0.045066455333610554,-0.31690986031749613,2.771843343606604
1.802,0.08869903034536761,-0.31002430807604153,3.5019658579300468
1.804,0.13223598364719905,-0.30232928549629984,4.055978546294104
1.806,0.17513071055898843,-0.29309852041766105,4.53696379774463
1.808,0.21736373256616773,-0.2827228182173758,5.144981886181483
1.81,0.25857523812030614,-0.2716234702552276,5.75743448027088
1.812,0.2990316104819895,-0.25930719798293556,6.290592741587947
1.814,0.33819731664811725,-0.2458596134226006,6.608791865047988
1.816,0.3759951729721892,-0.2316711625009515,7.249600947183159
1.818,0.41222635187353573,-0.21635400856354517,7.6449068704356185
1.82,0.447020464574313,-0.200204045712933,8.169045573892125
1.822,0.48002780130123923,-0.18322194162368924,8.506268815501906
1.824,0.5110506022884251,-0.1655800163901372,8.82364767575946
1.826,0.5399437945190511,-0.1476868054147338,9.253743757619997
1.828,0.5669711897480352,-0.128728371170329,9.477477949458843
1.83,0.5916004257889405,-0.10923611861655748,9.74568301497022
1.832,0.6139177852586473,-0.08967807639774078,9.93293934549346
1.834,0.6337714806212339,-0.06939089767176303,10.091274999160534
1.836,0.6512200897587933,-0.048256329817704606,10.254770651525412
1.838,0.6660524673327771,-0.027531507052913837,10.406816070980337
1.84,0.6782498737094474,-0.007575792797645939,10.349978720107954
1.842,0.6877540700193687,0.013847532593402654,10.405100485851083
1.844,0.6945843520150143,0.03499769622040768,10.501851683337703
1.846,0.6986528665578784,0.05571099352611404,10.334793346096072
1.848,0.6999630992700296,0.07651820033625281,10.39481018385383
1.85,0.6985255784366771,0.09670586384469515,10.263614566711833
1.852,0.6942973029759036,0.11716918806587899,10.014100585176156
1.854,0.6873397241207615,0.13712636429418745,9.9304575122242
1.856,0.6776990397754665,0.1562083424008554,9.676370912829631
1.858,0.6654047149454807,0.1749380753830703,9.370623655262554
1.86,0.6504021035949684,0.19300715721479714,8.848118572993318
1.862,0.6328697045671037,0.20989200625151694,8.556679304770256
1.864,0.6128483618072217,0.22558201365410224,7.886315022145422
1.866,0.590491349562986,0.24049966469075248,7.354465140362125
1.868,0.5656306087354238,0.2547319129849857,6.9454214962110346
1.87,0.5386209762743742,0.26775337134934446,6.370400892411204
1.872,0.50949457175517,0.27925343761154076,5.792682996845925
1.874,0.47844549181504065,0.28996874171416614,5.270159430903527
1.876,0.4453225232179823,0.29995355328919115,4.729191608947387
1.878,0.4105219745468415,0.3083823566969264,4.106801512834168
1.88,0.37412056709614927,0.31527143221960785,3.4133787065737375
1.882,0.3363503025247845,0.3209983526725876,2.902157856078493
1.884,0.2969696779612043,0.32561624068395445,2.1665330351795635
1.886,0.2566546516494328,0.3290383917560158,1.5577222237836705
1.888,0.21519401703015195,0.3309545330935908,0.980030034027011
1.89,0.17311840021518232,0.3320866786203593,0.29854333427724555
1.892,0.13007408646207966,0.3316827569552381,-0.26413922443035714
1.894,0.08661658660524435,0.3297580693577468,-0.9574739677475289
1.896,0.04284590959424769,0.3270640864121774,-1.3739639039700322
1.898,-0.000982814645581729,0.323225830748327,-1.981426850613408
1.9,-0.045064951779830734,0.3178298918047909,-2.797319855142295
1.902,-0.08883075035733017,0.3112961394785356,-3.3654917167828526
1.904,-0.13224621392133493,0.3032299219065443,-4.008949250068662
1.906,-0.17513537137586455,0.294393304647627,-4.5825455132814215
1.908,-0.21735775381209013,0.2840238109698127,-5.148926606294714
1.91,-0.25871682855484024,0.2728758839351918,-5.721726347841077
1.912,-0.2990450346956729,0.26059681204362856,-6.297099120046847
1.914,-0.3381930363480334,0.24715407549547405,-6.777706422264887
1.916,-0.37599834241097196,0.23220765756770959,-7.2533757151731555
1.918,-0.41234094030103313,0.21721006752693842,-7.732584043550949
1.92,-0.44691952178161465,0.2013789230899508,-8.143386092865775
1.922,-0.4798301817909091,0.1844915384353222,-8.481402373935799
1.924,-0.5109821835093035,0.16664958238737448,-8.8456884221467
1.926,-0.540027704787886,0.14817800082004773,-9.258681655984248
1.928,-0.566928141313253,0.1293585086769304,-9.46795982504201
1.93,-0.591603230292645,0.11015157736740529,-9.680555276736241
1.932,-0.6139239841336274,0.09059398546010733,-9.913498770654025
1.934,-0.6338242265305611,0.0702535378235434,-9.963568365182402
1.936,-0.651216049062634,0.04996923826044402,-10.271170448256983
1.938,-0.666032414085462,0.029229812468201884,-10.405498852834983
1.94,-0.6782495943237925,0.008490600028973411,-10.363998108875402
1.942,-0.6877765121594376,-0.012609984969725865,-10.44548606642789
1.944,-0.6945844140467391,-0.03370274253761774,-10.437857553134016
1.946,-0.6986536645222763,-0.05441931063482552,-10.430461457341558
1.948,-0.6999696121003943,-0.07483470328903771,-10.445499728065563
1.95,-0.6985170631107667,-0.09618021021675817,-10.328243715961328
1.952,-0.6943104733241503,-0.11577170668448687,-10.160971986467302
1.954,-0.6873609252850025,-0.1357349347118463,-9.913416239099964
1.956,-0.6777552975095877,-0.15519474227775776,-9.656277589975273
1.958,-0.6653561314957103,-0.1741094934518589,-9.28058601743041
1.96,-0.6503998625393607,-0.19212006085462136,-8.837761229525462
1.962,-0.6328649551146043,-0.20898975350065327,-8.48074784991151
1.964,-0.6129407603995215,-0.22465921183066634,-7.761721397532839
1.966,-0.5904218353503997,-0.240016628653814,-7.420183752850782
1.968,-0.5656210502489271,-0.2538350362200358,-6.865364853905188
1.97,-0.5386136880455786,-0.26686473522024445,-6.295472293876468
1.972,-0.509611457331497,-0.27831563176471297,-5.812938006964162
1.974,-0.4783263058372647,-0.28909939759231956,-5.186420775314945
1.976,-0.4453140257476145,-0.2986541980549582,-4.636941257644564
1.978,-0.41051220978714814,-0.3070978375999048,-3.9346955038399383
1.98,-0.374232096756579,-0.31435757034530054,-3.4486353438660546
1.982,-0.33621932394924947,-0.3201024384365259,-2.81008567418489
1.984,-0.2970354754386843,-0.32468606640601505,-2.143053426261487
1.986,-0.2566642334150719,-0.3281264887935054,-1.6353142031411918
1.988,-0.2153869584086176,-0.3300338472534402,-1.075153149662319
1.99,-0.1729716106921241,-0.331170979053362,-0.34234263444508256
1.992,-0.1299962572768038,-0.33076821874934415,0.3151673122610303
1.994,-0.08654144019139326,-0.329209205020447,0.9054197172401331
1.996,-0.04287094903968918,-0.32613335615456285,1.4704570106700907
1.998,0.0011975395748958953,-0.3218884141425517,2.073218866625802
2.0,0.0450657473819635,-0.3165231786599451,2.8032368540523804
2.002,0.08886294880534443,-0.30998186641992886,3.539022818822064
2.004,0.13212630936043035,-0.30233571403015075,4.003733505567839
2.006,0.1751469652832577,-0.2930808282392241,4.681057208807232
2.008,0.2174224158703328,-0.28266799483897903,5.121039224706823
2.01,0.25879347925382695,-0.27152075138608267,5.575504143989756
2.012,0.29894888942384423,-0.25939093764280646,6.277208811695338
2.014,0.338176121048926,-0.24606582654152862,6.801172725517866
2.016,0.376028026462281,-0.23161443663199238,7.147705272425018
2.018,0.41233988316747716,-0.21628606213521528,7.684102864043529
2.02,0.44688433663655963,-0.2002486377301473,8.107786482344233
2.022,0.4799799170106091,-0.18328516752038626,8.541520159105389
2.024,0.5110206044493497,-0.16600822302325582,8.830856146197675
2.026,0.5400713370396287,-0.14748743696378963,9.198341878735249
2.028,0.5669265124772265,-0.12875457534385462,9.431962653460067
2.03,0.5916454107289185,-0.10913653780955777,9.63620255327223
2.032,0.6139475281659716,-0.08961483731305073,9.975512169525244
2.034,0.6338344679883278,-0.06930775142244971,10.085629442351268
2.036,0.6512188369001782,-0.04900146875362836,10.228257259981918
2.038,0.6660124990763158,-0.02832683162531373,10.45298627805916
2.04,0.678253377366177,-0.00755539803196839,10.254149250462286
2.042,0.6877896503788583,0.013628868975917977,10.331107226007868
2.044,0.6945920026242569,0.03434961476197836,10.427937656353942
2.046,0.6986526974902054,0.05538381250286533,10.46967441876934
2.048,0.6999632834010963,0.07575105765616455,10.32875951328974
2.05,0.6985107257524127,0.09640625536106806,10.269720737537012
2.052,0.6943040990987611,0.11672809401623688,10.106703267946276
2.054,0.6873616676947696,0.13632081294793408,9.835790136103416
2.056,0.6776803320813648,0.15590875976509186,9.533576533334049
2.058,0.6653295550366972,0.1747028208457415,9.35742528809732
2.06,0.6503739027196572,0.19232237581547618,8.861765975065477
2.062,0.6328772616926283,0.20916792487202274,8.355902951788481
2.064,0.6128751099689737,0.22518015103097344,7.855812168758192
2.066,0.5904075309965414,0.2409338090544023,7.410355215158912
2.068,0.5656231850230568,0.25436620692327855,6.965336193422564
2.07,0.5387022066426779,0.26738797770809974,6.466865692095789
2.072,0.5094869271091734,0.27927583015047847,5.841931468872847
2.074,0.4782830787556588,0.2900353156466031,5.186611507388558
2.076,0.44527053583351184,0.2996015296046678,4.727317658643487
2.078,0.4105375752715548,0.3076384523991154,4.060442704454697
2.08,0.3740675974048897,0.3149263434622069,3.3408350988496607
2.082,0.33616280215661504,0.32103270694837244,2.771609304544653
2.084,0.296958632378574,0.32561338053179467,2.1456655312865047
2.086,0.25676630007454826,0.3286417129064341,1.6069096005588694
2.088,0.21521334375704057,0.33056761394808615,0.8242663182642345
2.09,0.17292662338578924,0.33170057386604695,0.2538981491408652
2.092,0.12999093710484255,0.33130031756399525,-0.37030266992069377
2.094,0.08652381394879734,0.32973900129840816,-0.9072355314027085
2.096,0.04279076957857739,0.3270409386415452,-1.3378446443097525
2.098,-0.0011425987519675651,0.3228355760791367,-2.098279873907914
2.1,-0.04510107243279314,0.3174187474161712,-2.740813659747919
2.102,-0.08885770671737056,0.3108952213289096,-3.452590409229914
2.104,-0.1323106658655562,0.3028052982441075,-3.9898201701578824
2.106,-0.17512629542062544,0.29402596746445664,-4.530228657687889
2.108,-0.21738671263179218,0.2836195185174384,-5.15761329482645
2.11,-0.25871658310846246,0.27249556799403557,-5.726878722141596
2.112,-0.29904214607774066,0.25982179350711465,-6.246157234629319
2.114,-0.33825497230714285,0.24672302116501965,-6.7735156342563405
2.116,-0.37601714772384137,0.23253215866331897,-7.252088123034672
2.118,-0.4124138343788258,0.21713027352012865,-7.733035262657932
2.12,-0.4470768458851834,0.20102223109211934,-8.053288548099609
2.122,-0.4799871385882493,0.18418238957022037,-8.576200907588445
2.124,-0.5110231852670719,0.16653963378635442,-8.815937272410324
2.126,-0.5400407217660107,0.1480801056002855,-9.212741827743042
2.128,-0.5669492372753969,0.12931455521765126,-9.440727140261659
2.13,-0.5916376294966043,0.11006209659602334,-9.633785849968449
2.132,-0.613945845612503,0.09013502901265974,-9.938369160040128
2.134,-0.6338574632358828,0.06976462668390326,-10.224736707246754
2.136,-0.6512410235848719,0.04944702050421966,-10.253327825503149
2.138,-0.6660580128437723,0.02915917368667381,-10.356886712236513
2.14,-0.6782475631368194,0.007699969565954399,-10.466823841831086
2.142,-0.6877821424275337,-0.013415442324964302,-10.458324168842099
2.144,-0.6945855012567133,-0.03371586314213927,-10.5000336152369
2.146,-0.6986552717880052,-0.054503629126727016,-10.317517478939019
2.148,-0.6999630836259542,-0.0752070712721844,-10.326583086780605
2.15,-0.6985057680514837,-0.09632226475837406,-10.3264494998504
2.152,-0.6942951503410743,-0.11590120772922857,-10.121991726462499
2.154,-0.6873523675418649,-0.1365368392727488,-9.915429092417702
2.156,-0.6777180072339027,-0.15557173088883555,-9.616141851137096
2.158,-0.6653561314957103,-0.17410941667421082,-9.130725515189994
2.16,-0.6503991203913978,-0.19211476977394637,-8.787036867663794
2.162,-0.6328296454442591,-0.20905287578281623,-8.388064313563246
2.164,-0.6128169128779208,-0.22516184180040466,-7.857724359544275
2.166,-0.5903693665528794,-0.24008807492833292,-7.314553577590627
2.168,-0.5655862237312366,-0.2542624714622328,-7.011533622475534
2.17,-0.5385937030963669,-0.266865654638379,-6.362837907129797
2.172,-0.509484539869306,-0.2787422346367975,-5.75466120681291
2.174,-0.4783286070163523,-0.2894778409679088,-5.192647279701305
2.176,-0.44525140785536993,-0.29893590645127543,-4.757777540354178
2.178,-0.41042587172662215,-0.30751709072154615,-4.0819455298239085
2.18,-0.37399085677936794,-0.31440588982195383,-3.3740811687504486
2.182,-0.33608862370192993,-0.3201516232937961,-2.632824705927264
2.184,-0.29689886335318594,-0.32471912512120854,-2.2065028295984894
2.186,-0.2566213419703041,-0.3281238454355938,-1.604880331499103
2.188,-0.21521066991402715,-0.33003843520370807,-0.9685730581932493
2.19,-0.17300771599141015,-0.3311720361627406,-0.496027003513213
2.192,-0.13005350078044148,-0.33077367307381994,0.23769253521601796
2.194,-0.08679620471134761,-0.32924383219337544,0.775225901052663
2.196,-0.04288056392689606,-0.3261732050700706,1.6311295230471123
2.198,0.0010180220179083095,-0.32231441170313435,2.1806596385753783
2.2,0.04502927881218093,-0.3169378271915804,2.7442361763125223
2.202,0.08863062908984985,-0.3104257516385833,3.403289885881784
2.204,0.13237553288782816,-0.3022449445256747,4.058118336877477
2.206,0.17531577278717828,-0.2933746931739545,4.646952854651852
2.208,0.21749940256436823,-0.28300919316795714,5.248019037696128
2.21,0.2588051802931875,-0.27187340388335884,5.706221104419507
2.212,0.2990264690364807,-0.2597194475718205,6.204977142494154
2.214,0.33817814239478694,-0.24627280391262946,6.781884393614927
2.216,0.375934655662705,-0.23171410162196862,7.3152035424664765
2.218,0.4121674833141965,-0.21678681328927318,7.639838274311888
2.22,0.44712193587062893,-0.2000568850765927,8.089635861021474
2.222,0.4800871941913955,-0.1835283864305125,8.501029041386888
2.224,0.5111160618004287,-0.1658765087811532,8.79275272719907
2.226,0.5401060862932572,-0.1478392386574664,9.253626502707007
2.228,0.5669366143295184,-0.12885778755799523,9.569646842472553
2.23,0.5915976226218277,-0.1092701301999524,9.758062143533683
2.232,0.6139099597848071,-0.08935042711975763,10.004063358426755
2.234,0.6337397106214269,-0.0690876378849504,10.141219237093395
2.236,0.6512613380766201,-0.04845887610705334,10.348861908541354
2.238,0.6660961237036331,-0.02809041247885646,10.320262152264442
2.24,0.6782802566525262,-0.007014475400381315,10.388130166583055
2.242,0.687793291423612,0.013695679201037002,10.417918998194438
2.244,0.6945848700738976,0.03455047744741874,10.489444593786567
2.246,0.6986534477423123,0.055316872458547064,10.435891330336633
2.248,0.6999656858253327,0.07604281544253351,10.379333739555449
2.25,0.6985286369767998,0.09665424066555063,10.166324615
2.252,0.6943088529335798,0.11704224764300203,10.16490084308925
2.254,0.6873598950307436,0.13662168822618623,9.98790507609918
2.256,0.6777052330847678,0.15613229881513205,9.65902464349667
2.258,0.665429986009009,0.17450775193445398,9.31884219406869
2.26,0.6503496916280873,0.19314703927604726,8.834712097563672
2.262,0.6327960782180648,0.20965415823323408,8.296934775094938
2.264,0.6127722340722876,0.22573017778677784,8.052025418007148
2.266,0.5903448017141838,0.2406642479009796,7.446337002227192
2.268,0.5656371164291846,0.2547071616700465,6.983014860823691
2.27,0.5386280829287416,0.267748517308792,6.210051612097569
2.272,0.5095090801143741,0.27962400311655566,5.742151478626308
2.274,0.4784535538970834,0.2903330939794529,5.305420207660136
2.276,0.4453346451977812,0.2999313527531336,4.642789015095619
2.278,0.41052230614333374,0.3079910994816579,4.104737374898523
2.28,0.37413945457504155,0.31525975635897435,3.392675514367521
2.282,0.33639942834742403,0.32098469854208994,2.8389800500122155
2.284,0.2969041167881862,0.325625001138355,2.156773969670288
2.286,0.2564747547184038,0.3286827309824979,1.5025540951870462
2.288,0.21510492859521257,0.33095311825169743,0.9824668529680762
2.29,0.17290371267277269,0.331706285,0.2113864844906261
2.292,0.13006412236416737,0.331692530218638,-0.29241206445519713
2.294,0.08662728645567208,0.3297625320054814,-0.959572426021449
2.296,0.04286261818083591,0.32706782075088964,-1.5110449398718862
2.298,-0.0009288895158501442,0.3232425956450091,-2.1535163107635813
2.3,-0.04518615812325499,0.31738962130489257,-2.831006514093556
2.302,-0.08899610809199238,0.3108388080033365,-3.38551763741897
2.304,-0.13239382172721859,0.3031480135852293,-3.9435660573255507
2.306,-0.17525789999857314,0.2943052979847895,-4.643826999149274
2.308,-0.21736243656037668,0.2840499908475872,-5.122836437890587
2.31,-0.2587067194914204,0.27251297195901836,-5.673563896248511
2.312,-0.29901878103482293,0.2602336245481455,-6.259694215460414
2.314,-0.3380540675310822,0.24684229869526836,-6.736359486141596
2.316,-0.3759085389595079,0.23282751937382296,-7.281778568942562
2.318,-0.4123112041734414,0.21726036938363202,-7.616541827876702
2.32,-0.44700533756376554,0.20110755888353413,-8.187226131098393
2.322,-0.47974869327204817,0.18438208750918605,-8.488220251323519
2.324,-0.5111072529928419,0.16674852368174245,-8.892858700915259
2.326,-0.5401491630536097,0.14835554964966635,-9.142931249991898
2.328,-0.5670214789170935,0.12955017202386065,-9.476055397442495
2.33,-0.5916505246585655,0.10998218821179065,-9.607818014303934
2.332,-0.6138627500022681,0.09093615483880702,-9.836589525685389
2.334,-0.6337957898814894,0.06957243009552239,-10.319867751834865
2.336,-0.6512129119046149,0.049970181960835504,-10.233526880440541
2.338,-0.6659888031371725,0.02934211949243433,-10.431504411676553
2.34,-0.6782817256893343,0.007555687307986152,-10.345661451885997
2.342,-0.6878026715974985,-0.012810623139335477,-10.544573586181256
2.344,-0.6945985825294748,-0.03351301670489461,-10.390067671193401
2.346,-0.6986565016875518,-0.05457308929672626,-10.515745843117019
2.348,-0.6999707642125269,-0.07474677418644067,-10.431042558101694
2.35,-0.6985204233798783,-0.0961239070356076,-10.287799089516191
2.352,-0.694309747793713,-0.11611849662491104,-10.169793896552669
2.354,-0.6874073864134616,-0.13596957583605962,-9.819287591291166
2.356,-0.6776628501846373,-0.15581849406662696,-9.570645874772705
2.358,-0.6653116029954703,-0.17385388540505725,-9.371456790840648
2.36,-0.6503442741483025,-0.19224660462345092,-8.886142450616777
2.362,-0.6328257404053286,-0.209089798540079,-8.409291465012895
2.364,-0.6129383106862745,-0.22441765249372675,-7.963166529593634
2.366,-0.59043611389256,-0.24034503923678646,-7.399296355708246
2.368,-0.565745247413707,-0.2535737522627437,-6.8369849027724925
2.37,-0.5388478459585642,-0.26699566980297973,-6.440457973863647
2.372,-0.5094131601800167,-0.27880845107856717,-5.796930442376955
2.374,-0.47822020300059565,-0.28916699116077166,-5.331922167671311
2.376,-0.4452078033796594,-0.2987263289089934,-4.698596853546039
2.378,-0.4104503039733556,-0.30713099030333646,-4.101935248411537
2.38,-0.3741217045616097,-0.31393335676363854,-3.314881073822788
2.382,-0.3363985063880454,-0.3199996073850595,-2.815699157877931
2.384,-0.29708289284407263,-0.32467362759776536,-2.3300385924189944
2.386,-0.25688087819740163,-0.3281127770887058,-1.6473150220104218
2.388,-0.21511270169979715,-0.33042242255936044,-1.1003691790459371
2.39,-0.17282489616777885,-0.33116793592503874,-0.34884811261160764
2.392,-0.12991531896665873,-0.33076222688927254,0.25714678989594
2.394,-0.08652033398049941,-0.3292019810344421,0.9592973817244633
2.396,-0.042852441870726496,-0.32615999675316754,1.5565436908512436
2.398,0.0009251126390815594,-0.3223841279300798,2.272871861274402
2.4,0.045007486982208515,-0.31695332022834366,2.6910485703564966
2.402,0.08856942818084466,-0.3104402607696138,3.4098707501062666
2.404,0.13238548454306848,-0.3022202058646267,4.113554753056793
2.406,0.1753107407349857,-0.2933766991861715,4.717169104952711
2.408,0.2174991197924753,-0.2829859357024715,5.248184764176806
2.41,0.2587963749779893,-0.27187740707228913,5.601309833385542
2.412,0.29904076375525224,-0.259706298041458,6.213331384054501
2.414,0.33803292736170215,-0.24659004525200887,6.794709894870619
2.416,0.37594186489131465,-0.23175876806137014,7.145734064866556
2.418,0.4121227893929732,-0.21644594038297357,7.69366670052765
2.42,0.44713745842047486,-0.20005283799832915,8.157340103517603
2.422,0.4800944970881792,-0.18351816268524473,8.593962805692271
2.424,0.5111192241833116,-0.16587399925925045,8.943663597660798
2.426,0.5400997639295909,-0.1474980381564971,9.319105363023368
2.428,0.5669337416801001,-0.12925531347502986,9.391033267207169
2.43,0.5915973520025009,-0.10888573041464573,9.81079775662173
2.432,0.6138989162081797,-0.0893719381907879,9.978757762527493
2.434,0.6337590430808419,-0.06907154992250658,10.23838398216312
2.436,0.6512148057859527,-0.04867179617768496,10.311404229454533
2.438,0.66604800691194,-0.027936888800856534,10.514583879282656
2.44,0.6782450886022795,-0.007264140528943302,10.3843923335438
2.442,0.6877440787276223,0.013390542485658961,10.364566994738594
2.444,0.6945982863998569,0.034423595007513415,10.337093739347765
2.446,0.6986590356804099,0.05552400817445186,10.48591780146175
2.448,0.6999603395962363,0.07622160306016919,10.362572495598474
2.45,0.6985035354115128,0.09654132831615038,10.170905970827027
2.452,0.6943048559344537,0.11670106484569592,10.00775293323491
2.454,0.6873587519313633,0.1366185745954253,10.01656431420586
2.456,0.6777034146701533,0.15578482337437605,9.650409902011647
2.458,0.6654118779725045,0.17452219129293653,9.265167398274052
2.46,0.6504103296697674,0.19297091524955245,8.80879721873147
2.462,0.6328769628000477,0.2098609217004968,8.486199040332506
2.464,0.6128617875982662,0.22584723029845935,7.962195822029022
2.466,0.5905071543583092,0.24083312749436978,7.354490645471122
2.468,0.5655528483551312,0.2548411926567164,6.99005090064418
2.47,0.5385102609930886,0.2678738916576158,6.446496575926164
2.472,0.5093854889516437,0.2793558934059076,5.857386772123869
2.474,0.47826517953840664,0.2900652813655319,5.306925303330546
2.476,0.4453142362816599,0.29953617498873714,4.670280758201892
2.478,0.4105177505918246,0.30800430869416257,3.988182812610004
2.48,0.3741199973489119,0.3152836437010444,3.470102772766793
2.482,0.33632399369052457,0.32100268925988024,2.945296232064671
2.484,0.29702512637328565,0.32561187072714287,2.1608313047642858
2.486,0.2566223579017038,0.32904191877583544,1.5213963808631228
2.488,0.2152531668286597,0.33094898762160874,0.9341984189623989
2.49,0.17313529681507261,0.33208401829145545,0.38132479418090753
2.492,0.1299237383470483,0.3312928772236136,-0.3676749954395945
2.494,0.08646541268466214,0.32973403175920846,-0.7983201755948266
2.496,0.04269141869656898,0.32701781785114,-1.4654893677776053
2.498,-0.0012284776766175072,0.32277717554431723,-2.221566418429482
2.5,-0.04508047360405244,0.31781762201194885,-2.8262330109230493
2.502,-0.08884601560974739,0.31088662104444975,-3.4621706473061566
2.504,-0.13224339123157394,0.3032179370936757,-4.073299845258679
2.506,-0.17503199933245667,0.2936505676423445,-4.789040748308613
2.508,-0.21735294467457666,0.2836312307554549,-5.184342924792655
2.51,-0.2587163377790753,0.2724910833413124,-5.742516299387519
2.512,-0.29902727780228,0.26021471931648277,-6.262601515428979
2.514,-0.33803669923994234,0.24684513906189554,-6.806023226605416
2.516,-0.37612004400143145,0.23243950625193843,-7.292423221697484
2.518,-0.4124640949013346,0.21744732120910282,-7.727913768696771
2.52,-0.44714767751411555,0.20132004642448784,-8.251168574044067
2.522,-0.4800522646747216,0.18407276098407532,-8.62741042173114
2.524,-0.5109092664093023,0.16686791704963386,-8.907113965056958
2.526,-0.5399584339533883,0.14800562818396168,-9.275753636360022
2.528,-0.5669217011040208,0.12901536657821594,-9.46891059938235
2.53,-0.5914736753968254,0.11028317803934624,-9.659138128705933
2.532,-0.6139817078501193,0.09040452811745046,-9.89610946599284
2.534,-0.6338906920229899,0.07004196908896035,-10.050501636090031
2.536,-0.6512694645025018,0.04935362658568019,-10.349191187450597
2.538,-0.6660821953540528,0.02899900675922444,-10.33846391574771
2.54,-0.6782472206988555,0.008571143481893152,-10.398448040072427
2.542,-0.6877732947825724,-0.013338089367932389,-10.426803972508749
2.544,-0.694582974227208,-0.033643278907880665,-10.202986907461073
2.546,-0.698647586891986,-0.05468209980137898,-10.421050537669288
2.548,-0.6999604381646385,-0.0756974052034384,-10.399010389622969
2.55,-0.6984974559671272,-0.09641750626628558,-10.43067512041622
2.552,-0.6942844068236627,-0.11597206785401983,-10.073498765984588
2.554,-0.6873341762461356,-0.1359380566494456,-9.774253937922742
2.556,-0.6776965070607108,-0.15491934674588403,-9.632069235158912
2.558,-0.66535276580586,-0.17410284948833332,-9.188798725979284
2.56,-0.6504074642128418,-0.19209549898036882,-8.841725332587151
2.562,-0.6329283872146866,-0.208934498332071,-8.379056653616923
2.564,-0.6128752387198759,-0.22492691401889064,-7.954791802340873
2.566,-0.5904126910345074,-0.24001696398863226,-7.356793565589685
2.568,-0.5655994214679942,-0.25386625803667767,-6.871098800021889
2.57,-0.5387478814966362,-0.2668018491407345,-6.375196479316863
2.572,-0.5093878141116546,-0.27844729565680193,-5.770156428359428
2.574,-0.47822008828773976,-0.2891738677946641,-5.2952464278261075
2.576,-0.4451991708775315,-0.2987343718088148,-4.60923021849315
2.578,-0.4104292795225868,-0.30713808853611896,-4.073418334479462
2.58,-0.3741217672581992,-0.3139681056379929,-3.2729367216236556
2.582,-0.3362190836587226,-0.3200982019823684,-2.82929708929259
2.584,-0.29703454042020466,-0.3243093895695998,-2.107613718662092
2.586,-0.257199769370958,-0.3280208033876139,-1.6367411489275747
2.588,-0.21546226499688623,-0.33000227468664817,-1.0014399999230492
2.59,-0.17302819606776426,-0.3311719500994508,-0.3330208018963706
2.592,-0.13007078618874407,-0.33077546461852864,0.19659909278474114
2.594,-0.08687989275598605,-0.3292447266514583,0.938417065819194
2.596,-0.04269980049916468,-0.3264890990448634,1.4179864754766733
2.598,0.0012982889499761792,-0.3222415189966651,2.0253882004778467
2.6,0.04520526047646849,-0.31685382867365663,2.8214632032608127
2.602,0.08895223394850756,-0.3103074097129509,3.3360450062589
2.604,0.1322719213112409,-0.3023049381736377,4.18826824860576
2.606,0.17516532714473057,-0.29344434137028663,4.630402215788629
2.608,0.21737381505418252,-0.2834745752646779,5.080737061905277
2.61,0.25859421829587564,-0.2719948768304191,5.62997609768024
2.612,0.29903616575599284,-0.25964778844941677,6.192342217341348
2.614,0.33820182703717827,-0.24623334320656717,6.961080703926687
2.616,0.3759947375219767,-0.2320040551607778,7.28379376666137
2.618,0.412212839950072,-0.21672937137552742,7.627186212344786
2.62,0.447137121828125,-0.2000529493211644,8.207377675184443
2.622,0.48008654809908297,-0.18353006062885371,8.468484440719438
2.624,0.5110952845491784,-0.16627008171336669,8.803290012953894
2.626,0.5400839083340471,-0.14786560901051887,9.117078083564236
2.628,0.5669280678107108,-0.1292175398166945,9.496279442843564
2.63,0.5915985946745069,-0.10924150212407559,9.649071302563799
2.632,0.6138517042995479,-0.08997772608792112,9.936036298709825
2.634,0.6337288863484521,-0.06948478951644776,10.092312284400771
2.636,0.6512362149211594,-0.04855008320471123,10.325587473952648
2.638,0.6660699754992254,-0.027771989881108072,10.364823664202829
2.64,0.678263826808708,-0.007111130506961799,10.28597460377401
2.642,0.6877701759187448,0.013571360374732333,10.434444740938972
2.644,0.6945858817525036,0.034624274061531124,10.39956373380849
2.646,0.6986536832006626,0.05533776390634056,10.377661469081488
2.648,0.6999751460540733,0.07548104913179553,10.306436163554887
2.65,0.6985471524783862,0.09669756084355129,10.220694051455428
2.652,0.6943128347202865,0.1174158617382005,10.06753869340172
2.654,0.6873575798151591,0.1366451664125,9.9212818671125
2.656,0.6777022836319164,0.15617161418830242,9.681305462500713
2.658,0.6654239659730701,0.1745355266779945,9.354087821455307
2.66,0.6504041859412185,0.19299931004532983,8.768334866212216
2.662,0.6328744636178784,0.20950468962138005,8.42737797279335
2.664,0.612853212729434,0.225980566872176,7.894900574424494
2.666,0.5904768950833332,0.24089363669630692,7.3564764528870565
2.668,0.5656308523423123,0.25473192872839945,6.862111926918603
2.67,0.5386276470225349,0.26775996360052473,6.347353241703077
2.672,0.50949457175517,0.2796431140068949,5.7679465681472895
2.674,0.47844540362943916,0.2903439940191113,5.2446906160788345
2.676,0.4453145518945047,0.2995621408085919,4.747044467665632
2.678,0.4105304254783024,0.3079972214919557,3.8574493241830536
2.68,0.3741209086195794,0.3152687111491739,3.4839184077269705
2.682,0.3363653057212056,0.32099711690735205,2.8352184013120145
2.684,0.29702536969977344,0.32560205639914164,2.3126150300844066
2.686,0.256632091664204,0.32903921060802765,1.5639516410776562
2.688,0.21525818453089354,0.3309491095524002,1.025291918483246
2.69,0.17314349081339714,0.3320873692462606,0.2658887622225679
2.692,0.13007434703278492,0.33168775368343867,-0.31023773894419937
2.694,0.08662702281454113,0.3297609192755126,-0.9129180503296376
2.696,0.04285113343106727,0.32706377552825494,-1.4964213167136593
2.698,-0.0009724195353982301,0.3232448707826557,-2.133335606922034
2.7,-0.045060260838521174,0.31744723041584155,-2.7852318259306927
2.702,-0.08884601560974739,0.3109101187969495,-3.373423999293613
2.704,-0.13224810740344622,0.3032252311369472,-4.137471756388374
2.706,-0.1750220150086083,0.2940375855405761,-4.588981597951714
2.708,-0.2173481343899821,0.2840278061960153,-5.184737818852422
2.71,-0.25871682855484024,0.27287762907623586,-5.696398711865991
2.712,-0.29904182806487645,0.2602208562866144,-6.212785962564075
2.714,-0.33807364702043985,0.24682571774829687,-6.683981986124418
2.716,-0.37598977582800575,0.23258761046671436,-7.2896290857420665
2.718,-0.4123357392240229,0.2176006891191611,-7.720381210301239
2.72,-0.44702370324795054,0.20111060211454007,-8.164397156309791
2.722,-0.47985816105607254,0.18468219609640832,-8.620787420771267
2.724,-0.5109347188451613,0.16719272088327033,-8.923266582691163
2.726,-0.5400278642232558,0.1481856057516418,-9.22487216588
2.728,-0.5669308634482554,0.12973698633072175,-9.412559278891976
2.73,-0.5914958270854782,0.11062887691144088,-9.722593006740066
2.732,-0.6139147629413167,0.09022151715175375,-9.779039235401934
2.734,-0.6338242795934222,0.0702555544435311,-10.123446261209793
2.736,-0.6512169779805156,0.04992930612251931,-10.254870198801425
2.738,-0.6660066289026316,0.028898076632409175,-10.260506452849187
2.74,-0.678249536759628,0.0077487597249283665,-10.428029050202005
2.742,-0.6877760050729379,-0.012998703921005387,-10.511727694444525
2.744,-0.6945902779143434,-0.03379191639176234,-10.421745100302047
2.746,-0.6986491477427544,-0.054364603053061226,-10.461292700990876
2.748,-0.6999634697534833,-0.07560201654752852,-10.319372300408745
2.75,-0.6985130274534606,-0.09624300555100335,-10.244212562873269
2.752,-0.6942982152459347,-0.11622897431819258,-10.111006106637332
2.754,-0.6873877352346048,-0.13601845853429906,-9.849125778401055
2.756,-0.6776980443904126,-0.15527716854653936,-9.593489453090692
2.758,-0.6653596815374166,-0.1740798358387597,-9.209480243054026
2.76,-0.6504055438101747,-0.19172900636942072,-8.905400526998577
2.762,-0.632932675239302,-0.20891272261661684,-8.302174418213747
2.764,-0.612856544343832,-0.22505349678100012,-7.925341508136293
2.766,-0.5903935502693269,-0.239644161123141,-7.345476923135633
2.768,-0.5656422456890157,-0.25379570018507497,-6.827559108573554
2.77,-0.5387126362515242,-0.26643013756459333,-6.291210083133971
2.772,-0.5094991860071565,-0.2783512804224797,-5.7462108016490685
2.774,-0.478341824355815,-0.28909733089209144,-5.21032343457706
2.776,-0.44532491449530265,-0.29866663839005575,-4.612551491353743
2.778,-0.41061940418118803,-0.30705801810147004,-4.132266029765507
2.78,-0.374121881377057,-0.31397241341631876,-3.4031572399883094
2.782,-0.33622399181522516,-0.320098649960343,-2.7344296938381567
2.784,-0.29704219828678485,-0.324686352350214,-2.219840848289586
2.786,-0.2567430139403823,-0.328119238267614,-1.6080450139469786
2.788,-0.21525416270849237,-0.3300341077562724,-0.986601611599761
2.79,-0.17298828066746127,-0.3311715482346076,-0.27019578435167324
2.792,-0.13006779093180468,-0.3307775959234427,0.2288853599438897
2.794,-0.08676991476321455,-0.3292371868130752,0.7896310582310266
2.796,-0.04284758505878145,-0.32615308358056816,1.4712410514024827
2.798,0.0011158601095351609,-0.32229524598094333,2.075201416647094
2.8,0.045051373041364556,-0.3169192225309156,2.7193728847438763
2.802,0.08870410659323452,-0.31040307293502145,3.2957581954949835
2.804,0.13223662113297555,-0.3023216121770883,4.015092466113604
2.806,0.1751548748523418,-0.293096374207102,4.6516187231918495
2.808,0.21734948030627527,-0.2831154631948901,5.094849586852288
2.81,0.25857995775176373,-0.2720185634085096,5.62747206164862
2.812,0.29903149287978537,-0.2597002266312336,6.199949689795275
2.814,0.33819280625905623,-0.246257421541091,6.639261803919247
2.816,0.37599085030722607,-0.23206547369680028,7.184699728120852
2.818,0.4122223832266858,-0.21674711430381863,7.687499125131981
2.82,0.44702282654424036,-0.2006142104958796,8.020512606887136
2.822,0.47997231553593134,-0.18369687723187716,8.550944745654446
2.824,0.511003608250208,-0.1660711698672219,8.918715209552527
2.826,0.5399461800603015,-0.14768962291710525,9.175458010808134
2.828,0.5669394114918951,-0.12882463276738096,9.568713270595953
2.83,0.5915924225068525,-0.10966500150972205,9.77932985041775
2.832,0.6139107251571564,-0.08970289046001668,9.85086906155047
2.834,0.6337673973683329,-0.06975268094488188,10.063706115008113
2.836,0.651220044869814,-0.049023319418493805,10.194606504740705
2.838,0.6660507453865666,-0.028315450034121982,10.437641527456426
2.84,0.6782408368459344,-0.0076571131093247586,10.405567573511254
2.842,0.6877502250870764,0.013041072603413053,10.356385590008893
2.844,0.6945892184958914,0.034303618201043766,10.50886715987807
2.846,0.6986536498563417,0.05491442048023952,10.451525066068502
2.848,0.6999639104551822,0.07572303452014217,10.432496622592417
2.85,0.6985270426329023,0.0963102274985003,10.25202866584787
2.852,0.6942981887619843,0.11676060789644477,10.285397731916966
2.854,0.687344228325241,0.1363399277157258,10.058509403602823
2.856,0.6777012266146789,0.15579697486790198,9.665938996218769
2.858,0.6653730081870521,0.1746340283173674,9.3350708752887
2.86,0.6503818306634512,0.19230702494262294,8.851110792068306
2.862,0.6328690969078758,0.20949937719196268,8.52237510320488
2.864,0.6128205732289931,0.2256480532715153,7.875195807343054
2.866,0.5904135001417838,0.24057657044250416,7.372161010388691
2.868,0.565629714017192,0.25470913628715364,6.970272413805326
2.87,0.538582940856632,0.26743312422858845,6.343808485812389
2.872,0.50945683461813,0.27930072204437834,5.813561090091374
2.874,0.47837517894911,0.29000799274862804,5.205192474862324
2.876,0.4452768353663685,0.2995903253015153,4.7847245386456265
2.878,0.4104713534472745,0.3080159171713166,3.9713736428717796
2.88,0.37412022532909284,0.31488537304530856,3.4292788726567967
2.882,0.33633814539784945,0.32099712085509324,2.778913681053085
2.884,0.2970390857392913,0.325598627569723,2.2781317091313276
2.886,0.2566223579017038,0.32866301158470335,1.5970081358243984
2.888,0.2152471369923882,0.33094698021793956,0.9518595619942898
2.89,0.17309298477829568,0.33170284890117113,0.4352807139506453
2.892,0.13005868069798496,0.33130552041804745,-0.28734655013362737
2.894,0.08660601604017167,0.3297527311328246,-0.9352705909790151
2.896,0.04282983749233147,0.32667477391414984,-1.5311829466242568
2.898,-0.0010136215866889712,0.3228338461940299,-2.0612265631134328
2.9,-0.04506561470252863,0.31744233924210147,-2.798008397756223
2.902,-0.08885569806121234,0.31087519106640626,-3.3990163306458334
2.904,-0.13223306097230475,0.3028668978794664,-4.038285469600524
2.906,-0.17501213940779717,0.29366377535766336,-4.6550610635829655
2.908,-0.2173530688299344,0.2836588342215182,-5.17429018264459
2.91,-0.2587212701461089,0.27248953768922785,-5.61574826428122
2.912,-0.2990297101,0.26020722147788033,-6.252906251357464
2.914,-0.33795854627036104,0.24688025757724164,-6.856577796494419
2.916,-0.37599801352169765,0.23220099337888347,-7.310870713980835
2.918,-0.4123281442833235,0.21725307252919066,-7.719157801512158
2.92,-0.4468897164527652,0.20137543700669563,-8.119133263741219
2.922,-0.47970310990878456,0.18415925520961218,-8.492347334022126
2.924,-0.5110335825591705,0.16616149870996186,-8.987417399242613
2.926,-0.5400541594175221,0.14850259748020098,-9.170556312591339
2.928,-0.5669761271717003,0.12925618091606142,-9.492183960529587
2.93,-0.5915772645440439,0.1100936931481085,-9.715992836275278
2.932,-0.6139264859550494,0.09056254805591321,-9.81545401886743
2.934,-0.6338299854191859,0.07023045617067109,-10.08604722563546
2.936,-0.6512048902390012,0.05003900784726707,-10.267767748607225
2.938,-0.6660066289026316,0.028872743872279356,-10.428755879891654
2.94,-0.6782495943237925,0.00770973196950929,-10.426246163036685
2.942,-0.6877765330655464,-0.012989629901146132,-10.473290232684814
2.944,-0.6945841890373002,-0.0341132811959882,-10.49828892285947
2.946,-0.6986445623536892,-0.05461926814223931,-10.439253057848871
2.948,-0.6999655590075133,-0.0754884570493621,-10.281991221204722
2.95,-0.6985136090902587,-0.09582415312450711,-10.24828686594599
2.952,-0.6943052314836485,-0.11619712513269917,-10.198371657371226
2.954,-0.6873787448351255,-0.13608914785424378,-9.931873489084875
2.956,-0.6776965442332736,-0.1552929399185866,-9.649992600439894
2.958,-0.6653560858033608,-0.17410519646282172,-9.29866382970472
2.96,-0.6503991576073721,-0.1921155800368828,-8.825724887917312
2.962,-0.632920907722667,-0.20895295437483585,-8.346420531257372
2.964,-0.6128485324683846,-0.22507509978865672,-7.906762299366568
2.966,-0.5903847172869565,-0.2400475411800643,-7.366743838261522
2.968,-0.5656308523423123,-0.25383372790264,-6.908464188092701
2.97,-0.5386264237155142,-0.2668834849076795,-6.231793738728054
2.972,-0.5094412416289593,-0.2784008238961534,-5.722198847044659
2.974,-0.47832881092589496,-0.28911472774940333,-5.177305190059665
2.976,-0.44526448465641694,-0.29869742616650874,-4.689365627712577
2.978,-0.4106195034004541,-0.30707205283408984,-4.061623278727664
2.98,-0.37412153893880473,-0.3143583083273248,-3.408390119995464
2.982,-0.3362097457018589,-0.32010685325857147,-2.5867221911671425
2.984,-0.2970194160011881,-0.32469121580299076,-2.1728153686572513
2.986,-0.2567671807735804,-0.3281187845716163,-1.6670766780573407
2.988,-0.21525945062413546,-0.33003410545652173,-0.9479125736672241
2.99,-0.17299825237958988,-0.3311715934179371,-0.34763169932217725
2.992,-0.13006766033186787,-0.3307775924530321,0.19512682305350773
2.994,-0.08676479500334809,-0.3292364913054164,0.8945045684636125
2.996,-0.04284732130733453,-0.32615899055768083,1.493438392134489
2.998,0.0011208317066253575,-0.322295885587899,2.129265980412101
3.0,0.04505098164044677,-0.31691925985026737,2.8423048337165775
3.002,0.08869013279789273,-0.3104076235747209,3.35002193007058
3.004,0.13229318983180244,-0.3022872083476497,4.033252407123359
3.006,0.17522016379551955,-0.2934338898358956,4.680596788614944
3.008,0.21740201734986944,-0.28307106004203675,5.104652638496625
3.01,0.2585797442964734,-0.2720110906413694,5.63823135610079
3.012,0.2990221471273703,-0.2596714133720625,6.175031877054516
3.014,0.33818401341954707,-0.24622922473964146,6.754643018542087
3.016,0.3759905252214566,-0.2320806290957029,7.285220819842875
3.018,0.41220612752727276,-0.2163731919677304,7.648627536470061
3.02,0.4470267600277844,-0.20021280823926013,8.137415071315633
3.022,0.47997602129901085,-0.18330830408941542,8.53830760615621
3.024,0.51100732323865,-0.1656814510136791,8.85607094080778
3.026,0.5399587922181296,-0.14768512604605263,9.262376709703947
3.028,0.5669396359519494,-0.12881588228372093,9.402278578962433
3.03,0.5916002897468128,-0.1092455372165734,9.598621802617096
3.032,0.6139131577143027,-0.08969739445867522,9.887009327829825
3.034,0.6337693925487805,-0.06941349020229555,10.20911052285844
3.036,0.6512201346584784,-0.048637187587947495,10.220298885615753
3.038,0.6660538172516383,-0.02789989817370613,10.435258914472339
3.04,0.6782476506700345,-0.007228163350673918,10.470044181399386
3.042,0.6877540517311417,0.013317780262543617,10.477601851879799
3.044,0.6945834640851622,0.034227454873150355,10.464176496371838
3.046,0.6986539290506374,0.05534347182629388,10.33809537292326
3.048,0.6999655135074875,0.07601513396412876,10.27747236125312
3.05,0.698527647163358,0.09627734006834231,10.249753208626213
3.052,0.6943071916492547,0.11744319513035692,10.151733192376149
3.054,0.6873564657326026,0.1366481613745684,9.891324967190021
3.056,0.6777004980736955,0.15580279902782734,9.569578567540491
3.058,0.6654064959085366,0.17455295422939068,9.389904339599283
3.06,0.6504041335473407,0.19299117060814525,8.769543158820376
3.062,0.6328697045671037,0.20989444690571427,8.532691872471428
3.064,0.6128506857273591,0.22597177412803426,7.895072113178963
3.066,0.5904768290029893,0.24089687372360247,7.499086545462733
3.068,0.5656273951162514,0.25472743301909306,6.914844775229117
3.07,0.5386192740970274,0.26776729605373834,6.467784623226636
3.072,0.509566226975685,0.27942204555163547,5.921957248896028
3.074,0.478588427924297,0.2901708196066278,5.170259517832877
3.076,0.44529787679446825,0.29996829490822746,4.765798448947525
3.078,0.41050710599120305,0.30798498475860014,4.1399968117192
3.08,0.3742057291354179,0.3152516091697171,3.5502927803681956
3.082,0.3364195115942446,0.32098346320552884,2.737594315796274
3.084,0.29698155416831684,0.32560563006143184,2.2152108832273214
3.086,0.25657359125914014,0.32867043558070236,1.387612917879981
3.088,0.21522501674899647,0.33094624114470916,0.8632455981026629
3.09,0.1733806487931657,0.3320739333871759,0.465606586894534
3.092,0.130058944910478,0.33130516916543595,-0.4238053174363983
3.094,0.08661685273355578,0.32975872955480184,-0.9821946108704034
3.096,0.042862579942803125,0.32706824451804123,-1.4363798189981256
