zhaobohao-byte/Y1_1Pace/data/Atom3motors/raw_csv/260117_chrip_20s_3motors_aligned.csv
time,des_dof_pos_right_ankle_joint,dof_pos_right_ankle_joint,dof_vel_right_ankle_joint,des_dof_pos_right_hip_pitch_joint,dof_pos_right_hip_pitch_joint,dof_vel_right_hip_pitch_joint,des_dof_pos_right_knee_joint,dof_pos_right_knee_joint,dof_vel_right_knee_joint
0.0,-0.34922738159534,-0.346704364,-0.032966614,0.0005150882391821207,-0.011872649,0.010990143,1.0406438446172135,1.003196597,-0.008080987
0.002,-0.3484641042863105,-0.346704364,-0.011305162323463753,0.001023921638325781,-0.011872649,0.010990143,1.0412798895078703,1.003196597,0.007849314948772177
0.004,-0.3476911340747161,-0.346704364,-0.010990143,0.001539244565570831,-0.011872649,0.010990143,1.0419240276472206,1.003196597,-0.024003386280172928
0.006,-0.34690874109657877,-0.346704364,-0.010990143,0.002060836955452602,-0.011872649,0.010990143,1.0425760999176763,1.003196597,-0.008082927109256812
0.008,-0.34612378134983857,-0.3463239824888836,-0.010990143,0.0025841445481401743,-0.011872649,0.010990143,1.0432301845249372,1.003196597,-0.008080987
0.01,-0.3453260087801765,-0.346322894,0.01098226287834608,0.003115999609852099,-0.011872649,0.010990143,1.0438950521632873,1.003196597,-0.024234363798518163
0.012,-0.3445229025122184,-0.346322894,0.01096395416883117,0.0036513939084515438,-0.011872649,0.010990143,1.0445642158769817,1.003196597,-0.008080987
0.014,-0.34371303403081666,-0.346322894,-0.010977176809579992,0.004191318192604006,-0.011872874029495046,0.010990143,1.0452391452311247,1.003196597,-0.008071453037045775
0.016,-0.34290008952874385,-0.346322894,0.010777497477111844,0.0047332752177602485,-0.012250428516281265,0.010990143,1.0459166033228158,1.003196597,0.007924630007550731
0.018,-0.34207308805234293,-0.346322894,0.03266392216480646,0.0052846031964945755,-0.011877903158157208,-0.01068739861909285,1.0466057666228687,1.0034732335471384,0.008080987
0.02,-0.34124048493255343,-0.34594403429891957,0.032966614,0.005839685194938522,-0.011872649,0.03266582946830732,1.0472996118045839,1.0031985163877553,-0.007970394860984395
0.022,-0.34039940004585073,-0.34632061846910045,0.01112123624146982,0.00640039808119403,-0.011872649,0.01112123624146982,1.0480004917662091,1.0034754237716534,-0.008080987
0.024,-0.33955080454719905,-0.345941424,0.032966614,0.006966134328724672,-0.011872649,0.010990143,1.0487076439979737,1.003477097,0.008029155036821474
0.026,-0.3386961420944206,-0.345941424,0.032966614,0.007535910463519313,-0.011872649,0.010990143,1.049419846037196,1.003477097,-0.008075227892980165
0.028,-0.33783386531632165,-0.34594102028163215,0.01101340125952493,0.00811075486283607,-0.011872649,0.010990143,1.0501384969314775,1.0034773938592427,0.008115193292803385
0.03,-0.3369660576724755,-0.34556475476281745,0.032690099136759174,0.008689296782883743,-0.011872649,0.010990143,1.0508616546496778,1.003754066673448,0.03999545818555974
0.032,-0.3360878512376922,-0.345559955,0.05491245129596142,0.00927476220705686,-0.011872649,0.032932172273297165,1.0515934682819166,1.003757596,0.040402133
0.034,-0.33520343571684375,-0.345559955,0.054946899,0.009864374329712308,-0.011872649,0.011060764842061414,1.052330471835263,1.004037193610688,0.05650937417769579
0.036,-0.33431024047661656,-0.345178485,0.03317130814734328,0.010459844864232879,-0.011872649,0.010990143,1.0530748061628488,1.0043199012042985,0.10511687771104478
0.038,-0.3334101213964715,-0.3451760743752235,0.07678449400584238,0.011059916947431159,-0.011875059624776441,0.01085124289769882,1.0538249005651448,1.0046026391230476,0.12150994784583284
0.04,-0.3325034698180305,-0.344797015,0.055087974776747504,0.011664346093125595,-0.012254119,-0.010990143,1.0545804550210514,1.0051636942774607,0.16999511758844507
0.042,-0.3315913221344137,-0.3447956196525074,0.07692337,0.012272458430886557,-0.012254119,-0.01090974313380531,1.0553406242183032,1.005722118017699,0.21804599518112094
0.044,-0.330670126651246,-0.3444180656277286,0.07692337,0.012886581387504472,-0.012254119,0.010844904532035397,1.0561082112631455,1.0059997385486725,0.18605664741474925
0.046,-0.32974089475330715,-0.34403680305111406,0.09874273528571428,0.013506077535454655,-0.012254119,0.010990143,1.0568826484015015,1.006280085764685,0.15375298294114143
0.048,-0.3288047362473272,-0.344034076,0.07706232883595801,0.014130185044903777,-0.01187506106275352,0.010990143,1.0576627557875982,1.0065608173779528,0.1374649385650203
0.05,-0.32786422983787966,-0.34365659143986704,0.14216775506232932,0.01475718280476474,-0.011872649,0.032737012973287426,1.058446502411197,1.0068401594631367,0.12137241035901698
0.052,-0.3269136368130606,-0.34328120294229414,0.12146008313124561,0.015390913280947256,-0.011872649,0.032966614,1.0592386912508072,1.0071161876425052,0.121203586
0.054,-0.3259519124455056,-0.34289341505786025,0.120880127,0.016032050925271577,-0.011872649,0.054730935501091704,1.0600400544591142,1.0074013330054585,0.15320438673471615
0.056,-0.3249846101202847,-0.342889667,0.120880127,0.01667693141672598,-0.011872649,0.054946899,1.0608461303274022,1.0079626160334414,0.18570748843521515
0.058,-0.32401579535928143,-0.3425120392739661,0.120880127,0.01732279927281437,-0.011872649,0.011432887905794525,1.0616534818399999,1.0085203174590591,0.21783867231662518
0.06,-0.32303060458397903,-0.3421289650304119,0.14272766516008142,0.017979605356538326,-0.011872649,0.05468901094396552,1.0624745413748957,1.0088048213521312,0.21816422
0.062,-0.32204236507822565,-0.34174730424508054,0.142856598,0.018638418281182925,-0.011872649,0.033084576173524144,1.0632980411502504,1.009364455271914,0.2020917658747764
0.064,-0.3210465364859323,-0.3413657892681531,0.142856598,0.019302304172627564,-0.011872649,0.011105436278168596,1.0641279268159276,1.009646493442113,0.18592786912793607
0.066,-0.3200435383822866,-0.3409842283064266,0.1865932295512102,0.019970977958921998,-0.011493089306426613,0.03285656132538452,1.0649637356186632,1.0102061546572076,0.18584308
0.068,-0.3190372122012894,-0.34061003574932774,0.186813354,0.02064185586580707,-0.011491179,0.032966614,1.0658023542353152,1.010756451273822,0.24892844414205545
0.07,-0.31801806795177845,-0.3398441057405746,0.2304130855764335,0.021321285316423966,-0.011491179,0.032966614,1.06665160211566,1.0116046271796582,0.2825439972237847
0.072,-0.316991665102148,-0.33945953077115615,0.230770111,0.022005551173269692,-0.011491179,0.032966614,1.0675069623236277,1.0121679141666269,0.2988346949432658
0.074,-0.31595839613319887,-0.3386987817452852,0.230770111,0.022694410361997392,-0.011491179,0.011142283763666747,1.0683680153637765,1.0124508999591788,0.23477089361351156
0.076,-0.31492366082701534,-0.3383159276381133,0.230770111,0.023384222407629558,-0.011491179,0.010990143,1.0692303288860365,1.0130081080392064,0.21832932489865747
0.078,-0.31387002318782753,-0.3379305147377788,0.20879243300735645,0.024086644581229156,-0.011491179,0.010990143,1.0701083651696044,1.0135749388455149,0.26665028929034174
0.08,-0.3128165575682956,-0.33755085522662553,0.2306683987130992,0.024788957042908222,-0.011491179,0.010990143,1.070986227176043,1.0144124430249168,0.314900500676673
0.082,-0.3117548908290211,-0.33678969786148527,0.230770111,0.025496739478717063,-0.011491179,0.010990143,1.0718708974559437,1.015253922922041,0.34729573572654665
0.084,-0.3106856086724035,-0.33640649968891534,0.230770111,0.02620959579643917,-0.011491179,0.032861839406436236,1.0727619996854598,1.015536997693683,0.28311468991656735
0.086,-0.309613831056928,-0.3356607241290737,0.2521998014459759,0.02692410971679198,-0.011491179,0.011536923554024064,1.0736551518005728,1.0160853761928512,0.25128952009531597
0.088,-0.3085287762986966,-0.3352632808035433,0.27455350086130326,0.0276474853403085,-0.011491179,0.010990143,1.074559364607318,1.0166559081808033,0.28255158637070743
0.09,-0.3074344979938014,-0.33450161712580645,0.3184330013651135,0.028376996563475983,-0.011491179,0.010990143,1.0754712334646561,1.017775911326643,0.3470830254046595
0.092,-0.30633621074001904,-0.33335892753613167,0.34054476796207966,0.029109199658507605,-0.011491179,0.032851306973527304,1.0763864635644012,1.018340266528023,0.347445995
0.094,-0.3052339989568595,-0.33298064387416676,0.3621071363396094,0.02984399803919694,-0.011491179,0.032966614,1.0773050522202436,1.0186169525447315,0.30013359053970295
0.096,-0.3041184227918158,-0.33221370028793396,0.3189786177611071,0.03058771629491768,-0.011491179,0.032966614,1.0782346791704844,1.0194594876931293,0.298965663
0.098,-0.3029972790183552,-0.3314496729058248,0.31867981,0.0313351538057211,-0.011491179,0.011108183247672477,1.0791689653842669,1.0203021861372643,0.36326076555788966
0.1,-0.3018700261382269,-0.33106592520756295,0.2749365921655732,0.03208664639609152,-0.011491179,0.010990143,1.0801083382888463,1.021144189735775,0.363607973
0.102,-0.3007356527590318,-0.3306873283491068,0.274726868,0.03284290357302969,-0.011491179,0.010990143,1.081053687285084,1.0214252529298475,0.31572134370661303
0.104,-0.29959333248055825,-0.32992399966454633,0.296579371868819,0.03360445445777672,-0.011491179,0.032842646868819006,1.0820055618692748,1.0225442545898944,0.31512484
0.106,-0.2984434861001192,-0.3291610309380067,0.296703339,0.03437100712908224,-0.011111847463400095,0.032966614,1.0829637289787843,1.023387365882451,0.37940491361468764
0.108,-0.29728708916406343,-0.3283976389749523,0.31856971794584926,0.0351419483312269,-0.011489268015028626,0.032966614,1.0839274231479672,1.0239502696519562,0.37976712
0.11,-0.29612315532117306,-0.32763469715736765,0.3624164677939914,0.03591789245886982,-0.01111162007367668,0.032966614,1.0848974175593704,1.0245112699921317,0.3154485137911302
0.112,-0.2949520842489902,-0.32687139556493744,0.38451723949338107,0.03669860691636968,-0.01110971,0.032966614,1.0858733088358279,1.0250725356073942,0.29903889480989865
0.114,-0.2937778187719173,-0.32573290717351544,0.4282096095584323,0.03748145485528047,-0.01110971,0.011170235220783847,1.086851814331539,1.0259096801137766,0.34704870961900236
0.116,-0.2925887173912837,-0.32496442149372085,0.4504396649382849,0.038274191412065076,-0.01110971,0.03285621909723717,1.0878427509568935,1.0267537294768567,0.37960476056332976
0.118,-0.2914005091649928,-0.32421558995542815,0.4290866444076977,0.039066330652080344,-0.01110971,0.032966614,1.0888328966700143,1.0273057625402433,0.34820600273572766
0.12,-0.29019739697494956,-0.32343943422032045,0.4067293754424618,0.039868411410305116,-0.01110971,0.032966614,1.089835551999169,1.0278764799544793,0.31532493455025495
0.122,-0.28899511299664554,-0.3226799181998102,0.406593323,0.04066991906708997,-0.010732313599905079,0.032966614,1.0908373532089373,1.0289899695310867,0.36309023664855244
0.124,-0.28777492475965666,-0.321913128445363,0.3628841058489097,0.041483382700762995,-0.011107561774502756,0.032966614,1.0918541916494993,1.029838711148694,0.39574429829067814
0.126,-0.28655358223459293,-0.32114971443588214,0.362636566,0.04229762167409703,-0.010730151217941072,0.032966614,1.092871991616164,1.0301225436608612,0.3476888880793272
0.128,-0.2853250560786744,-0.32076547024492236,0.362636566,0.04311663041900107,-0.01072824,0.032966614,1.0938957538679224,1.0309631346399044,0.331331221951135
0.13,-0.2840894007953977,-0.32000574522905023,0.3407828685810056,0.04394040773399308,-0.01072824,0.032966614,1.094925480808394,1.0320810585195532,0.4116368702122905
0.132,-0.28284646751137854,-0.31886375767592373,0.3625082171228844,0.044769026212081495,-0.01072824,0.05481852784803337,1.0959612751365424,1.0329239094109655,0.4281530777839094
0.134,-0.2815971101748986,-0.31809913241572363,0.3844728477438952,0.04560192506263421,-0.01072824,0.054946899,1.0970024430285135,1.0334861476045265,0.36403145975938056
0.136,-0.28033919167957577,-0.3173348397581512,0.4064883356788487,0.04644052953336511,-0.01034859238146423,0.054946899,1.0980506561283365,1.0343280135245432,0.37968992354950437
0.138,-0.2790756035409291,-0.3161927855229358,0.42845458314285717,0.047282937903885,-0.01034677,0.0330818448519004,1.0991036655731259,1.035448152965924,0.4279932956068152
0.14,-0.277808483140122,-0.31505068065886127,0.4721712594487103,0.04812768130214192,-0.01034677,0.05476923831059075,1.1001596440498984,1.036010381558897,0.39618754014037794
0.142,-0.2765255464624643,-0.3135228448564593,0.5600194241818183,0.0489829761920877,-0.01034677,0.033071782827751195,1.1012287566081984,1.0365732287990432,0.3637626061291866
0.144,-0.2752406097865061,-0.31237699886880366,0.560440063,0.04983959219883181,-0.009967255619518589,0.032966614,1.1022994692335202,1.0376921619635366,0.4439954091883937
0.146,-0.2739483397678827,-0.3112329997235133,0.560440063,0.050701108357057705,-0.009965301,0.05482640166833512,1.103376389588698,1.0388137581350256,0.44440943
0.148,-0.27264869899761535,-0.31008804828622544,0.5167034839531306,0.05156752892571837,-0.009585741762075134,0.07681329107549195,1.104459409143794,1.0393780979871199,0.380090909745975
0.15,-0.2713419042825128,-0.3093232871760429,0.538347145311919,0.05243873881165812,-0.009583831,0.09878720831191895,1.1055483942114674,1.040218093197378,0.41192262426519666
0.152,-0.2700285425079857,-0.30855998598139317,0.45095901009029105,0.05331431299952324,-0.009583831,0.07702559833599715,1.106642835223957,1.0413390663357587,0.4925138664438216
0.154,-0.2687081381781328,-0.3077971353730632,0.4068028903706794,0.05419456579909383,-0.009204179688915374,0.09879506640643623,1.1077432402728031,1.0419026093921335,0.4124735024469607
0.156,-0.2673804901965435,-0.30741393762336117,0.3628566117442193,0.05507967749141835,-0.008822800623361144,0.1426365522557807,1.1088496183558998,1.0427425694951133,0.3799289183921335
0.158,-0.2660461398699177,-0.30665354159778463,0.362636566,0.055969241979969,-0.008441648295974274,0.142856598,1.1099615851044473,1.0438622318935207,0.4600970106120772
0.16,-0.2647043506680176,-0.30588960945834326,0.362636566,0.056863762516509715,-0.00805968222917164,0.12097980543136787,1.1110796662456788,1.0447064622224875,0.44448272286058726
0.162,-0.26335609334509474,-0.30512693786306755,0.3845094521994995,0.05776259901001311,-0.00767834593397688,0.16462210303980454,1.112203305496245,1.0449894074292696,0.34791977653199857
0.164,-0.2620008435590542,-0.3039835790406776,0.42838628535512346,0.058666111338046584,-0.007676482,0.142948368250507,1.113332617162785,1.0458286441448168,0.347445995
0.166,-0.26064299798996055,-0.30246236229839385,0.5159394042425937,0.05957134391275248,-0.007297372076145152,0.16470089650779296,1.11446414559651,1.0469472134299822,0.4116883465574063
0.168,-0.25927025836184686,-0.300936139691308,0.6257181700747586,0.06048649778919112,-0.007295012,0.12114217992118756,1.115608162527201,1.0475118095442948,0.39602264836520806
0.17,-0.2578930568815115,-0.29940844830122926,0.6482448498577397,0.06140463370115627,-0.006915364071726936,0.120880127,1.1167557682013352,1.0480734748808926,0.3315953964890798
0.172,-0.2565102606731044,-0.29788201815718546,0.6702330568751341,0.06232649551967096,-0.006533756290399523,0.14275962370936196,1.1179081366248211,1.0491932000249253,0.3634653513261777
0.174,-0.2551202822398665,-0.29673565176189337,0.6484414884826518,0.06325314617978064,-0.006152194922022177,0.18662991695934184,1.1190663850953741,1.050036018820198,0.4279777033693811
0.176,-0.2537234541690107,-0.29559137745578073,0.5826994417721097,0.06418436511191895,-0.005390937635756854,0.23058150036209774,1.12023046603969,1.0508774172815256,0.3960649813361144
0.178,-0.25232029157510727,-0.2948268919755632,0.5605369910518536,0.06511980147281832,-0.004628088975563238,0.2745329950700918,1.121399744017525,1.051439552692812,0.3637505141834545
0.18,-0.2509098340505544,-0.2944437857499404,0.4510477928727056,0.06606011626147609,-0.0042449827499404045,0.29660380313611445,1.1225751586802193,1.0528381718085815,0.4762154117261025
0.182,-0.24949264839508078,-0.29368103195771117,0.4067035955929996,0.06700490478125,-0.0034822289577111456,0.2747819995124836,1.123756098824382,1.053683911964401,0.4606091148947557
0.184,-0.24807321698194426,-0.29292188000308383,0.3847810694917566,0.06795119467870381,-0.00310169550527814,0.274726868,1.1249389918563912,1.054242829978057,0.396409331472779
0.186,-0.24663821468387173,-0.29215688681257473,0.34087026357279465,0.06890786273119562,-0.003098845,0.2091050869794406,1.126134827170819,1.0556426948697109,0.46025950561582596
0.188,-0.24520099011768212,-0.29101360804067755,0.40631804410461647,0.06986600502265411,-0.0027189686774424433,0.208789825,1.127332492035412,1.056487384647978,0.49275478741870454
0.19,-0.24375654471835517,-0.2894894982758045,0.5160117885942789,0.07082897375208581,-0.002337542820023838,0.23067579749630512,1.1285361772194278,1.0570494898529201,0.4124349797022646
0.192,-0.24230606103671037,-0.28834399676167777,0.582102266950429,0.07179595763587604,-0.0011969517616777883,0.2526418323765491,1.1297448962259833,1.0584477090762632,0.47641965352812204
0.194,-0.24084872115679026,-0.28682174669448746,0.6261116124847006,0.07276751719112913,-0.00043309885022026434,0.3401367379753542,1.130959369204006,1.0595695943537327,0.508856468445172
0.196,-0.23938420462018828,-0.28529334300226866,0.6920231045274029,0.0737438597263735,0.0003311025010149254,0.340660095,1.1321798606293647,1.0601348605416119,0.44468728315391043
0.198,-0.2379138929002027,-0.2833889795568263,0.736043334119371,0.07472407463336116,0.0007139432866333095,0.340660095,1.133405127024204,1.061811848,0.5408848844446034
0.2,-0.2364360795240763,-0.2818604721344067,0.7581439484933811,0.07570927827938022,0.0010955932152653548,0.27502567093691116,1.1346365924294397,1.0626579534133571,0.5091953553136553
0.202,-0.23495235637327133,-0.2807160943765028,0.7145536525426734,0.076698425277897,0.0014764752139031067,0.25288001785120817,1.1358730805672388,1.0632193603400786,0.42873797369705985
0.204,-0.2334615182370335,-0.27995003179928396,0.6268139076522674,0.0776923273579349,0.002237907195704057,0.252746582,1.137115378983546,1.064618115375179,0.5247248828937948
0.206,-0.23196392670083432,-0.27918699819635195,0.517020442114926,0.07869071396781883,0.0033805462030281354,0.3402303794500477,1.1383634152657927,1.0654625288123512,0.525210857
0.208,-0.2304605955409836,-0.2784241487019907,0.4727466219744904,0.07969293987883108,0.004524819452020503,0.4281296691510311,1.1396161490375387,1.0663039279879603,0.46089221220801047
0.21,-0.22895533437559806,-0.2772858418357482,0.47252655,0.0806964424111244,0.004908711718527316,0.40678385534952494,1.1408705249358853,1.0679765466958433,0.5727104347629455
0.212,-0.22743352829363378,-0.2765166326152005,0.47252655,0.08171097962064855,0.005291662692399761,0.3409757537815679,1.1421387555097757,1.068549450192699,0.5093583574440455
0.214,-0.22591004702121825,-0.2753740277123614,0.47252655,0.08272664150184765,0.0060527901933484325,0.2969129313518894,1.1434083450331387,1.0693895041749912,0.4607997382921683
0.216,-0.22438026206806533,-0.2738503295781194,0.5162632874797998,0.08374649033818095,0.0068155482134429745,0.36230654627243475,1.1446831510785553,1.0710680879942798,0.5409655933857705
0.218,-0.22284424900810293,-0.27270901395679525,0.6035724677712759,0.08477050156148712,0.007953046033827894,0.4279515477077745,1.1459631602579838,1.0716322505939466,0.47733389526053416
0.22,-0.22130212889597994,-0.2704231541028708,0.6917807432882774,0.08579857650065609,0.00872215296770335,0.428569794,1.1472482554337349,1.072752798485646,0.476727754
0.222,-0.2197522006741774,-0.26889105240876,0.7797898548866213,0.08683186722353362,0.009106319396586706,0.40670085794581695,1.1485397936133763,1.0741550249045233,0.5571366217889964
0.224,-0.21819661843449756,-0.2673638964399905,0.7583327044041995,0.08786892232614138,0.009868030282032928,0.3409275406874254,1.1498362059581595,1.0747206104135052,0.49315194120066813
0.226,-0.21663495215969583,-0.2658387365430716,0.8238782698746575,0.08891003064258554,0.010630610726200404,0.40629480487012987,1.151137517311787,1.0761190330791135,0.5089757171286786
0.228,-0.21507195350466618,-0.2646973373019114,0.6934494051019826,0.08995203408111987,0.012146719594562507,0.42837932951193164,1.1524400481356785,1.0772376569285291,0.5731309505303337
0.23,-0.21349186517935884,-0.26392594407921266,0.6264999030556889,0.09100543139816471,0.012921417922707634,0.4943802166202592,1.1537568109485163,1.07808726406337,0.5091730120964953
0.232,-0.2119115860960553,-0.2627848338338487,0.5388257357729543,0.09205894318615183,0.013302765053996194,0.4288442702690295,1.1550736239744965,1.0794854203180304,0.5734221023147004
0.234,-0.21032533839743284,-0.26202139982535716,0.5166062705877381,0.09311643743926788,0.014063023174642857,0.3411519706967857,1.1563955683589255,1.0806076891534524,0.573691189
0.236,-0.20873682543560923,-0.26088184025460814,0.494681936910572,0.0941754480111204,0.015202582745391841,0.3842666197822571,1.1577193475014946,1.0817270293084789,0.5416275577703651
0.238,-0.2071328303108833,-0.25973405936577787,0.516372938498027,0.09524477621397068,0.016350363634222168,0.4939549551763721,1.159055990754679,1.083131304087648,0.6378465367221093
0.24,-0.2055273415473408,-0.2582097113482771,0.582102079596757,0.09631510648437872,0.0171163607759628,0.494506836,1.1603938633279274,1.0839758316555383,0.5418324804766902
0.242,-0.20391513945326656,-0.2566832873542809,0.6918216717015263,0.09738990028707678,0.01749978991473885,0.4288607158404484,1.1617373279936813,1.0856554164229668,0.6057271346665872
0.244,-0.20229743445461046,-0.2551610203271884,0.7141377939803758,0.09846838321015011,0.018259240833016176,0.3849148203270695,1.1630854268176076,1.086498635268078,0.5739103024437441
0.246,-0.20067454031337945,-0.253252170854209,0.7580178725760001,0.09955030474767469,0.01940294622841791,0.40648048858173136,1.1644378829124733,1.0876204589048357,0.5415359814226867
0.248,-0.1990442789417094,-0.25172485996102967,0.758243561,0.10063714332196924,0.020546957276486713,0.47216509982219046,1.1657964429735368,1.0887420661350256,0.5895845937115958
0.25,-0.1974083611249255,-0.25019825904329157,0.758243561,0.10172775282822745,0.02131234947584973,0.4943967379663685,1.1671596952763144,1.0895854999831842,0.5255346327159213
0.252,-0.19576643850327966,-0.24867309997319195,0.758243561,0.10282238046976745,0.022074928516144406,0.4070751556698439,1.1685279669166369,1.0909845252536636,0.589496092508519
0.254,-0.19411797656101049,-0.24752524548913823,0.6925898483759847,0.10392134510641086,0.022838771671043208,0.45036119821508713,1.1699017019957103,1.0921093888102174,0.5737606244705181
0.256,-0.19246472172564685,-0.2463817790802763,0.6485748859341354,0.10502352247227853,0.024360114231419722,0.5161456308680324,1.1712793791362823,1.0932303433119341,0.5093799437129585
0.258,-0.1908047915480334,-0.24523764706972584,0.6702121561203813,0.10613014029499404,0.025126775955303934,0.47276231329737783,1.1726626932809299,1.0946310636680572,0.5894169849612634
0.26,-0.18913935804732387,-0.2437120037635756,0.6265569031846283,0.1072404288428895,0.02589062012030075,0.47252655,1.1740505738062939,1.0954765689707604,0.5576670093015873
0.262,-0.1874678680314773,-0.24256816506412848,0.626373291,0.10835474896017647,0.026652117619869128,0.4506834281994051,1.1754433973678313,1.0968740718991077,0.5896542641494348
0.264,-0.18579038386972588,-0.24104208400179128,0.6701358277935275,0.10947307084827175,0.027796099499761168,0.47242944832493433,1.176841373906198,1.0982787636797229,0.6220287119798185
0.266,-0.18410753160338256,-0.2395167360171592,0.6922017693765491,0.11059497735850406,0.02894011023832221,0.5162737895691134,1.1782437745952834,1.099401610059104,0.5739222677988561
0.268,-0.18242034864700285,-0.2379955531007844,0.7359184751549798,0.11171977086037108,0.029702520445685762,0.49467922096386974,1.1796497479193624,1.1007984537161875,0.6378264402336582
0.27,-0.18072949048164533,-0.23609259443430614,0.7798430353944015,0.1128470072672486,0.030464900627992852,0.42913530525955923,1.1810587851199332,1.1019217121670042,0.5902661832216796
0.272,-0.17902404244258974,-0.2341786975271531,0.8020834661276316,0.11398396769870037,0.03160996668576555,0.4504370225101675,1.18248000279504,1.1033266171996412,0.6380841240336125
0.274,-0.1773179449264513,-0.23302980146743799,0.8240745419223522,0.11512136590404101,0.03275493853256202,0.5161766042457061,1.1839017076762426,1.1044506097822042,0.6222467019568225
0.276,-0.1756064148297162,-0.2315065974126757,0.7804504462558971,0.11626239564202243,0.033519202791041224,0.516483307,1.185328023914858,1.1055719446719086,0.6060970478108173
0.278,-0.1738886978739125,-0.23035937758702135,0.7364625302506262,0.11740753309045406,0.03428268261016343,0.49460645497864725,1.1867594763227267,1.106973848039246,0.654272915458905
0.28,-0.17216663510504351,-0.22883195706690562,0.6704875945400238,0.11855557517539049,0.03542781644802867,0.4506551130669056,1.1881944626018839,1.1080995210035842,0.590004827911589
0.282,-0.17043803070394659,-0.22768948116397145,0.6484569191612367,0.11970797366424228,0.03656938083602854,0.4942925402762188,1.1896349426915465,1.1097769941394768,0.6541775351307967
0.284,-0.16870418318172067,-0.22616475696028152,0.6921125304493082,0.12086387886606292,0.03771431853089218,0.5163863211427719,1.1910798800471878,1.1106229843235924,0.5901356433699905
0.286,-0.16696578207878787,-0.2246403212722401,0.692306519,0.12202281233713606,0.038478219366559485,0.4946246091564845,1.1925284827532976,1.1120215605766346,0.6059257310418007
0.288,-0.1652264992895083,-0.22311841978456784,0.7141117143441922,0.12318233698767796,0.039617601905599806,0.5163082477255975,1.1939779695646608,1.1131421354421591,0.6220428008883604
0.29,-0.16347065214326578,-0.22120554032586826,0.7799910423458682,0.12435289218665077,0.040767152405868264,0.5383834525318563,1.195441061459833,1.1142691742404789,0.5738595638057485
0.292,-0.16171563044449744,-0.2196797615305466,0.8020996672935572,0.12552290424049126,0.04153070423472669,0.5165801427064428,1.1969036769782997,1.1156693891231393,0.6219579003874002
0.294,-0.15995493174964254,-0.2181547947581318,0.780330006,0.1266967139167064,0.04267274818265221,0.516483307,1.1983709097178266,1.1167918329316096,0.5739337928298582
0.296,-0.15818979549809342,-0.2166280139602815,0.7583405468572281,0.127873475485939,0.04343804801765267,0.516483307,1.1998418645243087,1.118193754545205,0.6058697053150048
0.298,-0.1564194154814594,-0.21510682469304812,0.7364278332909091,0.1290537193333731,0.04495587030695187,0.516483307,1.201317126757601,1.1193135420149734,0.622050543204278
0.3,-0.15464303839072374,-0.21319875976433347,0.8018263570711897,0.13023797027125314,0.045725949897634975,0.5383364031628046,1.2027974838149518,1.1207165664445773,0.6061030608321787
0.302,-0.1528613263478779,-0.21204978326529153,0.7584793881598904,0.13142578876180258,0.04686850173470848,0.5166012205799452,1.2042821915340962,1.121840298623584,0.6542325573711697
0.304,-0.15107482738211384,-0.21052504482548012,0.758243561,0.1326167877326638,0.04763394158487415,0.5383549159172134,1.2057710345607364,1.1232421238945485,0.6062436708853632
0.306,-0.14927811293978777,-0.2089778727539654,0.7580417146050089,0.13381459651043282,0.04879250018223017,0.4947086473615981,1.2072682394199354,1.1246616152785927,0.6700582047384616
0.308,-0.14748119609395494,-0.2074475895989987,0.7368998933654786,0.13501253236628116,0.04993376656812493,0.5166955008432471,1.2087657158089902,1.1257894480833233,0.6066364702807248
0.31,-0.14567953471387698,-0.20554410329390724,0.8017772547157506,0.13621364408726752,0.05070025602718493,0.5382501538578753,1.2102670663519313,1.1274649296984618,0.6703435226387267
0.312,-0.14387305160175937,-0.20401806913896073,0.7584554197611099,0.13741796159141703,0.051844781393369385,0.5166951657611099,1.2117724961615548,1.128314625361627,0.6386450555610158
0.314,-0.14206687928169687,-0.2025133579877733,0.7801270208365859,0.13862207625560058,0.05297331451022807,0.5383667668365859,1.2132776451126073,1.129974156548554,0.6705150120707736
0.316,-0.14025138712659588,-0.2009879311897271,0.780220032,0.13983240990287554,0.05373764190740079,0.5165828310016685,1.2147904646672234,1.1310981958506734,0.670651793
0.318,-0.13842876664663806,-0.1990743569469715,0.780220032,0.14104748958226038,0.054885096031601625,0.516483307,1.2163093791058657,1.1327856696199425,0.6544984788909505
0.32,-0.13660310758931551,-0.19754620183851745,0.8022515094705042,0.14226459636060101,0.05603055246442617,0.5165016403687284,1.2178306965876462,1.1341897069019187,0.6867733284401144
0.322,-0.13477210134334763,-0.19563930737086963,0.868133545,0.14348527113197423,0.05679353757723966,0.5384466702396516,1.2193565955987125,1.13531165381546,0.6383816926228081
0.324,-0.1329370768927422,-0.1937312783954735,0.8681073624079809,0.14470860608509115,0.057938627204288266,0.5164571289523526,1.2208857601791203,1.1369949835062536,0.71905792610542
0.326,-0.13109821728492146,-0.19220650477516035,0.8461327543907872,0.1459345132365096,0.05908220783510204,0.4945273388300875,1.2224181009624513,1.138116298170962,0.6545152907046065
0.328,-0.1292714000684834,-0.1907127912302041,0.8031294627191837,0.14715239601409952,0.06020179350285714,0.5375268992310204,1.2239405240518957,1.1394882582212245,0.7019439799404081
0.33,-0.12743408467500894,-0.1895807329555035,0.7810795333248244,0.14837727852353713,0.06095918340210772,0.5595804125093677,1.2254716302919797,1.140596138618501,0.6408615524309134
0.332,-0.12558138388177809,-0.18807363742831645,0.7380937169928614,0.149612406434394,0.062085775657941704,0.5183137489512195,1.2270155146386603,1.142252933841166,0.7002812407906008
0.334,-0.12372425081044348,-0.18654875064772458,0.736263275,0.15085050044134476,0.06286410465499166,0.516483307,1.2285630954020028,1.1436661994378128,0.6720187229952347
0.336,-0.12186230290389889,-0.18502309200083442,0.7152194090394565,0.15209179439477763,0.06435749699916557,0.5585746910681846,1.2301147382001907,1.1453369765073311,0.7016013514870664
0.338,-0.11999558381466031,-0.18349669029895063,0.75639324675948,0.15333627316805723,0.06515307387157167,0.560440063,1.2316703256620978,1.1464831606541854,0.702972949
0.34,-0.11812547718643461,-0.1816051618940026,0.8003518105493025,0.15458302150435094,0.06628156748038631,0.5183281595231907,1.2332287498792467,1.1478740246005723,0.687491968053893
0.342,-0.11625069109933221,-0.17969779476731434,0.8232545016345214,0.1558328692854758,0.06742598888925974,0.4954289623311479,1.2347911226816122,1.1492764216270115,0.7022949146330909
0.344,-0.11437110497476005,-0.17778979210648702,0.8663041974930836,0.15708593132740847,0.0685707901527546,0.5576961211656333,1.2363574688585142,1.1506793943094444,0.6565102785849034
0.346,-0.11249941009384998,-0.17589088408294767,0.9100627844372848,0.1583337226135798,0.06934622839444643,0.5394718048873858,1.237917137892286,1.1520756855103833,0.7161586372897829
0.348,-0.11060124641552403,-0.17434201211835806,0.870000861229057,0.15959917003469656,0.07011188291957875,0.5174169651145285,1.239498925202814,1.153483172697104,0.641766302606989
0.35,-0.1087098411841478,-0.17245034368641945,0.868133545,0.160860101545292,0.07160577042553953,0.516483307,1.2410751896966625,1.1548859431778944,0.7157244458372481
0.352,-0.10681495886787534,-0.1709076510274299,0.8470707426135957,0.1621233567936959,0.07276681498986286,0.6007272040727489,1.2426541432509777,1.1560202994519977,0.6417062479326178
0.354,-0.10492715453276455,-0.16902787720312684,0.8880066724221248,0.16338190262649605,0.07354101614745943,0.5625434065778752,1.2442273894113047,1.157669598105176,0.7152685552231435
0.356,-0.10301291022434139,-0.16710958343347332,0.8690590088657468,0.16465805090988198,0.07430833439292141,0.49728338821079787,1.2458225518569555,1.1588247639474505,0.6417361746122375
0.358,-0.10110618184709808,-0.16556914111880952,0.8471005046585715,0.16592921776725064,0.07580058388119047,0.5155362257497619,1.247411502883089,1.1602140650147619,0.6692590284252381
0.36,-0.09919637602635345,-0.16404265961569656,0.8251151916996661,0.16720242130097782,0.07696188429890267,0.5796011600417462,1.249002988653947,1.161617115842796,0.670651793
0.362,-0.09728151431791632,-0.1625156962642252,0.8031194494773948,0.1684789918042675,0.07810710656232853,0.5613628493285221,1.2505987095451185,1.1630206095140165,0.6861351346854349
0.364,-0.09536372328909502,-0.16062343610161003,0.8232645471914133,0.1697575231230824,0.07852079797137745,0.47617519669338104,1.2521969447067427,1.1644236755499104,0.7177935123381038
0.366,-0.09344711730597371,-0.15908396566075467,0.824176788,0.17103525613608123,0.08036293021187954,0.5566623248506131,1.2537940624026285,1.165824109153434,0.6882026467714558
0.368,-0.09151784645713604,-0.1571911667202864,0.8452301423183771,0.17232144099296529,0.0811758239202864,0.5814934173183771,1.2554017821687133,1.1672279614315035,0.7177772842124105
0.37,-0.08958928396800568,-0.1552835234766901,0.8672136594168355,0.17360714002132954,0.08193888159258376,0.5192426443884584,1.2570088869953786,1.1688993207849052,0.6726808355699296
0.372,-0.08766895747102738,-0.1537508434018005,0.868133545,0.17488735768598174,0.08269723882302771,0.47463014273015874,1.2586091511235928,1.170305130114191,0.76297497941412
0.374,-0.08572209279926093,-0.15186664561886073,0.8890019147151861,0.17618527242663012,0.08454492633071709,0.5560072731900345,1.260231604631303,1.1719710635928173,0.706232354332382
0.376,-0.08378390828683834,-0.1499442975448425,0.9321960468708824,0.17747738549642347,0.08537156860759798,0.6025260948283241,1.261846708632332,1.1733986551661457,0.7648641917073816
0.378,-0.08184204291727262,-0.14803669696925278,0.934066772,0.17877196776099655,0.08613460919532834,0.5202131616809677,1.2634649393752533,1.174801332088309,0.7211917734059111
0.38,-0.07989724138769672,-0.14612784294512052,0.8919402364538296,0.18006851172126848,0.08726373742460034,0.4743567704954665,1.265085600790415,1.1764737573217607,0.781083051051181
0.382,-0.07794933603635713,-0.14458446456044874,0.890110016,0.18136711030909525,0.08877534943955126,0.5568727405963719,1.2667088831546072,1.1778893048179975,0.7062516822116004
0.384,-0.07599839793087008,-0.14306112485970965,0.8690618704646597,0.18266773571275327,0.0899333331157782,0.6025400079182531,1.2683346695084625,1.1795581141947882,0.7648846521401714
0.386,-0.07404495169960662,-0.14117069658705755,0.8470910426238828,0.18397003318118965,0.09034686967405554,0.5202341159207484,1.2699625701988317,1.1807033342674296,0.7057308976330592
0.388,-0.07208808212113216,-0.13962733786578382,0.8040372118231925,0.18527460794099304,0.091459631361131,0.474367258865068,1.2715932813945792,1.1826323637097351,0.7803908375823192
0.39,-0.07011660611349876,-0.13770217315685324,0.8236457601118126,0.18658893087177966,0.09299656886002185,0.5797616709654001,1.2732361763273181,1.1838094723347092,0.7206965710804905
0.392,-0.0681622591600143,-0.1358196108176367,0.8665003486199881,0.18789182358667936,0.09413532192427983,0.6247400946199883,1.2748647410793519,1.1854570448945325,0.7658139909327455
0.394,-0.06619802018021455,-0.13391520881578947,0.8892595333761609,0.18920132087985697,0.09454454922910217,0.4996100269829722,1.2765016728865315,1.1868676824055728,0.7054745863839009
0.396,-0.06423066488332141,-0.1320086042808962,0.9112274377224406,0.19051289108947747,0.09602554515182934,0.494506836,1.278141142575519,1.1885391634876654,0.7650884233808843
0.398,-0.06225857124018199,-0.1300802803869062,0.912086487,0.19182762247916668,0.09756820409609356,0.6440279146696408,1.2797845492088122,1.1896954291622859,0.6890836956159875
0.4,-0.060277161973052835,-0.12816206266850366,0.9335638087275668,0.19314855739534334,0.09835655106912664,0.6054025719973642,1.2814356520465664,1.1913713176129148,0.7657663211759914
0.402,-0.05831881652270555,-0.12629470070628718,0.934066772,0.19445412531560707,0.09873874824997084,0.47831019884171233,1.2830676413350859,1.1927508123648665,0.7212612077455967
0.404,-0.056336181590354306,-0.12438352344099007,0.934066772,0.1957758802422088,0.10058300255900993,0.5357004057890709,1.2847197970898212,1.1944248849168957,0.7810692072363984
0.406,-0.05436810770482285,-0.12248956206212283,0.9549692538243995,0.1970879218788956,0.10175130973340432,0.6429794432931014,1.2863599199550895,1.1958292779841437,0.7069217141320554
0.408,-0.0523742714840825,-0.12057005760816326,0.956043243,0.19841715269762727,0.1025377533822329,0.5852184983111646,1.2880214364636937,1.1975091777781512,0.7958157577442978
0.41,-0.0503893446954345,-0.11866713447836423,0.9140564937774607,0.19974044251746337,0.10366329610401807,0.5194382317003091,1.289675507457623,1.1986524084961958,0.7227562014411555
0.412,-0.04840303159620887,-0.11711982369253768,0.912086487,0.20106464660121603,0.10517641430746233,0.5796489469781153,1.2913307774592273,1.2005837700696007,0.7655802677859365
0.414,-0.046414218645045906,-0.11559443533659002,0.827895117935065,0.20239052154834863,0.10633646775813178,0.6245140453506494,1.2929881105854297,1.201740615712975,0.7057071346368402
0.416,-0.04442345843195901,-0.11406789762321087,0.8452332039760259,0.20371768975512394,0.10675037258373092,0.5210839015114503,1.2946471077074595,1.2034006055597566,0.7803916447384303
0.418,-0.042431764086184286,-0.11218880509992896,0.8252384029855553,0.20504549627714866,0.10785546915936538,0.4537351082474544,1.2963068688837762,1.2045388618134028,0.7222574607049491
0.42,-0.04043751091076997,-0.11027142186954436,0.8662414016231414,0.20637499869800913,0.10973599808741007,0.6398353631754197,1.2979686916008635,1.20674035005,0.7964582684564748
0.422,-0.03842978503562946,-0.10832787435176858,0.9110286673189497,0.20771347536152018,0.11056267827373284,0.6054546396810502,1.2996418464486936,1.2079319337662573,0.7210795841564361
0.424,-0.036439447292723796,-0.10642583412510395,0.9548629855619579,0.20904037245117282,0.11095226736960913,0.476067322367827,1.3013004419510532,1.2098697123042652,0.7977668599947725
0.426,-0.034432447708154505,-0.10451244162863293,0.9345872051130247,0.2103783688111588,0.11245225408288481,0.5368983883164693,1.302972919472103,1.2110177443595265,0.7210484175425189
0.428,-0.03243186157475083,-0.10260428095348836,0.9555321622790698,0.2117120879269103,0.11397878244186047,0.6243287906976744,1.3046401140996677,1.2126881685581397,0.8138406918372093
0.43,-0.030439052776923076,-0.10035687282039234,0.956043243,0.21304062485443787,0.11474861807235992,0.584063686059556,1.3063008289668638,1.214077251452602,0.769431918921062
0.432,-0.028450309595384617,-0.0988178107154155,0.9141774422252125,0.21436646092165682,0.11550385511850803,0.4986885650243154,1.3079581051902958,1.2159997881781162,0.813789456227101
0.434,-0.026434155795755337,-0.09691796103142994,0.9331438953505278,0.21571056083116727,0.11736741201055662,0.5787255078123801,1.3096382413883392,1.2174367939695299,0.7386866808294146
0.436,-0.024427670051086956,-0.09501119577793662,0.9130160797060995,0.21704822562862316,0.11854350548248749,0.6245142668476293,1.3113102817847826,1.2191081842611389,0.8126783253477483
0.438,-0.022394869137128535,-0.09267013129985248,0.9554974313014507,0.21840342520264946,0.11896863729370544,0.5395514014095156,1.3130042806204798,1.22056435665134,0.7522559445452421
0.44,-0.020384311557510474,-0.09074852534443113,0.956043243,0.2197437944716936,0.12010928658443114,0.49483319317413177,1.3146797203818075,1.2222522704953294,0.8156156121638323
0.442,-0.01836757615749345,-0.08919215861626249,0.9558551419643366,0.22108827645484871,0.12165345723537803,0.60439682,1.3163603522911604,1.223681668091298,0.7359857001797432
0.444,-0.016358846374209708,-0.0872899649150233,0.934066772,0.22242743961529285,0.12279254003047688,0.6040106702380781,1.318034304234403,1.2253583554998206,0.8156223899885263
0.446,-0.014346806707732635,-0.08537767204140885,0.934066772,0.22376879324627666,0.12356067937684437,0.538459778,1.319710962142857,1.226769227316992,0.7359767438830318
0.448,-0.012336765529411766,-0.08347165234754522,0.934208738866925,0.2251088228877005,0.12470774137596899,0.5393116531291989,1.3213860792245988,1.2287251942894057,0.8157824105607234
0.45,-0.010330942618242437,-0.08121643710312426,0.9558625578966408,0.22644603388449633,0.12658708724876674,0.6692458432901104,1.3230575290004765,1.230106982995302,0.768013852286352
0.452,-0.00832075779873463,-0.07930663918307508,0.9778349019926103,0.22778615532899607,0.12698096535995232,0.5831709765516091,1.324732649322311,1.2317870671175208,0.7996590453277712
0.454,-0.006305048565869332,-0.07739522600740653,0.9561850343563493,0.22912997254230633,0.12812126559813644,0.5169086318426711,1.3264124731088895,1.2331949597131766,0.7357111013408194
0.456,-0.004295004751044278,-0.0755041999981092,0.956043243,0.2304699975896885,0.12963162619250768,0.6030773900601512,1.328087514114214,1.2348616279087687,0.7989662446109667
0.458,-0.0022792978690674938,-0.07358015596932516,0.9123614480624322,0.2318138074146196,0.13079177742090703,0.6699176183288824,1.3297672833676364,1.236559353417659,0.7678174363198605
0.46,-0.00026482646900333813,-0.07167337649988084,0.9775913868038608,0.2331567879043872,0.13155687480397998,0.5611602666671831,1.331445987548164,1.237963187223308,0.7997245856485939
0.462,0.0017490307329518359,-0.06976806536715494,0.9344018002777182,0.2344993531614211,0.133076124101703,0.5168183352700965,1.3331242165298045,1.2396424294991069,0.7838976188738835
0.464,0.003763132944927882,-0.06785756615820897,0.934066772,0.235842088191918,0.13460452327462688,0.6694115599940298,1.334802638709262,1.241049380877612,0.7998399245791045
0.466,0.005776862257200667,-0.06595515732469386,0.955855119600642,0.23718456885658176,0.13537004206669837,0.6049612228553085,1.3364806975403476,1.2430044420447033,0.799936414
0.468,0.007787228571991404,-0.06405633421921708,0.9126809199992882,0.23852481421633237,0.13612919467544482,0.5176721730120997,1.3381559769631088,1.2444046634576513,0.7839929965565836
0.47,0.009803665831385642,-0.06213759048800672,0.9339006940490525,0.23986911538898165,0.13765386181110578,0.5819183577825618,1.3398364087479133,1.246093908663828,0.8158513798264572
0.472,0.011816980796296296,-0.06022767081091082,0.9559068246530977,0.24121131657407405,0.13880269611221202,0.6261004306246867,1.3415141744444445,1.2475004160379612,0.7839750686918945
0.474,0.013821411984324518,-0.058331982094301627,0.9994584169259566,0.24254760636149336,0.139563339957351,0.5612524141091103,1.3431845484195286,1.2494483085950716,0.8316574498072503
0.476,0.015841006128770718,-0.056415528217057975,0.9563749722394586,0.2438940051405747,0.14108710362182558,0.5168150362319118,1.3448675281454632,1.2508644117509584,0.8001803114890992
0.478,0.017852648465354802,-0.05450923832205409,0.956043243,0.2452351028605844,0.14261308062278089,0.6254829634756345,1.3465439242120454,1.2528224657396638,0.8480238993330156
0.48,0.01986409989814815,-0.05259941271198377,0.9778739853974696,0.24657606430294396,0.14338320031248508,0.626373291,1.3482200531286799,1.2542313280652901,0.8002662511334447
0.482,0.02186584323590664,-0.05070126120332147,0.9562987670839858,0.2479105618190305,0.14414246072099643,0.5177607943584817,1.3498881757414722,1.2559043019103202,0.8318790613542112
0.484,0.0238825592852545,-0.04840508158700863,0.9778812788269415,0.24925503888782932,0.1456673339441515,0.6038278686934324,1.3515688188685184,1.2575958538911791,0.7840881869436721
0.486,0.02589048718597997,-0.04649474669405032,0.9998637443076189,0.250593659,0.14719362744103973,0.6480772506152379,1.3532420290486409,1.2592793072981996,0.8319541854795517
0.488,0.02789729043939936,-0.04420829114973772,1.0,0.251931521138005,0.14796129728755364,0.5609850444434907,1.3549143872109404,1.2606835444549356,0.7680159807949452
0.49,0.029902300176386745,-0.04230083372091916,1.0218142444013574,0.25326818657489014,0.14910198816597214,0.5386220327529467,1.3565852989793323,1.2623626932861056,0.7996978246905584
0.492,0.031899692782192436,-0.04039979960734228,1.000234986621124,0.25459980581713737,0.15061999931626469,0.6471747473201854,1.3582497560799425,1.2640408246638946,0.78394725030676
0.494,0.03391011129996425,-0.038488463303225806,0.9782125739118279,0.25594006062138003,0.15177088061290323,0.626562335911828,1.3599250447096891,1.2654492615010753,0.8158175595591397
0.496,0.0359110578130217,-0.0365772383559484,0.978023529,0.25727404693322203,0.15253865185893453,0.582705308681677,1.3615924983505843,1.2671331473102005,0.7839867703914237
0.498,0.03791131392992492,-0.034671219887419585,0.956202975838456,0.25860753660886665,0.15405845429151777,0.6042370871615439,1.3632593967508044,1.2685365079203001,0.783774436
0.5,0.03990891270986184,-0.03276838260899037,0.9342784611605423,0.25993928612767986,0.15558072391473424,0.6696949437702461,1.3649240714044784,1.2704912835433464,0.7997807331559045
0.502,0.041903609877192986,-0.031249241156150114,0.934066772,0.2612690833333334,0.15634580642192494,0.5838631989042264,1.3665863981754385,1.2718894981038238,0.7681471212641174
0.504,0.04390009345559661,-0.029330328208353393,0.9122425819464371,0.26260005858886637,0.15749464287782858,0.5605961308609774,1.3682501314478484,1.2735836200473039,0.8317957237920077
0.506,0.0458924705937053,-0.027421944935599286,0.912086487,0.26392832491988555,0.15901864025283244,0.6259408130584377,1.3699104488755365,1.2752675286702446,0.7840924345933213
0.508,0.04788259759301496,-0.025516397925202477,0.912086487,0.26525506890163936,0.16016447183587423,0.6481848599427109,1.3715688626072702,1.276948818401858,0.8479316381498332
0.51,0.04986400087214448,-0.023615582344262295,0.9338265503060109,0.26657601325738545,0.16092765986885246,0.5614008247377049,1.3732199506584142,1.2786260495901638,0.8004662530382514
0.512,0.051856258331743385,-0.02132153578549198,0.934066772,0.26790416418972096,0.16245146580739767,0.560440063,1.3748802244946339,1.2803159557857313,0.8480859012856117
0.514,0.053840009059608965,-0.01941243419077693,0.977704014917898,0.2692266802883882,0.16359796748844135,0.6477107615663728,1.3765332913384596,1.2819980844501906,0.8163305274627025
0.516,0.055820849440209,-0.017123954689260142,1.0435476247976132,0.2705472188206864,0.16474359365536992,0.6046695590195703,1.3781840170188813,1.2836828705818615,0.8482161255059666
0.518,0.05779143668569036,-0.014840802638125816,1.043956757,0.27186095372565205,0.16588516918527765,0.5608216592969438,1.3798262505411583,1.2853616996173147,0.8163761760796765
0.52,0.05977398753505007,-0.012924984402342816,1.0658018840423142,0.27318265042632334,0.1670326743514224,0.6041341092840067,1.3814783629599428,1.2870491301587377,0.8482235166538369
0.522,0.061746715639289546,-0.011018959233353188,1.0222696905821322,0.27449782335403505,0.16817628906265636,0.6262266939331745,1.383122285397783,1.2887309583374629,0.832362577299464
0.524,0.06371586822612826,-0.009111620851216022,1.0001467194058178,0.2758105703852732,0.16932069169194086,0.5827099982813544,1.3847632040280284,1.2901353186437767,0.8162034729570815
0.526,0.06567531435455307,-0.00721281474605435,0.9782686682279578,0.27711686271927727,0.17083719039646375,0.582416534,1.3863960857025248,1.292086158271627,0.8480561564010917
0.528,0.06764595543388578,-0.004917251313727839,0.9561827920126976,0.2784306333828544,0.1719913543463105,0.64793116340345,1.388038334229045,1.2935016517904887,0.8002442068145664
0.53,0.06960612441401501,-0.0030067017415663366,0.956043243,0.27973741779764033,0.1727566479610204,0.5828409462436525,1.3896717496518889,1.2954612947406128,0.8641597788128501
0.532,0.0715620794783848,-0.0011007020285884457,0.9778664334478856,0.28104139717672205,0.17427653237284096,0.5605971312858845,1.3913017454109264,1.2968664071905898,0.8003983993412747
0.534,0.07350790065725565,0.0004212410162611276,0.9345728616651632,0.28233858641141285,0.17541867200356084,0.6473376265931158,1.3929232555832036,1.2988173205772107,0.8478585155093175
0.536,0.07546415666277129,0.0023338171365923795,0.934066772,0.2836427771602671,0.1765688524845435,0.648349762,1.3945535146494157,1.3002332313824587,0.8002500893759885
0.538,0.07741046444820598,0.00461915907589658,0.9777197649220779,0.2849403005385624,0.1777127575379483,0.5828721669350649,1.396175388595065,1.3019136716144406,0.8159839226732991
0.54,0.07935199586982955,0.006529814064400716,0.978023529,0.28623464990702113,0.17923653625283245,0.6260849640310078,1.397793282864704,1.3033185995563508,0.7839864411908168
0.542,0.08128976735971394,0.008815324191134413,1.0435010697712106,0.2875264976178784,0.1803830445955672,0.6481978750459962,1.3994081439887962,1.3049990450579123,0.799824713008103
0.544,0.08322300312737031,0.010725077577422816,1.0003091487260698,0.28881534141824683,0.1815273143492669,0.5828802436736202,1.4010191828085867,1.3066818364493982,0.7838881035053046
0.546,0.0851533575387366,0.012633330064400716,1.0,0.2901022441771156,0.18267226544126416,0.6042526440035778,1.4026277616657927,1.3080869705563507,0.783774436
0.548,0.08707826397377517,0.01454271907064439,0.9562845330742243,0.29138550583633327,0.18419727505322195,0.6699681233594271,1.404231939652402,1.309770521320048,0.783774436
0.55,0.08899870046192349,0.016446466648500715,0.9342289020811518,0.292665806461566,0.1849629624564493,0.6266975793072347,1.4058322948130137,1.311171914156116,0.7677344723476917
0.552,0.09091435542989985,0.018351536347779498,0.955854850820931,0.29394290045183596,0.18610318961209668,0.5827933510620312,1.4074286604678112,1.3131289250304798,0.7996593425438743
0.554,0.09282578670005963,0.020260894037593985,0.956043243,0.2952171967204532,0.18762740622556393,0.6478540234436091,1.409021472696959,1.3142591998270676,0.7518178148421053
0.556,0.09473328625533438,0.02217006709330629,0.956043243,0.29648885892478244,0.18877577785860875,0.648349762,1.4106110788178567,1.3164969048599213,0.8638335002670325
0.558,0.09663482760166271,0.024076975399356455,0.956043243,0.29775655782826604,0.18991992303825528,0.5610372329252771,1.412195658639905,1.31762600727601,0.7843233194869503
0.56,0.09852447228658609,0.026355903608912656,0.9995612159729055,0.2990163257019265,0.1910606823094474,0.582197161027451,1.4137703612354913,1.3195774072278075,0.847771415768271
0.562,0.1004230236317483,0.028273550657894737,0.9781681110460526,0.30028201651531405,0.19258794632236842,0.647915990763158,1.4153524982900727,1.321268930651316,0.8002553631578948
0.564,0.10230852576818507,0.030560452532911994,1.0216986858907704,0.30153902258669213,0.19335610317553065,0.6046746051092297,1.4169237638622705,1.3229523623689483,0.8481102879060338
0.566,0.1041899094669845,0.0324697640169229,0.9783116247943034,0.30279326482669844,0.1944978328088428,0.5825606069031105,1.4184915859594756,1.3246348463373854,0.8323607025911095
0.568,0.10606487183029437,0.0339936369990492,0.9562522307442358,0.30404324922643305,0.19601670499904922,0.6041878322557641,1.4200540242112978,1.32603503911053,0.8002436957019254
0.57,0.10793373509082241,0.03589685244839094,0.956043243,0.30528915819809294,0.19716443707294398,0.6479201861663886,1.4216114458691298,1.3282703203785458,0.8319389022865316
0.572,0.1097972551576249,0.037808712800693034,0.934229580125463,0.3065314944384166,0.1979329089247222,0.582904986639025,1.4231643597084773,1.3294059359180308,0.7841335924729358
0.574,0.11165528673983546,0.04010044532675989,0.9559355538269392,0.30777018225169905,0.19907736315847974,0.5605477521730609,1.424712742395493,1.3313681234657584,0.8480999258410422
0.576,0.11350736198432118,0.0420103671116146,0.956043243,0.3090049041624896,0.20060193569019796,0.6479514113486764,1.426256188100606,1.3324946588211306,0.7679813994991653
0.578,0.11534658822535886,0.04390669228821996,0.9777969012585921,0.31023106416531104,0.20174145957086986,0.62659987940685,1.427788828904067,1.334720483516236,0.863576150680967
0.58,0.1171919316535527,0.04582137943016158,0.9343508731224417,0.3114612940901288,0.20289027146068223,0.5608662023551167,1.4293265651111111,1.335858365307361,0.7521844133910234
0.582,0.11902501018385597,0.047348860855730285,0.8904189805704074,0.31268334551818294,0.2044137681572552,0.6259098575413391,1.4308541950388698,1.337815193756612,0.8316868270746962
0.584,0.12085163108994772,0.04963474756801909,0.9119553624713603,0.3139010784865732,0.20518288785202865,0.6482186374713604,1.4323763024934648,1.3389442975011934,0.7358726282422434
0.586,0.12266539224542518,0.05115816774771568,0.9338346318119141,0.3151102577283818,0.2063197625634271,0.5831128740132907,1.4338877847057767,1.3408937509471934,0.8312307372139551
0.588,0.1244841469614972,0.05306839602943288,0.9777184928782006,0.3163227755411849,0.2074683164204355,0.5605925678238813,1.4354034971418526,1.342307134255085,0.7520139986223977
0.59,0.12628977992467222,0.05497782591812866,0.9343238290584795,0.3175265252569726,0.20899321373099417,0.6259877165672515,1.436908106024553,1.3439900209122808,0.8317822436842105
0.592,0.12808822017937752,0.05726307464617584,0.9995758405632594,0.3187254668150392,0.20976016887991422,0.626373291,1.4384068970730577,1.3456720320064333,0.7680310957205148
0.594,0.12987381580904522,0.059163652568208776,0.9565386038440095,0.31991588305025126,0.21127376044780546,0.5829118948440095,1.4398948013417086,1.3467922128944247,0.7835923337680901
0.596,0.1316643202377489,0.06108042326095808,0.9342167910235928,0.32110954249803264,0.2124275528667066,0.6042467749338921,1.441386942300584,1.3487548313067066,0.7677255671543713
0.598,0.13344146260309894,0.06298783831040648,0.9558939214066039,0.32229430457783076,0.21357199818488498,0.626223969406604,1.4428678644586412,1.3501612025702707,0.7515630943763262
0.6,0.13520996659225026,0.06489428280922308,0.9342265151757626,0.32347331621613934,0.21471586448844138,0.5609193202578646,1.4443416158108782,1.3521198375513586,0.8156257171950667
0.602,0.13696120350815347,0.06678996125707855,0.9557490431157446,0.32464079788681055,0.2158532717515697,0.560440063,1.4458009969834533,1.3529643418330768,0.736375796694112
0.604,0.1387248227305032,0.06871070694909354,0.977883661650018,0.3258165348264966,0.21700571877200145,0.6041171095760595,1.4472706976943717,1.3552053237602355,0.831637776348181
0.606,0.1404706850576671,0.07061723793648712,0.978023529,0.32698044372095797,0.21814963795781697,0.60439682,1.4487256035654712,1.3566131659355338,0.752002098488918
0.608,0.14220718978001667,0.0725223258177164,0.978023529,0.328138131683081,0.21929269088903441,0.5825918738216455,1.4501726045051866,1.358570528917252,0.8476431953223003
0.61,0.14393642732522652,0.07443599208002392,0.9561457826117225,0.3292909477398665,0.22044089024988037,0.6042942803882775,1.4516136460417262,1.3597029557988038,0.7358218289638756
0.612,0.14565724551634066,0.0759589826500297,0.9124260222513368,0.33043816983218033,0.22158179823945337,0.60439682,1.4530476663969465,1.3616564012834225,0.8315058135721926
0.614,0.14737028002622168,0.07786446807872137,0.912086487,0.3315801837258641,0.2227268570500954,0.5825738356650764,1.454475177430274,1.3630640270462786,0.7841213849336832
0.616,0.14907319003098557,0.07977295208612668,0.8902542013638315,0.3327154757765463,0.22387194864380294,0.5605842483638316,1.4558943574340364,1.3647460190299414,0.8158835352293927
0.618,0.1507671760888361,0.08167918134024303,0.9337525707419585,0.3338447697382423,0.22501568580700498,0.560440063,1.4573059474693586,1.3664279098506076,0.7840054664145818
0.62,0.15244649636444127,0.08358066788138817,0.9558186201682909,0.334964317381431,0.2261565779267887,0.6256993835115284,1.4587054109842068,1.36782810099382,0.783774436
0.622,0.15412898145296292,0.08549382780294153,0.9342244412885328,0.33608598331429596,0.2273044734846347,0.6045544892885327,1.460107493181352,1.3695133584071506,0.7677311923516681
0.624,0.15579650134724043,0.08740778829437798,0.9778605314561005,0.33719766371724874,0.22845284937811006,0.5824980398452153,1.4614970572955062,1.3709226107944976,0.7515132107833732
0.626,0.1574540070854487,0.08930726361617002,0.9344112034332186,0.3383026580507687,0.22959253476813488,0.6042245893368158,1.4628783739678226,1.3725976195684435,0.7835211775058767
0.628,0.15910180634557597,0.09083662480217028,0.9122516143497496,0.3394011909248748,0.2307373145959933,0.5825816613572622,1.4642515607495827,1.373724375966611,0.735658313505843
0.63,0.160740862564668,0.0927411131250447,0.912086487,0.3404939141892955,0.23150312145452376,0.560605102655859,1.4656174291658124,1.3756814373640482,0.7994509609626893
0.632,0.16236931528084397,0.09465117248531518,0.8902438268907593,0.34157953970032184,0.2330254391894699,0.6041291749896132,1.4669744313996902,1.3768113483502864,0.7356876997270774
0.634,0.16398800028414778,0.09655718357284097,0.890110016,0.34265867252276516,0.23417136874234665,0.60439682,1.468323362052205,1.3787683443416319,0.7994975085002979
0.636,0.1655960718239696,0.0984645217585837,0.9337680672918455,0.34373072022817436,0.23531577125786837,0.5825658993197426,1.469663428693788,1.379895931358727,0.7196840072049356
0.638,0.1671889085133453,0.09998687678226285,0.8905849138743915,0.3447926120039498,0.2364555930893981,0.5606774913344414,1.4709907490452423,1.3818458378768848,0.7990634548029206
0.64,0.16878313816185936,0.10189475465105163,0.8465209660972753,0.3458554314412396,0.23722451485372847,0.5822326964079828,1.472319323984267,1.3829796632614724,0.7198108476608509
0.642,0.17036010766801765,0.1034263848891808,0.8679865547903033,0.3469067446313029,0.23836765291855744,0.5605870276973968,1.4736333727044941,1.384939296180081,0.8154471795856222
0.644,0.17192675292989987,0.10533143153898426,0.8899659165835717,0.34795118424177396,0.23951221112601334,0.5386039024247735,1.4749390229070098,1.3860670670746305,0.7197706967329519
0.646,0.17348245273014365,0.107231803449222,0.911861997570614,0.3489882978571768,0.2406524338736192,0.538459778,1.4762353926824172,1.387740229202637,0.7991110276260839
0.648,0.17502125066914054,0.10913728324199119,0.8903560310379897,0.35001418249221933,0.24179572293176133,0.5819244612282959,1.47751767573785,1.389144217783494,0.7200394571629154
0.65,0.17656124073393728,0.11067337486416946,0.8682939763943274,0.35104082296257,0.24294458864995214,0.582416534,1.4788010357693406,1.390830509756223,0.7993465515410484
0.652,0.17808345263679695,0.11257776648813923,0.868133545,0.35205562095614873,0.24371024339969005,0.5606024829787818,1.4800695627964728,1.392234927655382,0.7197321009413518
0.654,0.17959389710418405,0.11448331075467429,0.8899268133121352,0.35306259459125044,0.2448507508511373,0.5386430124825533,1.481328271710931,1.3939142590226272,0.7672111118950816
0.656,0.18109314281766112,0.11601398144062537,0.846473268807495,0.3540621016849642,0.24637506144062535,0.5820965241997852,1.4825776407603817,1.3950420006030553,0.7034435518058241
0.658,0.1825823598146603,0.11792377544967726,0.9117870054480037,0.3550549027286055,0.24714564457805405,0.5605398844078413,1.483818650118117,1.3967255205001197,0.7673216410487689
0.66,0.18405796316473955,0.11945068224186822,0.8464832000909092,0.35603864779556565,0.2482877921826522,0.5385697710859049,1.4850483163371082,1.3981286436663887,0.7193775308298582
0.662,0.18552154865184745,0.12097746223643087,0.846153259,0.35701437204290826,0.24943287692842658,0.538459778,1.4862679641221692,1.3995318503321006,0.7352227823312656
0.664,0.18697289334617212,0.12288362952341796,0.824278931054344,0.35798191507275323,0.2505770179735431,0.5603379022188059,1.4874774227729435,1.4009340184225958,0.6870391006792993
0.666,0.18840820314600026,0.12440677021966004,0.7805544231070962,0.35893879744134877,0.2513394731060264,0.560440063,1.4886735471079755,1.4026114405407109,0.767000579911922
0.668,0.18983933806866135,0.12593153376831448,0.8238102635306731,0.3598928884272261,0.25248014357832044,0.516849831469327,1.4898660886497797,1.4040149345479451,0.7035119557540201
0.67,0.19125351220286396,0.1278429321240876,0.824176788,0.3608356904200477,0.25362889127354316,0.516483307,1.4910446489642004,1.4054227477251406,0.7190614370916597
0.672,0.19265614959442723,0.12976004171224903,0.8900943502252584,0.36177076258966423,0.25439785078400856,0.5604243945064751,1.4922135098116218,1.4065523226271832,0.6868483308680052
0.674,0.19404305355304738,0.13128084472175358,0.8681909861740524,0.3626953748972318,0.25553845279196863,0.538517229142925,1.493369180300107,1.4082296013669953,0.7351673881506474
0.676,0.19541400870357525,0.13317680562394782,0.868133545,0.36360935513571685,0.2566766271775934,0.5166604735711915,1.4945116263739089,1.4093469528471845,0.6711729165504445
0.678,0.1967801497116279,0.13470948867622803,0.8244237065585037,0.36452011544186047,0.257444506338114,0.516483307,1.4956501053069766,1.4110295410907134,0.7349309883531732
0.68,0.19812952463058767,0.13661630688117396,0.8460483844068242,0.36541967959840266,0.2585877407258411,0.5383549034068241,1.4967745616158064,1.4124347991009305,0.6709602745604868
0.682,0.1994645631567529,0.13814455484281457,0.846153259,0.3663097140650852,0.2597325611332141,0.538459778,1.4978871500468471,1.4138376818084675,0.702830327321765
0.684,0.20078608047496424,0.1400495457273594,0.846153259,0.3671907065125179,0.2604969134938036,0.5165880566234509,1.498988427332618,1.4149605200591038,0.6868907938160153
0.686,0.2020938924306665,0.14157760251460594,0.846153259,0.36806259147788245,0.26163977388708715,0.4946064074675092,1.5000782668914987,1.416641239640992,0.6707250200420889
0.688,0.20338769319928487,0.14310674793548386,0.8023015370645161,0.36892513512646,0.2627866344480287,0.5164307945244923,1.5011564095967818,1.417768062287933,0.670651793
0.69,0.20466704012991657,0.14462847309545887,0.7803323701185212,0.3697780325625745,0.2639279280728721,0.5383474398814788,1.5022225044004769,1.4191660717876842,0.6545752772875655
0.692,0.20593187699536541,0.1461557789970167,0.8021047158299522,0.37062124751800357,0.26431365474821,0.4946904103400955,1.5032766096934045,1.4205698803156324,0.6866787793556086
0.694,0.20717891967563687,0.14729705142853752,0.7368111532003798,0.3714526188066021,0.2654501474285375,0.4727091972008547,1.5043157873595265,1.4219665808226496,0.6547612511092118
0.696,0.20841909886705615,0.1492045557764354,0.7581357629466507,0.3722793861503517,0.26659845346782296,0.5162677296032296,1.5053492684474783,1.423094611961842,0.6866552594478469
0.698,0.20964055943475152,0.15073214960102516,0.7801100055627608,0.3730937222394232,0.26774369467576586,0.516483307,1.506367188329758,1.424495589319943,0.6546544933837168
0.7,0.2108466377350529,0.15225911525706787,0.7583379368745079,0.3738977548107691,0.26850909163068115,0.47271531813217227,1.507372192272911,1.425899085109388,0.6866749721126089
0.702,0.2120345774528392,0.15415626601186802,0.801810493302872,0.37468971398457857,0.2692686076012343,0.450743083848564,1.5083621428,1.4272951708302872,0.654776530866366
0.704,0.21321396356196376,0.15569213524353448,0.802196503,0.37547597237464253,0.2700348671217673,0.4724291925494492,1.5093450293596282,1.428703770830819,0.7027581776756465
0.706,0.2143742627727977,0.15721551304212783,0.8240433839139594,0.37624950517570627,0.2711757102831132,0.49437343190789007,1.5103118372572417,1.4298251723013211,0.6387258126915387
0.708,0.21551928083855967,0.15911984831927065,0.824176788,0.3770128504093239,0.27194068612513406,0.4726680033957812,1.5112661126783116,1.4315041471355023,0.6704438096993207
0.71,0.21664889780078359,0.16027079424447893,0.7804404192212009,0.3777659381881753,0.27270470983132383,0.42879018122120094,1.5122074154482963,1.4326312322037724,0.6545736934184075
0.712,0.2177580443420706,0.1617857742533776,0.780220032,0.37850536842621185,0.27384046644275895,0.4503104266866556,1.5131317536383004,1.43402406249443,0.670475609216639
0.714,0.21885997392800097,0.1629383317408781,0.7147758409824142,0.37923997895815953,0.2746102251556406,0.4723635471046776,1.514049973894624,1.4351530299667423,0.6546125306780716
0.716,0.2199413666037916,0.16408304197961132,0.6270022180036963,0.3799609075448909,0.2757521059796113,0.49434959060116845,1.5149511845291523,1.4365536974877788,0.622402744238345
0.718,0.22100652382216926,0.1656060126824413,0.6481899616982955,0.3806710025866508,0.27651768434485635,0.45086970734390275,1.5158387815556613,1.4376775694735964,0.6382159783589224
0.72,0.22205494640276618,0.16675604758891013,0.670224979711281,0.381369970410874,0.2772825250592734,0.450550079,1.516712469618338,1.4388023627208413,0.6061668428288719
0.722,0.22308697484392512,0.16827867254311576,0.670330048,0.38205797904328126,0.2784240384044783,0.450550079,1.5175725255157981,1.440202204913292,0.6220791388542163
0.724,0.22410230751663288,0.16980998922155763,0.6922591955787774,0.3827348576840348,0.27957252566670654,0.49441218094245726,1.5184186093067844,1.4413296861820792,0.6060471406486422
0.726,0.2251006642979738,0.17171155326405896,0.7579299857200095,0.38340042920500594,0.2803343017037213,0.494506836,1.51925061025149,1.4427279291771489,0.589927227148496
0.728,0.22608138435607322,0.1732392265145446,0.8019869038488316,0.3840542430855717,0.28109723075965665,0.4507596963438245,1.5200678765072497,1.443851246508822,0.6220173905517405
0.73,0.22704239811851232,0.1747605942492275,0.802196503,0.384694928714542,0.28185791512075115,0.42873959653446636,1.5208686882166946,1.4446915942429284,0.5740657102241503
0.732,0.22799167014898689,0.17629078209515842,0.7584589908412432,0.3853277952419547,0.28262300855002986,0.428569794,1.521659715463647,1.4460935994198445,0.6219339007236102
0.734,0.22892018408762085,0.17781704373467683,0.6926131663453374,0.3859467945553301,0.28376583480217027,0.49420018865466253,1.5224335364727228,1.4472172530269496,0.5739166520274267
0.736,0.22983239078310094,0.17896977311231282,0.7142162747180889,0.38655492371791206,0.2845345050367245,0.45047955379878774,1.5231936596528421,1.448346684176135,0.5737257611886143
0.738,0.23072502739826686,0.18011064578785357,0.6484829839769433,0.3871500240804843,0.28491479526396485,0.3847500662689565,1.5239374996854227,1.4497448483339672,0.6059470409770621
0.74,0.23159653197988264,0.18124868490232338,0.6265400162422949,0.38773101782852354,0.2860512938947368,0.40642659775770507,1.524663771607592,1.450582677849692,0.5258238602204837
0.742,0.23245706919638182,0.18277904197304745,0.6482892135053906,0.3883046994575101,0.28720123198047437,0.45042897150263533,1.5253809245234466,1.4519876939090801,0.5735576183679924
0.744,0.2332940817100274,0.1839215315273484,0.6046320022104636,0.38886270783915583,0.2879632416866825,0.42868740551307966,1.5260784188888756,1.4528285533353151,0.5415429771599287
0.746,0.2341139250503885,0.18506714574424704,0.5825292265358293,0.3894092891933129,0.2887263524201741,0.428569794,1.5267615584101717,1.4539493015361868,0.5252937048134018
0.748,0.23490538893035778,0.18617605485666436,0.582416534,0.3899369226803877,0.2890979423096558,0.4073878061858397,1.5274211221653704,1.4550363753507738,0.5563635525965581
0.75,0.23569082047496423,0.18732840753660296,0.582416534,0.3904605531130186,0.29022271450739273,0.406593323,1.5280756316852646,1.455893850640101,0.5261549657468446
0.752,0.23645432494763655,0.1884700580470756,0.5611349918262007,0.3909695359718043,0.2909949567296719,0.406593323,1.52871196301161,1.4570049497479791,0.4939117742313362
0.754,0.23719406909243898,0.18996839668876828,0.623619590821614,0.3914626994316189,0.2917501578235016,0.4487142258117036,1.5293283726217113,1.4581155667720622,0.5703165174830109
0.756,0.23791502301339182,0.19112123151604882,0.626373291,0.39194334498945244,0.2925080926934739,0.42963197051071894,1.5299291355759659,1.4589632604040033,0.481413420407675
0.758,0.23862488778555252,0.1922727269924379,0.6053227282128195,0.39241657719430206,0.29291035898343537,0.36541445137126394,1.5305207810194303,1.4600785372218221,0.476727754
0.76,0.23931087457004888,0.19341773083140576,0.5833311780698701,0.39287390278812445,0.29402321883140575,0.38370220793013,1.5310924443544771,1.4612011133983545,0.5386801382422798
0.762,0.23997722490096532,0.19492635797356198,0.624504461388353,0.3933181552673102,0.2948013425080386,0.40565898929189,1.5316476635236562,1.462053523557699,0.47947603242801
0.764,0.24062324135876953,0.19608745579472805,0.6053221175027432,0.3937488328308096,0.295564596168416,0.406593323,1.532185996264576,1.4631640573876432,0.49220924795491416
0.766,0.24124954342724347,0.19686612800667222,0.5833514752727273,0.3941663479960672,0.2963272060492077,0.406593323,1.5327079491225124,1.4642855713144287,0.5393079027222686
0.768,0.24185523655613825,0.19799310765023223,0.5403757209196142,0.39457015440524434,0.29672450086888175,0.3645525089632011,1.533212677254112,1.464869728926045,0.46409046973097534
0.77,0.2424406504955277,0.19913877529991644,0.538459778,0.39496043966368516,0.29747165188077335,0.362636566,1.5337006002862255,1.4662370848711064,0.5069890881524047
0.772,0.24300584292275598,0.2002840265932244,0.538459778,0.39533723457599235,0.2982351533676488,0.3415776382243827,1.5341715123709618,1.4673718262785398,0.555507784808064
0.774,0.2435499746808105,0.20106256387797902,0.538459778,0.3956999794145411,0.29936314135915154,0.4038120595691135,1.5346249806342074,1.4682246720633936,0.48013632255719735
0.776,0.24407323627321492,0.20219308984698997,0.538459778,0.3960488105510788,0.29977753060224555,0.406593323,1.5350610489979737,1.46933688875215,0.5387679737563307
0.778,0.2445755191574052,0.20333524036636136,0.5174113011959082,0.39638367510493683,0.30052360859164984,0.36449271548673723,1.5354796447915575,1.4704566667515167,0.5258932059752588
0.78,0.24505672369581705,0.2044796705797067,0.5375321911710982,0.3967044781721768,0.3009211938458328,0.34158768182890187,1.5358805601132834,1.4710413652536067,0.4478199111205437
0.782,0.24551384914314492,0.20561785503769112,0.49660107360625816,0.39700923874250504,0.30166388204100986,0.3197271105298092,1.5362615473584549,1.472133581860614,0.4597986377924618
0.784,0.24595472247997138,0.20676887373473304,0.5155631164326335,0.39730315398927035,0.3024312284619076,0.36079602516688664,1.536628897175608,1.4729933060688662,0.4760511429894421
0.786,0.2463714095411849,0.207547469498511,0.516483307,0.39758094602610566,0.3031938505407981,0.362636566,1.5369761219680533,1.473565816992853,0.4148216895378201
0.788,0.2467662216920251,0.20831090841965885,0.4532950028425385,0.39784415375305127,0.303957290378027,0.362636566,1.5373051770976418,1.47439589081546,0.3811127102534892
0.79,0.24713694465398742,0.20906936231042653,0.40868178972464453,0.3980912921234744,0.3043523977027251,0.34170423775722747,1.537614076951179,1.4754996088011847,0.44133815437085305
0.792,0.24748977262930727,0.2098355615008983,0.42761955971673254,0.3983265207516395,0.3051004734576596,0.31963020919571206,1.5379081361036127,1.4763580297109833,0.42894627509953287
0.794,0.24781834202097985,0.21096698011395432,0.47076050073346887,0.3985455667187984,0.3054996056912591,0.2975862870157838,1.538181920568244,1.4766636444000956,0.3506923527127825
0.796,0.24812446014783024,0.21210891972422405,0.47252655,0.3987496553962804,0.3062455715251516,0.31774942307218457,1.53843707582928,1.47748078764098,0.347445995
0.798,0.24840805647778172,0.21325530731326883,0.5357824463960349,0.39893871024031285,0.3070098305151081,0.339767547896214,1.5386734162730182,1.4783237405330227,0.3629516882131852
0.8,0.24866744337575541,0.21439148500804545,0.5175337677529579,0.39911161495982933,0.307404046034548,0.340660095,1.5388895402147174,1.4791590726412682,0.3943815025257927
0.802,0.24890673262391122,0.21553587288898163,0.5374089116905557,0.3992711706906097,0.30814873789410924,0.3197308586865013,1.5390889028138648,1.4794663771094683,0.3343777351331982
0.804,0.24912192125369576,0.21668617249322786,0.5595021532001678,0.39941461020600855,0.3085504115261896,0.29764108605453676,1.5392682693156892,1.4802853808577252,0.3003448229160973
0.806,0.2493137945053648,0.21746574269166566,0.4972897574687016,0.3995425352621602,0.30893205784583283,0.296703339,1.5394281909427754,1.4811272679015144,0.3608795387875283
0.808,0.24948237393021583,0.21786357919420254,0.43130701106024094,0.39965490273836934,0.3096794273884051,0.27563916812024336,1.5395686792731413,1.4819693522012405,0.39458467982810447
0.81,0.24962816825915324,0.2182523038462006,0.3641195626176292,0.3997521277449016,0.3100839878462006,0.274726868,1.5396901739237925,1.4825526657854105,0.3485364334036474
0.812,0.24974959107710643,0.21863358614124093,0.2982187746092652,0.39983306661899654,0.3104652701412409,0.29619822301774446,1.53979134669944,1.4831133887750387,0.30007995430356077
0.814,0.24984719017539048,0.21901562524179105,0.21067930948000002,0.3998981231136282,0.3112205804835821,0.2751991981229851,1.5398726599168953,1.4836751072871643,0.3305921543701492
0.816,0.24992094632898637,0.21939644168455497,0.208789825,0.39994729375755783,0.311609595684555,0.274726868,1.5399341002560758,1.4847831260149928,0.3786422200844836
0.818,0.24997051020571495,0.21977113630290263,0.208789825,0.39998035637799384,0.31198429030290264,0.2536469916558989,1.539975385770453,1.4853471780016385,0.36426992307607675
0.82,0.24999614860410244,0.220514312142247,0.27166821527571483,0.3999974287526678,0.31236369157112354,0.23178954392929174,1.5399968440924827,1.4859051346746945,0.28655469130988254
0.822,0.24999755276138258,0.22164560615876436,0.31681686202729886,0.39999836392467225,0.31274668741451145,0.20972146068534483,1.5399979772214543,1.4864683790251436,0.3137550259798851
0.824,0.24997445750604408,0.22279087710867232,0.381871769373494,0.3999829876340365,0.31312844468901346,0.187728275672313,1.539978711454373,1.487298621861267,0.3461004047465108
0.826,0.24992713988741408,0.22356487145115453,0.42646192644404973,0.3999514329444181,0.313144326,0.186813354,1.5399392449773643,1.4878677499626998,0.33206176965008877
0.828,0.24985375963573475,0.22471776659010384,0.47144709881417224,0.39990249275715645,0.3138885303934026,0.20825014623750765,1.539878180838979,1.488168265728772,0.2682319650367746
0.83,0.2497562301868145,0.22586592696150629,0.49403911443299464,0.3998374733204578,0.3142806176680215,0.18728099438708906,1.5397968691506916,1.4884495677549314,0.21919583941733412
0.832,0.24963370910165653,0.22663551955781583,0.4515697753615275,0.39975581163877966,0.314661355767309,0.186813354,1.539694719567155,1.4890035191045683,0.20237989997430406
0.834,0.2494860793217763,0.22702653284294758,0.36451600214319835,0.39965738244811205,0.31504351984294754,0.20832000673784784,1.5395717567117075,1.4895655388289741,0.249448937168279
0.836,0.24931390378076648,0.2274056733370454,0.2985155068312996,0.3995425889728636,0.315051675,0.18741737500130315,1.5394282054660795,1.4903959015156971,0.28191817244354933
0.838,0.24911594029952322,0.22778180343278495,0.254569935139953,0.3994106331982122,0.31541732139130435,0.14467995109847237,1.5392632607841477,1.4909567584186838,0.29829537170846065
0.84,0.24889214553104516,0.227797627,0.16854650768482538,0.3992614363526397,0.31579851672666587,0.16390935732888304,1.5390767728167083,1.491248692428299,0.25253113843568964
0.842,0.24864266439748756,0.22743229882181168,0.10168978739630513,0.39909511526759894,0.315814614,0.164836884,1.538868842004622,1.491260529,0.18857824206853396
0.844,0.24836897898909693,0.2277795350388902,0.098899841,0.3989126589914672,0.3161779919914631,0.14389905880151765,1.5386408149068498,1.4917949205024899,0.1704502855942613
0.846,0.2480657416031935,0.22816304040208657,0.098899841,0.39871051064728313,0.31656149740208656,0.142856598,1.5383881219268352,1.491821527,0.15420220492301234
0.848,0.2477383738041483,0.22891020235526943,0.1831450505247973,0.3984922455752772,0.316577554,0.12179712328636147,1.5381152606633686,1.4920903227796853,0.1380370246475918
0.85,0.24738469197174537,0.2296728800082231,0.22892089931831724,0.3982564672764664,0.316942975025146,0.120880127,1.5378205243562233,1.4926394253985222,0.15284212709915385
0.852,0.24700452078944843,0.23006956840247383,0.2727820638130352,0.3980030102323741,0.316959023,0.120880127,1.5375037688294966,1.492663026,0.1226334649376784
0.854,0.24659538658723912,0.23083117776220624,0.29617887920260566,0.39773026372152653,0.3173313893691708,0.14233213820260562,1.5371627839316637,1.4932105208204067,0.121203586
0.856,0.24616182723375848,0.2315944087787579,0.2752429443841936,0.3974412238225057,0.3177130048893789,0.12139620338419359,1.5368014632531886,1.493223906,0.121203586
0.858,0.24570164265240196,0.231612325,0.21032287893883392,0.39713443420753364,0.317721963,0.142345639153571,1.5364180942659436,1.4934978833229997,0.08963392117586741
0.86,0.24521463532439197,0.231612325,0.16585867983869812,0.39680977278159274,0.31809456477753933,0.142856598,1.5360122438351218,1.493504405,0.10466595575321888
0.862,0.24470052237859935,0.23123967774439677,0.10042485129351454,0.39646702081715846,0.31847607927873156,0.142856598,1.535583789486432,1.4937791159811635,0.105041616
0.864,0.24416265555290753,0.231230855,0.0146204803179691,0.3961084330753098,0.318484902,0.12178767195355639,1.53513550278408,1.4940545354544923,0.08954975847192326
0.866,0.24359462507247587,0.231230855,-0.03102157848150351,0.3957297554223388,0.318484902,0.09987244316391103,1.5346621419762785,1.494066119,0.088882446
0.868,0.24299891992036243,0.231230855,-0.011911957211400575,0.3953326292026705,0.31885037104756214,0.07784518421140058,1.5341657859756797,1.4943348532853729,0.088882446
0.87,0.24237570733801128,0.23159618798260248,0.010060328709008581,0.39491713393294947,0.318866372,0.07692337,1.5336464095491182,1.4946152522772878,0.07340415510557674
0.872,0.24172069083367115,0.231612325,0.05390005523620899,0.3944804668891141,0.318866372,0.07692337,1.5331005451360438,1.494627118,0.08849754348626974
0.874,0.24104178091728248,0.23198572709283155,0.07645863459175628,0.394027860370441,0.318866372,0.033896165470967736,1.5325347653306318,1.4949016862795699,0.088882446
0.876,0.24033536992022791,0.232366148989301,0.11982980506027105,0.39355692832763534,0.318866372,0.032966614,1.5319461604230769,1.4951814146344509,0.07310664935734665
0.878,0.23960394570780766,0.232375264,0.120880127,0.39306928391990004,0.318866372,0.032966614,1.5313366554639372,1.495188117,0.072720468
0.88,0.23884259669296784,0.23274114551244715,0.0787196301498356,0.39256173737616207,0.318866372,0.0118881951263504,1.5307021479058402,1.495188117,0.05722163428839831
0.882,0.23805207356962327,0.23239135172694783,0.05587371228734811,0.39203470204506435,0.318866372,0.03203980071265189,1.5300433391397235,1.495188117,0.02560323602430307
0.884,0.23723295567069558,0.232375264,0.012814901569485872,0.3914886232396018,0.318866372,0.011902443120243352,1.5293608221192085,1.495188117,0.00875179591804843
0.886,0.23639072155053917,0.232375264,-0.009936026264653643,0.390927163976182,0.318866372,-0.009936026264653643,1.5286588949169333,1.495188117,0.008080987
0.888,0.23550955944338497,0.23201003357908623,-0.032031052517208294,0.39033970229559,0.3185011415790862,0.010054419108646122,1.527924582430274,1.495188117,-0.007392954769516728
0.89,0.23460502282043638,0.231993794,-0.09612478089137952,0.38973667792094907,0.318484902,-0.03111652037641588,1.5271708169277454,1.495188117,-0.023560034547394776
0.892,0.23367150506056272,0.231993794,-0.07783818254520516,0.38911434299713876,0.318484902,-0.011904955545205154,1.526392904972103,1.495188117,-0.008753643289360685
0.894,0.2327091564140301,0.231993794,-0.01377826635735556,0.3884727666107359,0.318484902,-0.03203729330851697,1.5255909287280485,1.495188117,-0.008080987
0.896,0.2317240251250148,0.231993794,-0.010990143,0.3878160127493779,0.318484902,-0.032966614,1.5247700378386067,1.495188117,-0.023471858782072565
0.898,0.23069773010215758,0.231993794,-0.010990143,0.387131805775301,0.318484902,-0.011917687099760193,1.523914727121111,1.495188117,-0.024240157
0.9,0.22964827149326497,0.231993794,-0.010990143,0.38643217666217666,0.31811956997509533,-0.03203696109187321,1.5230402280756945,1.495188117,-0.008764555321020018
0.902,0.22856970541166016,0.231993794,-0.032039027171098126,0.38571313257127626,0.31773806415416717,-0.032966614,1.5221414226068253,1.495188117,-0.008080987
0.904,0.22746830893944778,0.231630371731207,-0.05390704439779464,0.3849788589784335,0.31808538622148447,-0.032966614,1.5212236168995141,1.495188117,-0.02347569069338392
0.906,0.22631722878079905,0.231612325,-0.054946899,0.38421150174955276,0.3177305054632893,-0.032966614,1.5202644134669052,1.4949138993652717,-0.024240157
0.908,0.22514940771946135,0.2312396651404762,-0.1193573834009524,0.38343294381980697,0.317721963,-0.011497694830238096,1.5192911937747586,1.4951816388088097,-0.008454186878571426
0.91,0.22395276501669448,0.2308574945975158,-0.14238940442087664,0.3826351826811352,0.317721963,-0.010990143,1.5182939921285474,1.495188117,-0.008080987
0.912,0.2227258767635889,0.23047645567277922,-0.142856598,0.3818172573083314,0.317721963,-0.010990143,1.5172715640666983,1.4949138973298406,-0.008080987
0.914,0.22147496961015326,0.23009641196603728,-0.142856598,0.3809832998554837,0.317721963,-0.010990143,1.5162291828368055,1.494907618,-0.039557737783279895
0.916,0.22018307601072834,0.230086446,-0.0999401754353335,0.3801220567943736,0.317721963,-0.010990143,1.5151525476355943,1.494907618,-0.040402133
0.918,0.21886676522611992,0.230086446,-0.12036134089581596,0.37924449568890733,0.317721963,-0.03244791793872928,1.5140556349762977,1.494907618,-0.024621617394325904
0.92,0.21752826863419836,0.230086446,-0.07870985333087374,0.37835218467081405,0.317355996641368,-0.011883307141133757,1.5129402818666904,1.494907618,-0.024240157
0.922,0.21616024040241733,0.22972318211203221,-0.09785098763512554,0.37744014597049413,0.317340493,0.009941107559687353,1.5118001818055458,1.4946405051980103,-0.024240157
0.924,0.21474537527297652,0.22933969789208633,-0.14099080759496402,0.37649693243425914,0.31770577110791365,-0.010057166831654678,1.5106211052771488,1.494627118,-0.03971612106906475
0.926,0.21330833236313781,0.22895817782181166,-0.142856598,0.3755388839506438,0.31735663386412394,0.010060107060786652,1.5094236632920839,1.494627118,-0.040402133
0.928,0.21184089183953267,0.228576581005963,-0.18496806144042932,0.37456060056103957,0.317705948994037,-0.010067416622898034,1.5082007118543157,1.494627118,-0.024918632319260583
0.93,0.21034283329636214,0.22819523401739752,-0.16576653686582457,0.37356189515333565,0.317721963,0.010060328709008581,1.5069523677248489,1.494627118,-0.03971844597902764
0.932,0.20882371769309158,0.22781567805906072,-0.20670998350818312,0.37254914081561796,0.3173585440590607,0.03192669323043169,1.5056864327543547,1.494627118,-0.009610415042457302
0.934,0.20724611147209634,0.22705113145628217,-0.2517991916948322,0.3714974236745767,0.317340493,-0.010042752694832235,1.5043717631279514,1.4943526645331864,-0.023891881966936077
0.936,0.20565557816044822,0.22666210944012366,-0.2742145435790225,0.37043703754964835,0.317340493,0.010477818579022476,1.503046259547026,1.494346619,-0.04002542384361993
0.938,0.20403503008929422,0.22590632551816445,-0.3177553695372849,0.36935668293562235,0.317340493,-0.010527842529636712,1.5016958749364568,1.494346619,-0.024580083837476098
0.94,0.20238337572979379,0.2255175231273052,-0.275730909030815,0.36825560037781463,0.317340493,-0.032464593484592505,1.500319499053804,1.494346619,-0.04003293616573468
0.942,0.2007110374693683,0.22477728723537668,-0.29579836499532053,0.3671406976448153,0.317340493,-0.011895117004679458,1.4989258787179978,1.494346619,-0.040402133
0.944,0.1989980303510131,0.2243802756296208,-0.25457592950691627,0.36599869248808103,0.317340493,-0.010990143,1.4974984099487485,1.494346619,-0.040402133
0.946,0.19725403354935622,0.2236338965344766,-0.294834509388353,0.3648360091099189,0.317340493,0.010055647096463022,1.4960450764384836,1.4940780445091104,-0.040402133
0.948,0.19547873869252808,0.2232362701634283,-0.25462243359208486,0.3636524980864168,0.317340493,-0.010052135801525808,1.4945655777810933,1.494066119,-0.040402133
0.95,0.19366992685821696,0.22247721355546127,-0.29554167418899263,0.36244661324597205,0.317340493,0.010409260184143534,1.4930583253533833,1.494066119,-0.024667276743968965
0.952,0.19183027234282637,0.22208491945014924,-0.296703339,0.3612201782910135,0.317340493,-0.010452118088955225,1.4915252437199953,1.494066119,-0.04000652642328358
0.954,0.18995420469662655,0.22095566672557695,-0.33971925327765157,0.35996947612766717,0.3169671879085257,-0.010990143,1.4899618433790678,1.494066119,-0.02458608474171948
0.956,0.18805414627851832,0.22018602220342612,-0.36212414768974543,0.35870276998277695,0.316959023,-0.010990143,1.4883784102393534,1.494066119,-0.040025289400666186
0.958,0.1861431724670284,0.219436896178095,-0.42583864928761994,0.3574287676517636,0.316959023,-0.010990143,1.486785981538162,1.4937972390786332,-0.040402133
0.96,0.18417153666380545,0.21794380417773274,-0.5127735223293599,0.3561143541884836,0.316959023,-0.032039248314697816,1.4851429265200284,1.49378562,-0.040402133
0.962,0.18217738149642515,0.21678291053488372,-0.5375398327023255,0.3547849363323403,0.316959023,-0.032966614,1.4834811624456625,1.4935161767906977,-0.07136760746511628
0.964,0.18015255646989092,0.2156386093454112,-0.6016304506574492,0.3534350532019914,0.3165935584205006,-0.032966614,1.481793815919393,1.492967056556615,-0.11916949094207391
0.966,0.17810707443598864,0.2145012183933436,-0.5625538191698449,0.35207136934281646,0.316577554,-0.032966614,1.4800892548502846,1.492676514403885,-0.16735262161873743
0.968,0.17600685622260642,0.21371555963371325,-0.5183449428569886,0.35067123348300944,0.316577554,-0.032966614,1.4783390113509003,1.491857165769886,-0.23158580118572286
0.97,0.17388620778712754,0.21295267294756912,-0.47439125513489033,0.34925746823194276,0.316577554,-0.011922414648713058,1.4765718043418357,1.4912843272945664,-0.2652734298527169
0.972,0.1717350516002845,0.21218966223297964,-0.4304303696981042,0.3478233740668564,0.316577554,-0.010990143,1.4747792606363206,1.4909919018389173,-0.22021626632586144
0.974,0.16956403090611663,0.21179403408832245,-0.36577103244078246,0.3463760269374111,0.316577554,-0.010990143,1.4729700250142248,1.4907128649257855,-0.1873796273787789
0.976,0.16733674472246066,0.21068005398777273,-0.3836840995133062,0.34489116948164045,0.316577554,-0.010990143,1.4711139311287553,1.490162337478782,-0.2013191970501079
0.978,0.16509013882782878,0.2099010097282803,-0.4056583211948516,0.3433934321803982,0.316577554,-0.010990143,1.4692417667597473,1.4893328340668575,-0.2793687701408652
0.98,0.16281130648796185,0.20877218870610686,-0.49081581064503815,0.34187420069916563,0.316577554,-0.010990143,1.4673428015651966,1.4882222557480915,-0.3756962549465649
0.982,0.16050166546871297,0.20726246167663884,-0.5576659951655543,0.3403344499374259,0.3162121339296782,-0.03204197821179976,1.4654180985564114,1.487906455728248,-0.33332657325697257
0.984,0.15817398751611755,0.2057457755925838,-0.6650444972465347,0.3387826540322351,0.316196084,-0.032966614,1.4634783243497274,1.4873606382477196,-0.30052026422378864
0.986,0.15578624486555423,0.2038455852694661,-0.7545308367557289,0.3371908365716329,0.316196084,-0.032966614,1.4614885888255065,1.4867963478593882,-0.298965663
0.988,0.15338169178478597,0.20193772735050072,-0.8003520304697187,0.3355877998590676,0.31583062227849307,-0.032966614,1.4594846973486348,1.4859664712207916,-0.37637631016881257
0.99,0.15094423997746514,0.2003963550272879,-0.8232469737513108,0.33396283269083105,0.315814614,-0.07506390284318398,1.4574534948341482,1.4851252572104385,-0.36429154034806954
0.992,0.14847508681364768,0.19850364739226914,-0.824176788,0.33231674008115153,0.3154489826535433,-0.07692337,1.455395871915413,1.4848208056692913,-0.30164945253471726
0.994,0.14599056439355526,0.19733441559282078,-0.7823082513052956,0.33066036198945625,0.3150697971976069,-0.09785582194171306,1.4533254142066105,1.4837404638834262,-0.36053706122295937
0.996,0.14344315991307977,0.19618459794044338,-0.7171074346046734,0.32896210335376175,0.31468652432774114,-0.11993980799436789,1.4512026719834268,1.4826132780618335,-0.4409527349551827
0.998,0.14087900094079103,0.19503954594168157,-0.6511335083169947,0.32725268316738143,0.31430483999463327,-0.14192878992200358,1.4490658453372647,1.4820279693942755,-0.3979731698779964
1.0,0.13828504015056312,0.1942626578047302,-0.60637663519111,0.32552334576941316,0.31356016180473023,-0.20581993041561686,1.4469041445898043,1.4814685556245544,-0.3650637187565961
1.002,0.13567218838636635,0.19278579338203705,-0.6251724051186122,0.32378144525631297,0.3131651711091703,-0.2295690166511271,1.4447268047521045,1.4803825986425116,-0.424715281720642
1.004,0.13299765480827339,0.191606671880029,-0.6474151579415247,0.3219984424597122,0.3127790789600096,-0.1886827243593089,1.4424980369579137,1.479247005754017,-0.47466600864491965
1.006,0.13029108949039722,0.18969719262418064,-0.7126779978040787,0.3201940457580818,0.31239069451019663,-0.2296976045473416,1.4402425116927113,1.4786520959573926,-0.41366542179278953
1.008,0.12756688634286736,0.1877881232415315,-0.8001308767234017,0.31837792018019306,0.31200888045300573,-0.20930629880033397,1.4379723549199142,1.4775427767411737,-0.4752089112801765
1.01,0.12481337515412017,0.18588052645588937,-0.823663180958989,0.3165422415807409,0.3112548053776824,-0.208789825,1.4356778223880313,1.4761466867701478,-0.5398595563080592
1.012,0.12203836926594852,0.18360738705808982,-0.931129584259444,0.31469225178587673,0.3104944301952958,-0.2729644737644334,1.4333652780331538,1.4752949089280114,-0.49418553479757665
1.014,0.11920999658269117,0.18168289135184298,-0.9555356485884394,0.3128066608192057,0.30972872073611774,-0.3176646211768789,1.4310083765257855,1.4739024299710386,-0.5876108492022498
1.016,0.1163765340187016,0.1798087465757434,-0.9771332013301335,0.3109176953690292,0.30897906244649964,-0.3397697673706392,1.428647096210125,1.472793488355186,-0.5743457283633809
1.018,0.11349853144152151,0.17790107122004772,-0.978023529,0.30899903188517597,0.3085820752601432,-0.340660095,1.4262487668908639,1.4714021124947494,-0.589198599672315
1.02,0.11060391787664416,0.17600835818623625,-0.9570984630681092,0.3070692696270885,0.30784037684568993,-0.2778921618585787,1.423836638623889,1.47001037746967,-0.651389355926688
1.022,0.10764222754652278,0.17445535224091183,-0.8718461081308938,0.30509483002829735,0.30707303109934014,-0.31682360897012596,1.421368506936211,1.4688685466932214,-0.6235364935926814
1.024,0.10465017030404197,0.17290154437653346,-0.8252285894246326,0.30310012438285444,0.30629612670023076,-0.3615847645992955,1.4188751617359008,1.4671784419108467,-0.7010395248148913
1.026,0.10164308682271271,0.17137569655677348,-0.8456269548571429,0.301095386501958,0.305160868911593,-0.4269907902077922,1.416369240202207,1.46604304320112,-0.6556537072013583
1.028,0.09861898932395709,0.16950311292029155,-0.846153259,0.2990793169137068,0.3043990447980249,-0.4074149216101575,1.4138491605146604,1.4643962109877733,-0.7322733123113097
1.03,0.09555062407879296,0.16759720451847437,-0.9307136940309892,0.29703374574027064,0.3036366819845054,-0.38545504874851017,1.4112921735886719,1.4629842911382598,-0.7042056986543503
1.032,0.09243640608632753,0.1656630154082003,-0.9555142979432752,0.294957604445986,0.3024907184352927,-0.4275119038865506,1.4086970270709118,1.4615620573016448,-0.7187459292227867
1.034,0.08932163940004754,0.16342159076888835,-0.9771275304609348,0.2928810988659377,0.30136541538444417,-0.49181899593721445,1.4061013201857617,1.4601829750151107,-0.7036317715774862
1.036,0.08616852983506633,0.16114249599311162,-1.0409889786850355,0.2907790105500179,0.3002258679965558,-0.494506836,1.4034737332499105,1.4585186754966746,-0.7492710893290974
1.038,0.08296651965903673,0.15884778757800358,-1.0860480439766884,0.28864433250286126,0.2994437942068141,-0.45241554806575013,1.4008054290991894,1.4573685451309026,-0.6895569908093246
1.04,0.0797417001914303,0.15619672711548993,-1.1509735940244077,0.2864944684158117,0.29831687647184185,-0.49259134926800807,1.3981180920170186,1.4554429945553042,-0.7795492183521847
1.042,0.07644608322840964,0.1538319032865189,-1.1970284544061467,0.2842973795724398,0.29676803219688996,-0.559277532733317,1.3953717892722983,1.4539797806354842,-0.736148905984572
1.044,0.07319339539693559,0.15156458797297298,-1.1764172737567569,0.2821289262985396,0.295998808972973,-0.560440063,1.3926611206799138,1.4523175443783782,-0.8139117670270269
1.046,0.06986218744439146,0.14964167817577426,-1.1329334431228029,0.2799081267241626,0.29486155793459284,-0.4961072718580653,1.3898851723071879,1.450903603655865,-0.8003286551731437
1.048,0.06651417741670622,0.1477315195590307,-1.067436540206876,0.2776761291735881,0.29334269084266446,-0.6018912706453383,1.387095189624466,1.4492250534795272,-0.8315178915764594
1.05,0.06315157235984355,0.14548624234303487,-1.065933228,0.27543438224167355,0.2922070056715174,-0.60439682,1.3842929477580892,1.44729715761988,-0.8478021499413214
1.052,0.05976192417601043,0.14321079269946652,-1.065933228,0.27317461711722174,0.29143401820391224,-0.5413520963805571,1.3814682331494608,1.4456134131452283,-0.848416686
1.054,0.0563025869614972,0.14127602716972532,-1.0236583956111311,0.27086838030230065,0.2899330579587382,-0.5595990277457119,1.378585444290142,1.4436512266081325,-0.9105828828528247
1.056,0.05283256065587045,0.13900152402979737,-1.0853986317794995,0.26855502849440344,0.28840699200715136,-0.6449968294994041,1.375693784500119,1.4419572915506556,-0.8819704838224076
1.058,0.049335985835799526,0.13635494990390784,-1.1721685743173773,0.2662239892883055,0.28725196109573586,-0.6272869107707567,1.3727799634825777,1.4400113467521083,-0.9426901153937522
1.06,0.045802136156596354,0.13367650180574162,-1.2180868967760767,0.2638681043328566,0.286104054911244,-0.6052432821605263,1.3698350779020378,1.4377721594248802,-0.94537735
1.062,0.042242397900536674,0.13100647029495888,-1.2620394315584555,0.26149492557531306,0.2842262750843761,-0.6677841814915981,1.3668686490676207,1.436067831592063,-0.94537735
1.064,0.038650569910618514,0.128334075035318,-1.284881965680587,0.2591003686035037,0.2830515037240186,-0.670330048,1.363875423076153,1.434113620620809,-0.9920266740081135
1.066,0.03503102669322377,0.12566491525545098,-1.327988774986298,0.25668733922269854,0.2819075782468724,-0.6280544680519481,1.3608591956046208,1.4318811831862268,-1.0249427841423806
1.068,0.03138434680512515,0.1229974281545606,-1.329669952,0.254256237488081,0.28003140941295546,-0.7108322363303168,1.3578202365137066,1.4296396553043582,-1.0106546359954751
1.07,0.02770544336695279,0.12033367017974322,-1.329669952,0.25180362357796854,0.2788602108651926,-0.714286804,1.3547545655039341,1.4276706152895864,-1.0254988145727533
1.072,0.02399570181022768,0.11766273516837587,-1.329669952,0.2493304625550125,0.2773500383879084,-0.693226514234319,1.3516631219657884,1.4257067870738136,-1.057147117267708
1.074,0.02025744876475498,0.11499394473501727,-1.3086256415714286,0.24683829750983666,0.27582501514035507,-0.7343987920813774,1.3485478597435316,1.4234757950059573,-1.058499932
1.076,0.016488674012320816,0.11232249095778175,-1.3287473857755516,0.24432578100130314,0.27429846998187235,-0.736263275,1.3454072409840065,1.4212309342989864,-1.0430191128180082
1.078,0.01271506507972989,0.10966670393327012,-1.329669952,0.24181004005650988,0.2724174928297973,-0.7572014708731777,1.3422625605791967,1.4192663307712456,-1.0577338219134762
1.08,0.008866239131616596,0.10698221310121118,-1.350725057476436,0.23924415546566524,0.27086541330747094,-0.7792950120550426,1.339055179066166,1.4170238118746852,-1.073981687551505
1.082,0.005010776957563476,0.10431156015327771,-1.3727046925766389,0.23667385860460124,0.26897386027032183,-0.8012744865766389,1.335842367056145,1.4145107834505364,-1.090143079440286
1.084,0.001127033295218791,0.10127651874544154,-1.373626709,0.23408468789591033,0.2674323328727208,-0.802196503,1.3326058547577204,1.412255657772256,-1.1217786727286376
1.086,-0.0027856607363184083,0.0985886520936419,-1.4368150131574615,0.2314762331301824,0.265904690919122,-0.8232617075437195,1.3293453198383083,1.4100104187587976,-1.1386286821786948
1.088,-0.006701582735607675,0.09557035808056873,-1.439559937,0.22886560753304905,0.26402417363981046,-0.824176788,1.3260819600831557,1.4077794648815167,-1.1546973702748815
1.09,-0.010694192642184333,0.09286721947715006,-1.439559937,0.2262038689128413,0.26247177470720884,-0.824176788,1.3227547874672707,1.4052543043516852,-1.186428794609332
1.092,-0.014692353349147693,0.0898316841020019,-1.439559937,0.22353843043390154,0.26058055319923734,-0.8662897916081982,1.3194230742242221,1.402998867726406,-1.187781692
1.094,-0.018717545113720348,0.08677927467831167,-1.5027416879716227,0.22085496924401002,0.2590383478391558,-0.826011158448313,1.3160686699785433,1.4004849191716944,-1.187781692
1.096,-0.022770074697424893,0.08372854705124538,-1.505493164,0.21815327953898428,0.2571475630004767,-0.8452287334055536,1.3126916615293276,1.3982300593997141,-1.187781692
1.098,-0.026851202839085934,0.08067716904862933,-1.5265460338803338,0.2154325284284694,0.2552404509423123,-0.8882553447272944,1.3092906229504881,1.3957176832371871,-1.2032618027666269
1.1,-0.030952499653928826,0.07726633154117088,-1.52747345,0.21269832758633866,0.25333659919443124,-0.9111189365157067,1.3058729125175543,1.393197930828653,-1.2348418352903379
1.102,-0.03509531348667302,0.07456296828939213,-1.52747345,0.2099364610116611,0.2514296186100119,-0.912086487,1.30242059375,1.3906739274237185,-1.267154083727771
1.104,-0.03925049141955535,0.07115997089451075,-1.52747345,0.20716634304566103,0.24952032183508355,-0.9331172656551312,1.298957942638537,1.3878785862446301,-1.2840469330004773
1.106,-0.04345103981614403,0.06807761771609966,-1.548602242075467,0.2043659741108859,0.24760415044274078,-0.9551955640754671,1.2954574114954096,1.3853303001451844,-1.3002809803974607
1.108,-0.047668407389438554,0.0650193254746775,-1.5706294431088152,0.20155439342102752,0.2453251448742236,-0.956043243,1.2919430067544404,1.3825302342898949,-1.2853337913364788
1.11,-0.051910850528731525,0.06160605491004284,-1.6137043171596859,0.19872610064580354,0.24340726624940504,-0.9771839678617326,1.288407684002146,1.37999998085614,-1.284745097
1.112,-0.056180704594491475,0.05853866812398665,-1.5942450736046734,0.19587953093525695,0.24149982886409155,-0.978023529,1.2848494611913677,1.3774754832823082,-1.2691997519327611
1.114,-0.06047725839084842,0.05548580980038159,-1.593406677,0.19301516143898953,0.23922476583138563,-0.999169265286549,1.281269003381554,1.3749502271822085,-1.2996825011506081
1.116,-0.06479672138041924,0.052069725379630734,-1.6356669492748064,0.19013552538637446,0.237304509992972,-1.0,1.2776694281105287,1.372158066064443,-1.3475135933282907
1.118,-0.0691404195048266,0.04864483487098692,-1.637363434,0.18723972135097128,0.2354017924001189,-1.0210749391932226,1.2740496984272436,1.3693599962841856,-1.3648835801884662
1.12,-0.07351174789164383,0.04521354542850334,-1.6584259645353907,0.1843255073877697,0.2331299155912774,-1.021976471,1.270406927990583,1.3665565909192088,-1.3965236493294804
1.122,-0.07791001491904137,0.041781545708293615,-1.680398233336511,0.18139332470156194,0.23084191580552907,-1.021976471,1.2667416360629546,1.3637527127082936,-1.4288304540714967
1.124,-0.08233452091408115,0.03798203507702397,-1.7445019419298915,0.17844364909785204,0.2289181590593776,-1.0430394921734827,1.263054589941766,1.360678444557768,-1.4611584432724456
1.126,-0.08678725735265932,0.034888628788995214,-1.747253418,0.175475168094873,0.22663790282248802,-1.022823080101914,1.2593439441245806,1.3578527332425838,-1.4469704699227273
1.128,-0.09128207929490681,0.031047774570598912,-1.747253418,0.17247861947334678,0.22468808929727768,-1.0648801804638839,1.255598211079544,1.3547325357386568,-1.4621201316
1.13,-0.09576179241937029,0.02798833411992401,-1.747253418,0.16949214435580032,0.22241635607622892,-1.065933228,1.251865216122112,1.3522033512637142,-1.446791287562218
1.132,-0.1003023460564784,0.02417944245229259,-1.7901787462472165,0.16646510330232558,0.2201184652760685,-1.065933228,1.2480813607109635,1.349121131162696,-1.4779107646516223
1.134,-0.10482747066483056,0.02078653460587199,-1.7700610871317675,0.16344835419291104,0.21786249407058134,-1.087082314906048,1.2443104821886002,1.3463499261235468,-1.478669167
1.136,-0.10941735417548878,0.016934756771864037,-1.747787743713197,0.16038842631735814,0.21554277225825572,-1.087913513,1.2404855619892705,1.3432333832686585,-1.494435456296722
1.138,-0.11401083817726898,0.013490240876594731,-1.7687084489464648,0.1573261138295763,0.2132526112589722,-1.1308235748929294,1.2366576054432903,1.340146196299988,-1.5263826661691904
1.14,-0.11858154715449074,0.00975256368285547,-1.769229889,0.15427896923096898,0.21137019632065535,-1.1108029912796957,1.2328487410308036,1.3373846418671738,-1.527149558
1.142,-0.12323997273816621,0.006303411179930796,-1.7902974987647058,0.15117335715750568,0.2087315440519031,-1.1309539371730104,1.2289666847844283,1.334310737397924,-1.527149558
