zhaobohao-byte/Y1_1Pace/data/Atom3motors/raw_csv/260117_sin5Hz_10s_3motors_aligned.csv
time,des_dof_pos_right_ankle_joint,dof_pos_right_ankle_joint,dof_vel_right_ankle_joint,des_dof_pos_right_hip_pitch_joint,dof_pos_right_hip_pitch_joint,dof_vel_right_hip_pitch_joint,des_dof_pos_right_knee_joint,dof_pos_right_knee_joint,dof_vel_right_knee_joint
0.0,-0.311521469745684,-0.346704364,-0.010990143,0.025652351219549948,-0.011872649,0.010990143,1.0720654578833195,1.003196597,-0.008080987
0.002,-0.27404437186985076,-0.346704364,-0.010990143,0.05063708544716418,-0.012254119,0.010990143,1.1032963589050746,1.003196597,-0.024224719531645567
0.004,-0.23677020086113756,-0.3467023804641928,-0.010647298998581897,0.07548653412886722,-0.012254119,0.010990143,1.1343582206087577,1.0031973262602223,-0.007954937763412905
0.006,-0.200059809353995,-0.34594602219664383,0.12008535226943984,0.099960130150842,-0.012254119,0.010990143,1.1649501252644214,1.0034754064422122,0.040109927951548094
0.008,-0.1638170946747232,-0.3444065065063381,0.3639384257826087,0.12412194233956424,-0.011872649,0.010990143,1.195152479669008,1.004042248826561,0.12173007005698377
0.01,-0.1284148489074074,-0.34137354957315486,0.8007904944347826,0.14772343016441122,-0.011872649,0.010990143,1.2246543378244301,1.0054361068673143,0.2983970602184575
0.012,-0.093977570994493,-0.33652729946092835,1.4023674599169582,0.1706816203755537,-0.011872649,0.03242322563377653,1.2533520105165807,1.0068084119776068,0.4565727969944017
0.014,-0.06027761015725373,-0.3291546532311564,2.1650317759460758,0.19314826315964181,-0.012254119,-0.011000677872618336,1.2814353613049552,1.0093682054547635,0.7192046417352906
0.016,-0.027809162084971993,-0.32032864668221855,2.98211463608617,0.21479389188392325,-0.012258296004760772,-0.05554853424279933,1.308492388928614,1.012472805136872,1.0117007057024519
0.018,0.0033223829325014853,-0.31042177271920246,3.727610229414669,0.23554825270184193,-0.013019955469736529,-0.16508728315309754,1.3344352773827688,1.016117443170662,1.3184778898817944
0.02,0.03298875659593301,-0.2994077285751246,4.340294923528957,0.2553258388818182,-0.013779545270353667,-0.2307309861323285,1.3591572609098086,1.020864875442084,1.6885318539559697
0.022,0.06132153700523747,-0.2882817609174247,4.781746686010869,0.27421436659540527,-0.014544829704075606,-0.2308791496038984,1.382767949010118,1.0265095835597164,2.110846101697106
0.024,0.08789794779518646,-0.2769417675688128,5.086641301324277,0.2919319562988204,-0.014922829746603663,-0.25265571649675134,1.4049149150134634,1.0329021502002362,2.4951634309190784
0.026,0.11277571122177227,-0.2658753556649577,5.2411511192720885,0.3085171521572177,-0.015304376044950519,-0.2089627799279838,1.4256464182789423,1.0399143128973412,2.8508950901542867
0.028,0.13582219301598666,-0.255141848855389,5.285731359380356,0.32388145807921737,-0.015305877,-0.14282027439015466,1.4448518870057265,1.0478026065145793,3.2565818390047223
0.03,0.15698374682933525,-0.24456440757006256,5.307496278584701,0.33798918046938775,-0.015305877,-0.09929421162117813,1.4624864232082588,1.056134903698855,3.5926242972344467
0.032,0.17614939985160444,-0.23376572290394265,5.285847118307527,0.350766262234403,-0.015305102210274792,-0.032743420484109914,1.478457841733389,1.0652049430176822,3.9032736677585422
0.034,0.19322468630574768,-0.22305852444934446,5.352200336441597,0.3621497867638922,-0.014921224298569727,0.07729011290703218,1.4926872341647985,1.07448217377354,4.178317511176997
0.036,0.20814956024747533,-0.21161286338208388,5.484315709145658,0.3720997123873114,-0.014156845219912083,0.16545832388166803,1.5051246821734585,1.084020634263158,4.388373223542474
0.038,0.22083357965822784,-0.19944592205639142,5.681507655639853,0.3805557059683544,-0.013015973380405166,0.318804790707973,1.5156945962974684,1.0940849640231014,4.5977454572957
0.04,0.23131940197533365,-0.18655644089160053,5.943584620154484,0.3875462640969971,-0.011499675186826206,0.4935278204542116,1.524432888716635,1.104398042319038,4.790451782683687
0.042,0.2394919046762075,-0.17355763519450418,6.164101645538351,0.39299458898688133,-0.010350598369414576,0.5383127430685782,1.5312432865813954,1.1145197912179212,4.920381075422222
0.044,0.2453417649731368,-0.16020737546924177,6.3181662666132565,0.3968945056487579,-0.007685395693848355,0.8232230354630425,1.53611813912968,1.1251767320348116,5.033558409670959
0.046,0.24883709175229685,-0.1471126084728782,6.404609770508885,0.3992247236852404,-0.005439305556464812,0.9101030205624269,1.53903092565207,1.1350828058061726,5.065528222799743
0.048,0.24997781581942952,-0.13401162098904273,6.384905284912582,0.3999852163526674,-0.0023759591754364843,1.1289819256186635,1.5399814762102877,1.145829499035039,5.098154252351716
0.05,0.2487457087087912,-0.12206466686853501,6.297073434375871,0.3991638014725275,0.0010828689112340633,1.3726089547433244,1.5389547737833253,1.1557453047019486,5.082484571907746
0.052,0.24514016420674853,-0.11015371394492787,6.119816458988438,0.39676010491963754,0.004926524762665395,1.5502096800978662,1.535950138870514,1.1659183157726785,5.0498744807283344
0.054,0.23919246111248516,-0.09985678646557843,5.812021978402177,0.3927949599750297,0.009123347321031466,1.7699578094050155,1.5309937513828775,1.1757339190932103,4.98529542052898
0.056,0.23094505641156787,-0.09001483131334279,5.463079247039981,0.3872967004064292,0.013665787397208423,1.988047962179087,1.5241209323734464,1.1851973382339722,4.937187660086704
0.058,0.22035416206501546,-0.08119192339815144,5.087663495056168,0.3802360944815432,0.01864968006789904,2.1430284858450053,1.5152950818875923,1.1947822016167793,4.839931645657305
0.06,0.20755672828035607,-0.0732294720138642,4.738138409578742,0.3717044913068249,0.023957980990757202,2.3833276931624603,1.5046306567299703,1.2037037018741557,4.727492822570209
0.062,0.19261523639671585,-0.0657576273789965,4.393890141568027,0.3617434865978106,0.02992901782847141,2.5772003463533255,1.4921793582353642,1.2122175061563594,4.585283990056009
0.064,0.17550343102565025,-0.058412636459002534,4.081345000764159,0.35033561665264296,0.03610578097886729,2.755716883519865,1.477919534071437,1.2207413367768385,4.390311339699916
0.066,0.1561715000501792,-0.051470964498494885,3.8142981192498495,0.337447682618638,0.042271283777242624,2.933325795192655,1.4618095519419354,1.2284037193419626,4.226602679054184
0.068,0.13489509280326697,-0.045318090588959255,3.592744889699725,0.3232633912255872,0.04918771024124746,3.110331167025451,1.4440793037641588,1.2357518441394433,4.031294808783486
0.07,0.11174919350578276,-0.0392029339873629,3.394248559991297,0.30783280686646,0.05644986041404387,3.242495340131378,1.4247909846817692,1.2427768979140439,3.820737033882332
0.072,0.08677895870293734,-0.03348928184300823,3.1518632848984725,0.29118596354953025,0.06332087400963572,3.374370491589894,1.4039824244283505,1.2492252231786134,3.610552223355347
0.074,0.06015975807900059,-0.02935327140869565,2.8052543311565215,0.27343984755847706,0.07084089244347826,3.5043464991739133,1.3817998001049376,1.2550311483913044,3.3875531114521737
0.076,0.03191236519317235,-0.02592918470641984,2.390166741748665,0.25460824439538476,0.07805883063011748,3.5922382524769194,1.3582602672396813,1.260340908403109,3.1145116176029433
0.078,0.0021677257619617226,-0.024394906696605375,1.8485691654285714,0.23477848121770334,0.08597149870650637,3.636290938868105,1.333473064055622,1.2653381217910185,2.858602695093352
0.08,-0.029131769488543274,-0.02360221680392157,1.2910999599215685,0.2139121537388104,0.09296611481372549,3.5938376255980393,1.3073902178089754,1.269349700245098,2.5322569424215686
0.082,-0.0614675177453215,-0.02397234366746098,0.7418278220374122,0.19235499146701057,0.09983034806493507,3.5716527724285716,1.280443771087092,1.2724423269042058,2.2091555750986536
0.084,-0.09528336498568703,-0.025508457479837748,0.22908150262347887,0.1698110909010019,0.10602506703746122,3.4174366288255786,1.2522638493361162,1.27500275363183,1.8490597835769507
0.086,-0.12991167668526465,-0.027421799602669526,-0.2764188842238112,0.14672554509084407,0.11252394010666189,3.3750515663926826,1.2234069828690985,1.2764027201457515,1.4608047499947563
0.088,-0.16539666133233996,-0.030474291236437346,-0.6937320650460236,0.12306889805233044,0.1212913024083701,3.72535699621271,1.1938361722869233,1.276961446,1.040799294144867
0.09,-0.20160166516473954,-0.03391242285877726,-1.0675754940404005,0.09893222618655383,0.12892009153164105,3.7470805455198426,1.163665245572893,1.2769592397114766,0.6370623887929925
0.092,-0.23839674248354792,-0.03848896778012156,-1.4848158276815637,0.074402172981402,0.1361677018209987,3.7036214517202954,1.1330027700293275,1.276397338580384,0.3141695939413658
0.094,-0.2756330738338082,-0.04307023163587839,-1.8364943532772104,0.04957795072566477,0.14379424962926432,3.7909882935603387,1.1019724398122033,1.2755543485242515,0.05558246052448364
0.096,-0.3130047049195512,-0.04901085500649803,-2.2215432595269204,0.024663527690260208,0.15084873963854722,3.7268109999093757,1.070829427830986,1.2741892808491528,-0.22753899798004176
0.098,-0.3507285648363376,-0.05636064279888268,-2.711585593424581,-0.00048571392312283634,0.15822521879888268,3.6159970585251395,1.039392820790259,1.2719251112849161,-0.5235857873072626
0.1,-0.38844834909097414,-0.06439283783735948,-3.262422565896914,-0.025632238442112796,0.16473518439248983,3.549607618266204,1.0079597248361751,1.2693942367325999,-0.8153998609497728
0.102,-0.4259776565837412,-0.0739349025804104,-3.7903920940109757,-0.050651779083681514,0.17084474479766165,3.373899400691243,0.9766852582707413,1.2660275452770222,-1.1388001453464567
0.104,-0.4632489549610111,-0.0846881629866444,-4.3214316651001665,-0.07549931245487064,0.1766030044590985,3.2186792336026713,0.9456258482173602,1.2617903553372287,-1.4965280151218698
0.106,-0.5000233669377899,-0.09613683083823005,-4.870319045730819,-0.10001557858582134,0.1819427876406566,2.9989647491533247,0.9149805493021292,1.2570150363767099,-1.8361415161072916
0.108,-0.5361306180481539,-0.10794081311966527,-5.28694281726049,-0.12408706302533158,0.18689016716043036,2.8016500112472205,0.8848911624734138,1.251135443926599,-2.2070375819766883
0.11,-0.5716499514414275,-0.12094422930056864,-5.68306984692039,-0.14776661895909415,0.19147743722583263,2.6252484945101546,0.8552917179635997,1.2446642523160034,-2.5795902113151907
0.112,-0.6060452894748536,-0.13357195141220843,-5.9826182531479635,-0.17069687307000359,0.19556257648114192,2.4326787444424975,0.8266289076146219,1.2378375436619473,-2.925710133032262
0.114,-0.6396772457402782,-0.1474368609725069,-6.271867286194501,-0.19311816296753478,0.19942626083070059,2.1892329590307487,0.7986023069254371,1.2299166189433257,-3.2690667787754735
0.116,-0.6720222703829304,-0.16122666625257362,-6.4932177267790285,-0.2146815028431889,0.20249829805482406,1.9901700642483842,0.7716481390135264,1.2217514790430932,-3.609837797284295
0.118,-0.7032969880305635,-0.17578397095868759,-6.801791211856784,-0.23553131001337152,0.2051839214199497,1.747571861399473,0.7455858839780325,1.2124590023360078,-3.9507489374083344
0.12,-0.7330880437881749,-0.19076633334783646,-7.067465861859816,-0.25539201442186193,0.20710297406496603,1.4823377564688283,0.720760002583979,1.2025723907294075,-4.308543528683633
0.122,-0.7613255401807129,-0.20678899998688915,-7.3533005401472,-0.2742170504406961,0.2086268050750894,1.2622042942705602,0.6972286801641435,1.191912152718117,-4.647821659941597
0.124,-0.7879386589160123,-0.22281467006806283,-7.660950865633509,-0.291959100175113,0.2097670742198953,0.9766427084502618,0.6750511381301451,1.1809700209947644,-4.970904015366492
0.126,-0.8127770066788487,-0.23994823850166905,-7.967840393664759,-0.3085180087723635,0.21014527261754887,0.7133330514630425,0.6543524951652931,1.1692099887539342,-5.277311496676204
0.128,-0.8358776401281138,-0.25711690859060404,-8.209453595127517,-0.323918430433452,0.20976379689932886,0.4277585307785235,0.6351019395430605,1.157147715771812,-5.56804127778859
0.13,-0.8569290438557267,-0.274150799300162,-8.40146627098056,-0.3379527003987818,0.2093934946741495,0.19307966302105992,0.6175591600739281,1.1451672899349687,-5.80334919532261
0.132,-0.8761089219416093,-0.29239308911848344,-8.537418178829384,-0.350739294581296,0.2082482375655608,-0.09664302271406,0.6015758507987182,1.1314901246777251,-6.034087778099527
0.134,-0.893117620906096,-0.3095172301209888,-8.625432927775613,-0.36207840790477336,0.20635225087901118,-0.4033020925055859,0.5874019736093543,1.1186184639631567,-6.2916754785134295
0.136,-0.9081613606854347,-0.3274059830912779,-8.6481399877869,-0.37210758709602765,0.2040165880320964,-0.629100537829734,0.5748655147621377,1.1043246359108698,-6.4900619827554
0.138,-0.9208845910941598,-0.34383267753939684,-8.625912187815354,-0.3805897116424315,0.20133577468792466,-0.9150836376591965,0.564262822977354,1.0905645882976516,-6.6674833637583735
0.14,-0.9313449959507571,-0.36099485593323,-8.581955320869202,-0.3875633247140813,0.19789853556349113,-1.2005707357981399,0.5555458285353523,1.0765362866104686,-6.796596132384047
0.142,-0.9395127526428572,-0.37777635319023933,-8.537069572539801,-0.3930084859047619,0.194071582498697,-1.4647840481505567,0.548739384,1.0622334131286424,-6.909042798155295
0.144,-0.9453473331247364,-0.39407745158362245,-8.40622727089868,-0.3968982253070977,0.18914410939347673,-1.7703280294233172,0.5438771956011946,1.0482982566564887,-6.9572164229430955
0.146,-0.9488216475883848,-0.4103612585676613,-8.320937131291466,-0.3992144155353902,0.18433298407356002,-2.0261947480562106,0.5409820013673322,1.0346921416183206,-7.004250255684247
0.148,-0.9499769648431161,-0.42708174051969844,-8.231379407308731,-0.399984656638869,0.1785232641223249,-2.2730512436714494,0.5400192075507039,1.02012535976143,-7.005495071
0.15,-0.9487441429713775,-0.4423986081269879,-8.099388658215114,-0.39916274605307095,0.17240271453246445,-2.581275988783451,0.541046587281455,1.0066124979826618,-6.973293902515963
0.152,-0.9451477890393878,-0.45803020113465204,-7.945694740168255,-0.3967651959491043,0.16592215053360343,-2.823168493327693,0.5440434816317475,0.9928757369923737,-6.908801266216277
0.154,-0.939241125273011,-0.47285438258294743,-7.770628791173614,-0.3928274006855874,0.15870484665574158,-3.107616764176701,0.548965740773311,0.9797394775189406,-6.828373059848949
0.156,-0.9309144580869357,-0.4875417771403197,-7.592001330330373,-0.38727629949327136,0.1509730656358792,-3.3750320556696267,0.5559046093852567,0.9663842075026643,-6.730166850005328
0.158,-0.9203596910955734,-0.5011836222545886,-7.330013481185908,-0.38023977870803005,0.1426363824001184,-3.637019904814091,0.5647002394203555,0.9538457289660154,-6.617794518198697
0.16,-0.9075313647486033,-0.5142363494408413,-7.019957104460933,-0.3716875900446927,0.13418268085242627,-3.880426531639878,0.5753905115810056,0.9411427241306545,-6.455083418591822
0.162,-0.8925642152922272,-0.5258910087838091,-6.651730005989307,-0.3617094709162005,0.12515971881224297,-4.118692894059335,0.5878631443234139,0.9295322971726002,-6.279887564509341
0.164,-0.8754375410412532,-0.5370592872383015,-6.2308203431245035,-0.3502917075256487,0.11554129420834837,-4.340633656894863,0.6021353355707282,0.9176464541392999,-6.116695770789967
0.166,-0.8561523294016686,-0.546964660437314,-5.791838192529705,-0.3374348905871275,0.10563610456268603,-4.5601260542351465,0.6182064222469607,0.906721485262055,-5.906893000997023
0.168,-0.834928135648742,-0.5557442640480621,-5.330110300453667,-0.32328542744640515,0.09571318381502683,-4.736095524767919,0.6358931925783952,0.8960566299663685,-5.68056377581765
0.17,-0.8117820223735844,-0.5637558596017404,-4.846614354904637,-0.30785468569769936,0.08503275486434617,-4.911918816753725,0.6551816497702944,0.8862385790150197,-5.454321128619502
0.172,-0.7868227296152381,-0.5710020125867493,-4.407221864376549,-0.29121514771238094,0.07435573769876072,-5.065713237426596,0.6759810784247618,0.8769862088112488,-5.147498019881316
0.174,-0.7601708041695544,-0.5775100938128724,-3.943952895021454,-0.2734472263244115,0.06363293902979737,-5.198065451669845,0.6981909604063807,0.86882128347795,-4.790529968537545
0.176,-0.7317992583501783,-0.5828481797986578,-3.482582501803132,-0.25453282324078474,0.052571939404921705,-5.307791818263983,0.7218339922045184,0.8615301735100671,-4.37060348017226
0.178,-0.7020640567919952,-0.5873692229113388,-3.070161672364771,-0.23470935595221026,0.0416460859566702,-5.351205132489344,0.7466133264818399,0.8546045595333804,-4.035434086325562
0.18,-0.6707918847302325,-0.5912382876443834,-2.6911521297659067,-0.2138612460372093,0.03044339274728423,-5.417525740526441,0.7726734598015503,0.8483465594834666,-3.7402641235815923
0.182,-0.6383124619118943,-0.5942909674640322,-2.2510303636034075,-0.19220830759030838,0.019747095359204922,-5.39560318,0.799739625753304,0.8424530413659489,-3.4166422141975863
0.184,-0.6047461875013107,-0.596562724941789,-1.8147468445423567,-0.16983080471556244,0.008765985673450072,-5.39560318,0.8277114927043613,0.8377202131218647,-3.0958456333658306
0.186,-0.5701474470209849,-0.5969510001361469,-1.265636349190391,-0.14676494868749254,-0.0045785637997138775,-5.87744820107618,0.8565438056355074,0.8340695206816882,-2.6437751167905343
0.188,-0.5346638652451728,-0.5961920177242489,-0.6942821360689079,-0.12310922817377831,-0.017169702523962806,-6.032434716588341,0.8861134566926103,0.8312616765578207,-2.2073908379335956
0.19,-0.4984606244593404,-0.5942906615384616,-0.10158493909049782,-0.0989737508102155,-0.02936502156108597,-6.0548474406968325,0.916282834015359,0.8287389657873303,-1.8519641061131222
0.192,-0.46171206806672244,-0.5916080846955166,0.4290545669350276,-0.07447472135214636,-0.042402300320546635,-6.230770111,0.9469065861943082,0.8276042600016783,-1.413763513466315
0.194,-0.4243658250029716,-0.5877675197850358,0.937185502874868,-0.04957722461678355,-0.05506087908631406,-6.230770111,0.9780284521570188,0.826203108,-1.136695531545444
0.196,-0.3869410587517612,-0.5832639667425824,1.4128770175888354,-0.024627378135402986,-0.06744564921519879,-6.230770111,1.0092157998789255,0.826203108,-0.7392266250677846
0.198,-0.34921296988035605,-0.5778839724933237,1.8786757143020572,0.0005246827812462909,-0.07976346658655119,-6.186855655702875,1.0406558166725222,0.8270437961859738,-0.34781923990220137
0.2,-0.3116970408689721,-0.5718265888452437,2.3367829823920965,0.025535303793107575,-0.09150143680194037,-6.099638347794013,1.0719191486856527,0.8287134056920256,0.11726675208483195
0.202,-0.2740410142246334,-0.5645542224586177,2.778535289158462,0.05063932387742936,-0.10300100514888011,-5.989431042709427,1.1032991569477764,0.8304040296485806,0.3465788543738172
0.204,-0.23681252743049594,-0.5561621294903996,3.2402152321549194,0.07545831641404388,-0.11445169460286225,-5.835676855862612,1.1343229485736765,0.8329264861600477,0.6856805224166965
0.206,-0.20003414092120345,-0.5473875001062358,3.6799575266488613,0.09997724244126074,-0.12551824047609395,-5.747525941208298,1.164971515691977,0.8362904154842017,1.0090177101862405
0.208,-0.16380759373781573,-0.5374003963377695,4.144596002911554,0.12412827629491284,-0.1362710657323048,-5.592578393055117,1.1951603971131268,0.8402446364264515,1.350724537994936
0.21,-0.12853852740993787,-0.5264706665111294,4.600591871755976,0.14764097781151458,-0.14607013402308328,-5.375438580129431,1.2245512726237457,0.8446785968796373,1.701980617823578
0.212,-0.09389988379604244,-0.5150538315852469,5.039406880198215,0.1707334118465848,-0.15558992834907792,-5.156121679395716,1.2534167499669804,0.8502681049381321,2.0407665477092207
0.214,-0.060335352946475504,-0.5024481999130227,5.479945596745759,0.19310976797275986,-0.16514790807622462,-4.979451961307766,1.281387242333811,0.8561686356296296,2.3808872547431306
0.216,-0.02784927973294578,-0.4893930721014162,5.856650135821532,0.21476714678870565,-0.17398855946723477,-4.780481174398823,1.3084589576419505,0.8629394105914546,2.738702134045487
0.218,0.0031563014429272966,-0.47576006699384543,6.16221480674778,0.2354375316883459,-0.18232096089170316,-4.562312966037992,1.3342968761145046,0.8701789587428098,3.075647137590366
0.22,0.033047504958760424,-0.46154560913810494,6.516061010346943,0.2553650044736591,-0.19001271076269965,-4.297020063779632,1.359206217960906,0.8786458045550618,3.4659215002466675
0.222,0.06128121483450578,-0.4470535420393325,6.779842816183551,0.2741874851759866,-0.197259430481764,-4.0552926769833135,1.3827343472687492,0.8876188172240762,3.821405695035995
0.224,0.08790419927181689,-0.432182899203622,6.999581022341475,0.29193612395517404,-0.20374242034350054,-3.7917129496436313,1.4049201245855985,0.8971509312618849,4.1283728914525195
0.226,0.11279341108963552,-0.4169121308106657,7.219543983782391,0.3085289520568681,-0.20985174447637794,-3.5057999467605585,1.4256611682228422,0.9069758149373658,4.435674954231926
0.228,0.13576907005725874,-0.4019718071107739,7.391744797385783,0.3238460427215794,-0.21508167681452084,-3.2260498502047392,1.4448076181108194,0.917411135747753,4.736313485890393
0.23,0.1569368762469757,-0.38568912557761864,7.548740347488894,0.33795793346496583,-0.2201351085560141,-2.9353845413224904,1.4624473642866211,0.9288130292005098,5.01650987453186
0.232,0.1761668581602999,-0.36989250560577375,7.703967538610625,0.35077790110686663,-0.22437161472515382,-2.6246960775669668,1.4784723903091752,0.9398653235279224,5.245170541111808
0.234,0.19320516096647977,-0.3539920968902035,7.834835478097137,0.36213676985756893,-0.22777884473887836,-2.297522443234737,1.49267096297483,0.951835882788689,5.469702302550047
0.236,0.20813803911609907,-0.3375745334538838,7.944882647616752,0.3720920316511074,-0.23045352204116454,-1.9455985553722708,1.5051150813267444,0.9639083225729627,5.680022052720081
0.238,0.22084585914573643,-0.3212238632323232,8.010676716775402,0.38056389230542637,-0.232355945580511,-1.5950781989203802,1.515704829331783,0.9759308771972668,5.825100005749851
0.24,0.2313192405420238,-0.30515576864140564,8.054857577358595,0.38754615647499996,-0.23350804758295482,-1.2205391903348077,1.5244327541892857,0.9885853919688024,5.970939727955773
0.242,0.23948638774429987,-0.28928124529136645,8.033213233472658,0.3929909110229199,-0.23388756489488602,-0.8720790286642258,1.5312386891680794,1.0008142469826384,6.067107919707689
0.244,0.24534168702410353,-0.2731317465884615,7.989152505129687,0.3968944536827357,-0.2335116129435096,-0.4957193265219952,1.536118074171812,1.0135338777997596,6.132628471886658
0.246,0.2488358652889261,-0.25815822410068995,7.90304319875231,0.3992239060322889,-0.23276336608104314,-0.15062900999649165,1.539029903656063,1.0256437905605191,6.164444844873231
0.248,0.24997655250990217,-0.24222729846169747,7.747721094133876,0.3999843741352899,-0.23084493111831225,0.2296343294186527,1.5399804235108565,1.0387806843739058,6.197379573249878
0.25,0.24874288262410585,-0.22809063941675617,7.571744962913712,0.3991619174160706,-0.22817362532223417,0.6037279572914429,1.5389524187004053,1.0511394341600429,6.213610803099892
0.252,0.24514650622317596,-0.2139913284039057,7.418023132796856,0.3967643329413448,-0.22474542955608479,1.020783102147416,1.5359554238497852,1.0631882971131221,6.197524005905692
0.254,0.23920179192775395,-0.20024102928765813,7.19817075882454,0.39280118050643775,-0.220927294525185,1.3730390862580568,1.5310015270386268,1.0755437606230605,6.132946264512771
0.256,0.23093060506720686,-0.18689432313630405,6.97849487886584,0.3872870661626549,-0.2159724495186465,1.7464521215908495,1.5241088894357722,1.0873205719691408,6.052210052452282
0.258,0.22037445201069517,-0.17470804189409805,6.693462442172299,0.38024962108021393,-0.21064284432841504,2.0974771876941936,1.5153119900064171,1.098799433050452,5.939371957703237
0.26,0.2076073044133905,-0.16286978090693235,6.407479678219664,0.3717382087637598,-0.20453665666364396,2.4494591702554587,1.5046728036989516,1.1097512626869108,5.8100333667377395
0.262,0.19261007439130434,-0.1516366816406177,6.127063671836219,0.36174004526086956,-0.1977998741800421,2.7945859989709874,1.4921750565685619,1.1204876875918344,5.667336620097215
0.264,0.17542639504157706,-0.1411330792747026,5.770723911618354,0.35028425941290325,-0.19005428727409565,3.1304658179133282,1.4778553372487455,1.1313384896978635,5.487181595512139
0.266,0.15615404576119404,-0.13157308122527472,5.418339514209985,0.3374360464089552,-0.1820282315511228,3.482760636587673,1.4617950067791046,1.1409000157747253,5.276792174634974
0.268,0.13489381591416005,-0.12279873717997616,5.0229195150882004,0.32326253996706694,-0.17325811990584028,3.812400781988081,1.4440782396860063,1.1501546990560192,5.034513865384982
0.27,0.111813458875239,-0.11518291019210182,4.60628429790389,0.30787565050023896,-0.16412236354264303,4.097608405123944,1.4248445392413958,1.1588327051247769,4.792627241543833
0.272,0.0867870543491477,-0.108286899846835,4.16515247088716,0.2911913606414352,-0.15416988588931435,4.406372411082804,1.4039891707866252,1.166720235230585,4.500855911720235
0.274,0.06010122834708477,-0.10255065311258041,3.7022283921611865,0.27340082772063906,-0.14384144993137957,4.670819666711342,1.3817510252465721,1.17431403783929,4.20920332793543
0.276,0.031790582537759335,-0.09797687736114394,3.1751375348177735,0.2545270559434499,-0.13316624204632474,4.912429328296147,1.3581587816737404,1.18132095376814,3.9346014737712123
0.278,0.0021435785404600167,-0.09419508899751831,2.6957920446763177,0.23476238307210107,-0.1221990550978492,5.15210396441125,1.3334529414231915,1.187438469928622,3.6302036524963364
0.28,-0.029041944721426866,-0.09155656508501644,2.2195207614920154,0.21397203690765929,-0.11092920066275247,5.325767816387153,1.3074650717506562,1.1929683202487082,3.343558471077736
0.282,-0.061533199424307544,-0.08962556171756822,1.7558699425921493,0.19231120367645654,-0.09906949280708473,5.5022106818228815,1.2803890362545367,1.1980474355179511,3.0516487435509814
0.284,-0.09518278822513089,-0.08883968256062597,1.2501501888603512,0.1698781420892432,-0.08721950181423964,5.6351737353343685,1.2523476631258923,1.202279203800024,2.6965945032171783
0.286,-0.12973189728947368,-0.08920572970397113,0.739913045137184,0.14684539797236842,-0.0756616758231047,5.702820608819495,1.2235567989697367,1.2056906386606498,2.3216886662924185
0.288,-0.16533194039659077,-0.08996832125110606,0.29849038166698555,0.12311204534759805,-0.06456140038538802,5.681409535930169,1.1938901065687209,1.2082291725981107,1.9488270428962096
0.29,-0.20153589128048635,-0.09187308113891872,-0.14154510516970997,0.09897607544570271,-0.05462780447225206,5.462195968413653,1.163720056978305,1.2099174115266738,1.5928526272284282
0.292,-0.23833280034477808,-0.09453761590857143,-0.5586504195785714,0.0744448010762053,-0.043582051325714286,5.461540222,1.133056055240579,1.2104809092285713,1.10905796927
0.294,-0.27569416788515605,-0.09841900246756019,-1.0277636346058594,0.04953722135430069,-0.030027504234966196,5.8794092588078515,1.1019215281277104,1.210475928623295,0.6978666579195825
0.296,-0.3132019371999046,-0.10260720797293413,-1.4658989531155688,0.024532039494632635,-0.01826937158,5.89964721710024,1.0706650672867366,1.2099108435038324,0.31218695243868266
0.298,-0.35089882038673503,-0.10837048481737885,-1.9955261704079734,-0.0005992176309197186,-0.007519122326092146,5.726973059089998,1.0392509414345699,1.208494624747195,-0.04456854869825734
0.3,-0.3885913067586125,-0.11525576595743413,-2.5019280136475497,-0.02572754356276076,0.004686193377727435,5.85559731661643,1.0078405932763144,1.2065288154771672,-0.36679106616489804
0.302,-0.42610816289872666,-0.12290857654409139,-3.0288813862873973,-0.05073878329834583,0.01575116565905034,5.746625688517672,0.976576503023444,1.2045610163734382,-0.5926197208018564
0.304,-0.4632635062503284,-0.13205867748887026,-3.51212130093753,-0.07550901331111907,0.026790964443752993,5.701087298008737,0.9456137221609937,1.2023102967301342,-0.7870235340726424
0.306,-0.5001026629566151,-0.14202132817128585,-4.040542747060069,-0.10006844256185936,0.037500705398715355,5.524948072307838,0.9149144692619786,1.1991992328024266,-1.0476461438904483
0.308,-0.5362770698587099,-0.1523102244180279,-4.5004815060989625,-0.12418469756432575,0.04739802037725051,5.371111055555383,0.8847691193007036,1.195272607167402,-1.3704021701118398
0.31,-0.5717233004453441,-0.16338963225554107,-4.917760120551499,-0.14781551835794238,0.05730562617731421,5.194651502674055,0.855230593730412,1.1907725153428945,-1.7100104133024772
0.312,-0.6062557611019775,-0.1755315589739141,-5.3109571820598305,-0.17083718739826068,0.06640290664927606,4.975911706750149,0.8264535147779366,1.1854656722741415,-2.0635442289617085
0.314,-0.6397921261816119,-0.18817588603724927,-5.684867727295129,-0.19319474989301494,0.07482614665520536,4.7329886069723015,0.7985065732933732,1.1792651212464182,-2.4203799314145176
0.316,-0.6722577293705161,-0.20154333791812656,-5.971630142584555,-0.21483847546633297,0.08322160055237755,4.469462045619593,0.7714519232648075,1.1725073202373972,-2.7766751317540224
0.318,-0.7033921334565943,-0.21453127110733453,-6.300923345000596,-0.2355947402963272,0.09083878820512821,4.249129441466309,0.7455065961235392,1.1646546641174718,-3.147614317712582
0.32,-0.7331453396466802,-0.22903757594719276,-6.608106551022768,-0.25543021174192393,0.09770228805101919,3.9853001259772323,0.7207122558761473,1.156782377836095,-3.471160793348194
0.322,-0.7613788533674685,-0.24391470898225556,-6.872148569071454,-0.2742525925045249,0.10417646484018102,3.721566988927474,0.6971842526258634,1.147802812355246,-3.810067095761224
0.324,-0.7879612797085571,-0.25878244758648683,-7.156420524117226,-0.2919741807128535,0.10988759160331861,3.457822524245434,0.6750322874518438,1.1385489028331144,-4.117004658788946
0.326,-0.812872497559423,-0.2740737562680572,-7.355136832650656,-0.30858166935665754,0.11522469536436233,3.1710687347278905,0.6542729193088568,1.1287056710480332,-4.4401997619429086
0.328,-0.8359273548218623,-0.290097697103342,-7.596532251339891,-0.32395157356418197,0.1197905642536146,2.8414648975114956,0.6350605107716123,1.1180443729168048,-4.7310264294738085
0.33,-0.857042291498452,-0.3064049743397129,-7.814474836406698,-0.3380281988823529,0.12357975812440192,2.514274985139952,0.6174647865681114,1.1071667598050239,-5.019671341351674
0.332,-0.876164206905985,-0.32287485986974185,-7.968333470657743,-0.35077615115959865,0.1270158306003824,2.24858632914663,0.6015297801226854,1.0959017076340822,-5.24669616284859
0.334,-0.8932603904958264,-0.34006714559949924,-8.0781812240217,-0.36217358782518483,0.12968181706319304,1.8963832883239538,0.5872829988638206,1.0840877659848573,-5.473039078047574
0.336,-0.9081793385820521,-0.35609600559342625,-8.164836884,-0.37211957231819803,0.13157836584315827,1.5660462793846612,0.5748505331816232,1.0720206666871501,-5.666517539162915
0.338,-0.9208885726780627,-0.37248653869760584,-8.164836884,-0.38059236603561253,0.1327164527210756,1.1939957340409246,0.564259504994302,1.0596922947227267,-5.827514305783112
0.34,-0.9313149583639622,-0.38909058417079,-8.1647790895346,-0.3875432996951846,0.1334682209714354,0.9111618758696067,0.5555708597815748,1.0474827032269631,-5.955370798638102
0.342,-0.9395045179399142,-0.4051522381464171,-8.142395404873017,-0.3930029960748688,0.13308575273184692,0.5588258370355312,0.5487462463090128,1.0351073122877072,-6.068619721922976
0.344,-0.9453484619471307,-0.4207949760072847,-8.05447174665621,-0.3968989778489961,0.13269803797450358,0.25084601385783106,0.5438762549379826,1.022482363351545,-6.149434020476912
0.346,-0.9488385691178708,-0.4362092037704148,-7.96782874970591,-0.39922569698859317,0.13119421080354834,-0.09571845519680411,0.540967899661597,1.0100426587593703,-6.229067773614734
0.348,-0.9499812536405711,-0.4512204549127784,-7.859951844732943,-0.39998751594705534,0.12932180284783118,-0.3773148228794842,0.5400156334435455,0.9976288702126612,-6.245547664154278
0.35,-0.9487666931396521,-0.4670559816013538,-7.726914935192312,-0.3991777793714457,0.12625929381131393,-0.7535918565364439,0.5410277959163767,0.9845636032770457,-6.2778769340246585
0.352,-0.945149106593026,-0.48138195208891016,-7.571193825147944,-0.3967660743226654,0.12316498232767686,-1.0663009305346558,0.5440423836613327,0.9723270273408222,-6.262023686905593
0.354,-0.9391907305182089,-0.4955292693814222,-7.372888902670196,-0.39279380424776117,0.11933776943051377,-1.3749383488884612,0.5490077362746268,0.9599551098458668,-6.181137927868969
0.356,-0.9309015797109124,-0.5089940780798234,-7.1724246239675455,-0.38726771389660103,0.11471330251986638,-1.7286717200324544,0.5559153413538461,0.9477907151269539,-6.130964016458775
0.358,-0.9203269443661033,-0.5215940977889352,-6.908143270969542,-0.3802179476319924,0.10974439406174896,-1.992346464907674,0.5647275283615806,0.9362831777323022,-5.985833094962166
0.36,-0.9075300875081732,-0.5341432259204222,-6.621986544772414,-0.37168673854933776,0.10440586369971537,-2.2343826912932876,0.5753915759488129,0.9250899072211812,-5.872753977379151
0.362,-0.8924962347638641,-0.5455221520297541,-6.250383990555729,-0.36166415064341084,0.09832787564907018,-2.5402317344007197,0.5879197946067979,0.9142075505829634,-5.743904594165687
0.364,-0.875326215190266,-0.555877833917532,-5.895906607329157,-0.3502174902375045,0.09141741077885189,-2.8056588540860483,0.6022281075754503,0.9034878496429168,-5.580841523828022
0.366,-0.8560803905240756,-0.565413141921062,-5.499293373507645,-0.3373869313331352,0.08453347645501956,-3.0693431450448028,0.6182663711090238,0.8933875126313856,-5.3867277399817475
0.368,-0.8349049548891013,-0.5741289776296384,-5.062197442085827,-0.3232699736073136,0.07694266728632991,-3.3095613739613357,0.6359125099078633,0.8839089963358869,-5.193478821230668
0.37,-0.8117046230418505,-0.5817748245827364,-4.620863048236748,-0.30780308611112434,0.06889946426540114,-3.5302285713753583,0.6552461492744723,0.8749039912997851,-4.950095805108883
0.372,-0.7867321814951894,-0.5882627506594151,-4.181050213781287,-0.2911547824020667,0.06087319797520468,-3.7499832849700585,0.6760565349921606,0.866486340291462,-4.706939014069942
0.374,-0.760141437500593,-0.5942513349546199,-3.7713300163678363,-0.27342764850355783,0.05263889505988304,-3.944058318968538,0.6982154327120493,0.8587804246734503,-4.437386301491462
0.376,-0.7319886112613418,-0.5991789364449178,-3.313482483395929,-0.2546590585127746,0.0435562486218199,-4.096970157596852,0.7216761981129417,0.8518165726382676,-4.084937051639924
0.378,-0.7021345040002391,-0.6029826578639432,-2.811893425490941,-0.2347563207471608,0.03483591843019539,-4.206681811097336,0.7465546204971907,0.8454003628440497,-3.731770844689165
0.38,-0.6708464419859357,-0.6060792951476396,-2.344939755815992,-0.21389761752419548,0.025597231547808283,-4.317660839763367,0.7726279954545887,0.840274539361633,-3.3406990280387765
0.382,-0.6383862955446726,-0.6083870856780108,-1.9028910562826844,-0.1922575299806498,0.016393416178909527,-4.406235137326902,0.7996780977912088,0.8354787797548232,-2.950837570459197
0.384,-0.6047150040674036,-0.60954082,-1.3947770408448688,-0.1698100157328816,0.007185132100238663,-4.4724478684558475,0.8277374789261769,0.8318069530584725,-2.6416032616175418
0.386,-0.5702006494298864,-0.6095387280118025,-0.9326204332628756,-0.14680041695959356,-0.001597024876609442,-4.428630064213997,0.8564994702957561,0.8284393528334526,-2.301956620938603
0.388,-0.5346204406607845,-0.6087713274738725,-0.40520888007086614,-0.12308027847084774,-0.010380629876879027,-4.451934521929134,0.8861496438596638,0.8256372902827488,-1.9784803605569077
0.39,-0.498402528985096,-0.6064777888234032,0.07879065885653003,-0.09893502050721355,-0.022213197262392754,-4.934797442897641,0.9163312468384405,0.8239550275674452,-1.574197121196616
0.392,-0.46160324551645204,-0.6034250088085233,0.5839749619262267,-0.074402172981402,-0.033268151017309296,-5.132008132502566,0.9469972716402003,0.822837234,-1.1863753571397875
0.394,-0.42436592413548846,-0.5996016628653215,1.0680449207097606,-0.0495772907051343,-0.043585255364617555,-5.176325993484749,0.9780283695464701,0.8228398004736039,-0.7498266314386438
0.396,-0.38695186708003815,-0.5950970628221492,1.522221291209057,-0.02463458368806575,-0.05447231255466917,-5.284462688204599,1.0092067929558124,0.8233917897194979,-0.3999720639346551
0.398,-0.34930715384810124,-0.5896550805726457,2.003623548362831,0.0004618934652495821,-0.06465934123730546,-5.285713196,1.040577329884404,0.8249834747294105,-0.015370986432238998
0.4,-0.31156836208598043,-0.5824790570230263,2.471080629157895,0.025621089656436592,-0.07630559679605263,-5.307621177430922,1.072026380952233,0.8267585710230263,0.31411482732565793
0.402,-0.27398794137584936,-0.574797130896765,2.9796703049562323,0.05067470577851949,-0.08591411848596575,-5.241364348191247,1.1033433844011205,0.8292985500934824,0.6555882278030448
0.404,-0.2367701055369511,-0.5664223221236979,3.440218131223958,0.07548659767832917,-0.09580985733984375,-5.131723369083334,1.134358300045341,0.8320982248828125,0.9619180840859375
0.406,-0.2000600694756447,-0.556952364448982,3.942121144911458,0.09995995673638969,-0.10565762848615057,-5.022613853719697,1.164949908495702,0.8357187013401989,1.2507368157990055
0.408,-0.16382398956502028,-0.5461907556907438,4.3636852701638364,0.1241173457479122,-0.11489218546197082,-4.911736927613011,1.1951467339294917,0.8396781959623295,1.5118349200957906
0.41,-0.12835380143985764,-0.5350901637526683,4.826287895457076,0.14776412848493475,-0.1240734767638051,-4.757539844941995,1.2247052106064056,0.8447470323445476,1.884487479186775
0.412,-0.09394785506556987,-0.5235828767392111,5.211243750890952,0.17070143099690033,-0.13261114125939677,-4.629218751582367,1.253376773835956,0.8504795637807424,2.2147188792447796
0.414,-0.06037696826247756,-0.510576909353068,5.630306954049616,0.19308202443303413,-0.14105097723418025,-4.431912350696669,1.2813525629181328,0.856948972392977,2.539788478969079
0.416,-0.02783485023023727,-0.4969846554290822,5.967510145864839,0.21477676645594374,-0.14883341839630512,-4.208483341583314,1.3084709821963754,0.8640815959393325,2.9012750403000003
0.418,0.003316147457163256,-0.483633691477327,6.275104528491647,0.23554409571751547,-0.15607994563245825,-4.010706892168973,1.3344300811523084,0.8713751527556086,3.2244690132090694
0.42,0.033017914243823845,-0.46950338662428776,6.539172035503562,0.25534527732199547,-0.16295368523112536,-3.81274834027208,1.3591815589904523,0.879800224579772,3.564153767237536
0.422,0.06128777073664122,-0.45506948569693734,6.823668032640313,0.2741918557729007,-0.16979079640633904,-3.637676509519943,1.382739810509542,0.8887376704430199,3.885978255258903
0.424,0.08791912199177299,-0.4397948568303103,7.087724680022673,0.2919460724477167,-0.17552192538663486,-3.3957762780338903,1.4049325602053178,0.8985645214787589,4.225678646847017
0.426,0.11281184183206197,-0.42449270162446406,7.308138485701406,0.3085412392057211,-0.18087664006943782,-3.1312879504344924,1.4256765272311085,0.9086908745384706,4.533557020241544
0.428,0.13586589616280453,-0.4084865814893195,7.527681247027897,0.32391059355306,-0.18583011425294738,-2.8458761922876152,1.444888306099465,0.9193398207538228,4.824141626824443
0.43,0.1569515185595849,-0.39279774336722306,7.721371165587254,0.33796769499093404,-0.18993909580576632,-2.58761923115478,1.462459566245974,0.930326384955994,5.093158983074355
0.432,0.1761103815380856,-0.3762786174254297,7.855526917498137,0.3507402500253904,-0.1934130150157433,-2.3002056519299363,1.4784253265051854,0.9421846909865401,5.322047681782357
0.434,0.1931819807377714,-0.35945334945559937,7.987749032761922,0.3621213163557624,-0.19647767900633442,-1.9701854830766106,1.4926516460298258,0.9537193305098601,5.532898154842596
0.436,0.20811922161138172,-0.3434049850309106,8.076188921269841,0.3720794866774385,-0.19839827258897244,-1.6837071005764412,1.505099400229773,0.9660678619122808,5.727210730875522
0.438,0.22080745675699592,-0.32707626348201785,8.098620733297091,0.38053829067519734,-0.1999207058966172,-1.3558371442153114,1.515672826940684,0.9783558427891988,5.904335215445222
0.44,0.231311949802795,-0.31098525070807903,8.12068807901939,0.3875412959916388,-0.20069635897725913,-1.0030724676689409,1.5244266785917344,0.9907471400099341,6.018727398852184
0.442,0.23949957935939922,-0.29439562569089184,8.076792872565015,0.3929997054553582,-0.20070189250385942,-0.6253293341569885,1.5312496821090715,1.003794235763686,6.1329821764165775
0.444,0.24534493901256668,-0.2788148000465503,8.033003153281795,0.39689662167504447,-0.20032187209891938,-0.27501917591604325,1.5361207841764077,1.016089074866168,6.181278460323358
0.446,0.24883521006979253,-0.2633313421982535,7.946007555,0.39922346921381463,-0.19881224206891668,0.0731055954075997,1.5390293576704641,1.02858441696861,6.197302383336795
0.448,0.24997401930971974,-0.24785028150734328,7.812653922956537,0.399982685313059,-0.19687776071856716,0.4297113509245373,1.5399783126280262,1.0411074928505075,6.213695689753075
0.45,0.24873663390878778,-0.23295255972295295,7.658444017084845,0.39915775160585854,-0.1938190763628392,0.7602593136650078,1.5389472114103357,1.0537489083624838,6.2295517692977835
0.452,0.24514373910260995,-0.2189234781445669,7.483683369821424,0.3967624881896079,-0.19040659663016946,1.1534717172483706,1.5359531179309973,1.0660159413976775,6.181364718084133
0.454,0.2391998313981879,-0.20520172273677942,7.264129376205336,0.39279987348927037,-0.1862146717252263,1.4829277161919963,1.5309998932689557,1.0780673318121723,6.14905505137768
0.456,0.23092801955620454,-0.19146229374358975,7.066192719767083,0.38728534248611274,-0.18125457468467504,1.8566532536638043,1.524106734816307,1.0898547584634466,6.05216396128384
0.458,0.22036606982955897,-0.17886833422048654,6.802479549807179,0.3802440329725864,-0.17591322459837824,2.1645066620422133,1.5153050049253873,1.101358111743859,5.9713219925510375
0.46,0.20755369153902992,-0.16667975518519398,6.539150352619139,0.3717024668105112,-0.1694385369395382,2.537481474778386,1.5046281261007033,1.1125606972730302,5.8100554461354434
0.462,0.1925448348295129,-0.1552037,6.208789825,0.3616965522196753,-0.162555099,2.846153259,1.4921206903223496,1.123529315,5.664188862
0.464,0.17536067455575433,-0.14486250828064093,5.855579736471482,0.35024044582647584,-0.15489217772473993,3.1772029140590696,1.4778005700327967,1.133949358149707,5.501774294678823
0.466,0.15611937042918456,-0.13492486825065458,5.480484963487385,0.3374129294871245,-0.14685114063746726,3.5075675198284935,1.4617661108240343,1.143792715961914,5.306901565377053
0.468,0.13488964580793994,-0.12654764088462453,5.063470854097854,0.32325975989914163,-0.13808974901179977,3.7929338239036947,1.4440747645847638,1.1530320392834326,5.064990071285935
0.47,0.11174345127890345,-0.11854403755043467,4.623965317068596,0.30782897871036946,-0.12893351931487437,4.100344629537573,1.4247861994851012,1.1620020625949743,4.838418565988805
0.472,0.08678444628283911,-0.11169008642343732,4.184691409077571,0.29118962193235676,-0.11940549227197249,4.3636010848964535,1.4039869974024055,1.1701237558437907,4.547921926192742
0.474,0.06012440723113431,-0.10599654545629225,3.7035834103138416,0.2734162803165638,-0.10953668899027398,4.582286193608588,1.381770341015662,1.177380885615704,4.274564591055035
0.476,0.03195386512479142,-0.10151172876226063,3.251457190980383,0.2546359110215733,-0.09944667101120971,4.7975771201858946,1.3582948505227652,1.1842501905572163,3.973808818786081
0.478,0.002153614240654485,-0.09767643773990925,2.7462837986713637,0.23476907353803894,-0.08801293723955099,5.0391642800279435,1.3334613044850114,1.1907210598189635,3.6822368024134224
0.48,-0.0291045918969183,-0.09460086509695159,2.282561676104483,0.21393027213043478,-0.07691124946371787,5.216795282290257,1.3074128657926423,1.1963634687274356,3.3746361343304243
0.482,-0.06163662731600286,-0.09265045925129753,1.8153035474406758,0.19224225174147389,-0.06571157384743512,5.3510454015172,1.2803028461872168,1.2014844108366929,3.0798733055834644
0.484,-0.09524992864501133,-0.09150180700978171,1.353467093715615,0.16983338179961854,-0.055021728763211264,5.417323917327209,1.2522917128943853,1.2056983785153288,2.72441175432888
0.486,-0.12985485200354693,-0.091497302,0.8689999588567674,0.14676342819650037,-0.04431671727224943,5.417583466,1.2234543367507684,1.2093548998469719,2.368122353911719
0.488,-0.16504068869217872,-0.092240968661234,0.37540639655215374,0.12330621317199665,-0.034258082896507565,5.28904449385681,1.1941328170814467,1.2115486253559953,1.9579302208507567
0.49,-0.20141961287082885,-0.09451077992515944,-0.09118072650439174,0.09905359439074274,-0.02424556035218385,5.156052184056792,1.1638169553616793,1.2132601591738659,1.5659572974247384
0.492,-0.238334696651246,-0.09683234276904475,-0.5154734316287788,0.07444353687182545,-0.01190217023579202,5.438868974010883,1.1330544749823537,1.2138479492914147,1.0919544007351873
0.494,-0.27556761141499175,-0.1002661896830549,-0.9993076133274463,0.0496215923422795,-0.00044494472124105046,5.615131372518855,1.1020269918011352,1.2135692086692123,0.6551174898692125
0.496,-0.3127947543625045,-0.10470631959842701,-1.4258840610975019,0.024803494737579316,0.009920276021512839,5.530208553951191,1.0710043869591763,1.2130252621673605,0.29437065861392553
0.498,-0.3506272974034499,-0.11057030376007389,-1.9340244252151022,-0.0004182022967177767,0.02133901403763999,5.630486587062233,1.0394772101572831,1.2119560239378826,0.025273139952084023
0.5,-0.38848043785392056,-0.11746638716139429,-2.4305847337598183,-0.025653630952738992,0.03280106382595201,5.549198057170944,1.0079329841621913,1.210196502983407,-0.31574216043070313
0.502,-0.42604301084862933,-0.1251106185492438,-2.9585768543535784,-0.050695348595947556,0.04349538499023461,5.483056029123378,0.9766307963909415,1.2085081775357867,-0.47816730659545076
0.504,-0.46325137932365884,-0.13350125680783428,-3.4417580047122276,-0.0755009286960866,0.053782427807834265,5.394962075590547,0.9456238279181635,1.2062630827402072,-0.7526654554524348
0.506,-0.4999491035902031,-0.14340889901075138,-3.9684774090946124,-0.09996606972162485,0.06368893075319555,5.241362619698244,0.9150424354480288,1.2031788373897983,-1.043306009536495
0.508,-0.5362051851631096,-0.1537351164898081,-4.45253068855537,-0.12413677443460117,0.07362145431910837,5.108569571263082,0.8848290232123525,1.1992384145435688,-1.367488367506735
0.51,-0.5716561840436333,-0.16518045538118814,-4.848220503881189,-0.14777077403257638,0.08239193874257425,4.845065239356436,0.8552865241230532,1.1941884379752477,-1.7551547578663367
0.512,-0.6061380537661318,-0.17687359909040545,-5.261128058840406,-0.1707587158912656,0.09031310070579916,4.62774626816926,0.8265516041204991,1.1889187428645684,-2.1067007696210514
0.514,-0.6395996078622711,-0.18942222799298536,-5.633987422837951,-0.1930664044061266,0.098301624543455,4.386801311560575,0.7986670051104464,1.182770339654619,-2.4612362246303654
0.516,-0.6721392997168754,-0.20246335775086918,-5.944020213974943,-0.21475952238163387,0.1059777927951085,4.165574665933101,0.7715506146054859,1.1757258724969428,-2.8026744776607124
0.518,-0.7032960182326856,-0.2162184881523946,-6.274215013351607,-0.23553066348146381,0.11247832035017317,3.8795634799679926,0.7455866921429253,1.1681400115907083,-3.1749228324146666
0.52,-0.7330476703705293,-0.23032895871648193,-6.581866498844477,-0.2553650987529804,0.11896178124883805,3.6377956049671076,0.7207936472107773,1.160008547018949,-3.4981307097904897
0.522,-0.761290591765884,-0.2452031374738975,-6.867588673465316,-0.2741937515372511,0.12468450787413587,3.3741296634219307,0.6972578037662416,1.1513153431120382,-3.8374263120143026
0.524,-0.78790438173548,-0.26008494348080136,-7.087546601534224,-0.29193624870721524,0.13002708018030049,3.088390496632721,0.6750797024742993,1.1417779391068448,-4.128472607749583
0.526,-0.8128034735805529,-0.27573138833571853,-7.351335704040549,-0.3085356533727359,0.13460817368336317,2.8464415836917114,0.6543304393798856,1.131676318626118,-4.484061145512821
0.528,-0.8358558139393939,-0.2913865676866722,-7.571377758805632,-0.3239038796402852,0.1384274196797518,2.4945907511468794,0.6351201279721925,1.1210073637193652,-4.791458290976614
0.53,-0.8569405427013855,-0.3074095405296378,-7.743137840311401,-0.33796036630148113,0.14178212646582042,2.194015681923838,0.6175495776548017,1.1100478220139747,-5.059826836646675
0.532,-0.8761249998788783,-0.3244934582595383,-7.922179354799027,-0.35075001318735083,0.1445191727708384,1.880690119197084,0.6015624525547733,1.0983436489475091,-5.2752683724439855
0.534,-0.8932086978130964,-0.3405835894061041,-8.01089544262693,-0.3621391259664838,0.14643809340610411,1.5717616490883304,0.587326076131083,1.0865170300754041,-5.518483828088689
0.536,-0.9081397434632983,-0.3569884015574631,-8.120775320148306,-0.37209317566539557,0.1475834665264664,1.2640301856399618,0.574883529113918,1.0744538910085837,-5.712483942304244
0.538,-0.9208551301930117,-0.3733662467639848,-8.142801669900619,-0.3805700710127169,0.14834559010652226,0.8910438604285884,0.564287373702163,1.062131614703047,-5.873867958734349
0.54,-0.9312983624669376,-0.3893574865578822,-8.120979485227007,-0.38753223578536405,0.14796775167102916,0.5619305398844736,0.5555846896537128,1.0498149479160024,-6.019058216837834
0.542,-0.9394968001883868,-0.40581742628197154,-8.120880127,-0.3929978508810063,0.1475849230857758,0.2310856223788731,0.5487526778216287,1.0371489921416437,-6.116583534689436
0.544,-0.9453437371007476,-0.42143800301166806,-8.077022807835814,-0.3968958279780468,0.14606213080390523,-0.09815407018347422,0.5438801922173965,1.0242627695830455,-6.213420387899631
0.546,-0.9488356046599458,-0.43677900399649244,-7.969384592251841,-0.3992237206073576,0.14381883157453526,-0.42151617522307966,0.540970370118736,1.011881524854437,-6.292712394270782
0.548,-0.94999310553712,-0.4523032034345562,-7.860316556567574,-0.3999954175150781,0.14154620686011835,-0.7273783981521893,0.5400057565610996,0.9988089589867456,-6.325828906911953
0.55,-0.9487403174798998,-0.46806406450488214,-7.724723562128602,-0.39916019574698797,0.1380332338340081,-1.0450559239957131,0.5410497751160682,0.9857613042957847,-6.342805797452489
0.552,-0.9451387154186046,-0.4821634491201147,-7.570933746882394,-0.3967591468378056,0.13422163120760128,-1.352422496038365,0.5440510430447227,0.9734335021272857,-6.310478602893869
0.554,-0.9391882029504408,-0.4963090153015798,-7.372530289157263,-0.3927921192058613,0.13001125642855443,-1.6607652469921605,0.5490098425746962,0.9613424252033496,-6.2616365359982185
0.556,-0.9309204465835221,-0.5096134107304472,-7.153468262083472,-0.3872802918302134,0.12506867850131548,-1.9454946606474528,0.5558996189767497,0.9493245089528821,-6.165020076368093
0.558,-0.9203527113392858,-0.5226209694732618,-6.888794608770158,-0.3802351255535714,0.11932674376106717,-2.253960810813009,0.5647060558839285,0.9375070758283556,-6.067675010643725
0.56,-0.9075572110904648,-0.5347083943378586,-6.6058808691823865,-0.37170482097437424,0.11328303083366781,-2.515113407826349,0.5753689729469607,0.9261195761423681,-5.955660936786566
0.562,-0.892546590445474,-0.5458000619268905,-6.275750810032254,-0.36169772103896414,0.10640619994182296,-2.8451293169677454,0.5878778316550249,0.9151545788534226,-5.777863446948633
0.564,-0.8754580728105263,-0.5564508243563532,-5.903365101607751,-0.3503053953818182,0.09956004277178176,-3.0646009115351243,0.6021182256777512,0.9045265334294544,-5.6166879957966245
0.566,-0.8561647495299308,-0.5660134024469127,-5.507146841872327,-0.3374431706730265,0.09192091565054342,-3.3066828983109993,0.6181960721750537,0.8944056755874836,-5.406503511551295
0.568,-0.8349303753053234,-0.5744205652160163,-5.089159424358754,-0.3232869205507281,0.08390206161117078,-3.54872860449445,0.6358913261950346,0.8845755112131519,-5.228390839148943
0.57,-0.8117611576375775,-0.5820982913562247,-4.6250313779338255,-0.30784077586504527,0.07545790306189003,-3.7917751865088074,0.655199037066762,0.8755425336511545,-5.000836075276601
0.572,-0.786794940586375,-0.5893324492710736,-4.208021603659137,-0.2911966217247652,0.06707666421543217,-3.9673992068954944,0.6760042358876471,0.8668621584421591,-4.758753310085008
0.574,-0.7601807431075783,-0.5950388482543099,-3.747747274576269,-0.27345385229715513,0.0575659995757936,-4.186578183424325,0.6981826779304328,0.8590298287871835,-4.484779112731067
0.576,-0.7317973833375864,-0.6000186438620525,-3.3058471165398564,-0.25453157323241116,0.04836556053031026,-4.341079722623866,0.7218355547150012,0.8517050513212411,-4.159798158987113
0.578,-0.7019734420861905,-0.6038335830990649,-2.821617146455557,-0.23464894616190476,0.03919896956906143,-4.450976673586223,0.7466888387080952,0.845532593619955,-3.7714705593809916
0.58,-0.6708184944410822,-0.6068633080492366,-2.2979519446314356,-0.21387898583624065,0.029731079844360277,-4.538251683079891,0.7726512850585023,0.8405201744049,-3.3703802092287845
0.582,-0.6384955602762431,-0.6087627325430298,-1.8606344541312232,-0.1923303730883978,0.020625943583926033,-4.582067422732575,0.7995870439447514,0.8357777221384542,-2.968625356834045
0.584,-0.6046382218588978,-0.60992229,-1.3892062368625744,-0.1697588275280296,0.010894409410846247,-4.604687569497139,0.8278014641661499,0.8314879465728248,-2.6698283030829555
0.586,-0.5700083193672982,-0.6099123757820696,-0.9058033063208154,-0.14667219691967584,0.0017313762578683835,-4.627801284354316,0.8566597453442975,0.828130094558536,-2.314805031081545
0.588,-0.534534125432455,-0.6091343460338458,-0.42165504488189726,-0.12302273502503876,-0.008222978231676796,-4.74317807413002,0.8862215732432336,0.8253395469013228,-1.990714653691455
0.59,-0.49832270219192404,-0.6072138550249999,0.1049437996625,-0.0988818026631829,-0.0207799674,-5.26428618445,0.9163977690669834,0.823668154025,-1.602698810575
0.592,-0.4616614928682392,-0.6042230608822431,0.5788014559214953,-0.07444100455134621,-0.03124774591962617,-5.30736483235701,0.9469487321871575,0.8228435251252336,-1.1909231442168222
0.594,-0.424448339825465,-0.6004087740232809,1.0848356302482092,-0.04963223450357654,-0.0423228686282235,-5.395067913208095,0.9779596897067239,0.822837234,-0.7701735789717049
0.596,-0.3869194679220036,-0.59546187484816,1.5897947215587709,-0.024612984247942758,-0.053753493464451595,-5.482888514986424,1.0092337922028622,0.8231156691486246,-0.44671886786352266
0.598,-0.3492249693646693,-0.5897249301143677,2.0313890571020456,0.000516683124506638,-0.06447809092176097,-5.439717695425649,1.0406458170833632,0.8239561519054911,-0.10625958877425529
0.6,-0.3114348832830729,-0.5827459747090346,2.544023158167323,0.025710075533341287,-0.07570779702422722,-5.482456988403628,1.0721376132334486,0.8262301562797469,0.30286156843716433
0.602,-0.27389041782121576,-0.5750975538080543,3.0063946566094364,0.050739721485101315,-0.08639137139664005,-5.394149851246992,1.1034246541758046,0.8284841401259383,0.6255911399109972
0.604,-0.23667668517415663,-0.5666896789459943,3.4894041984430135,0.07554887792442484,-0.09630493188447783,-5.284311404358607,1.134436150113601,0.8312984933082976,0.8850668898739866
0.606,-0.19991132600166667,-0.5567658769000238,3.950930844841228,0.10005911906333334,-0.10622294621744822,-5.17414388437741,1.1650738617783334,0.8349483627267318,1.2238073763433706
0.608,-0.16377986389544427,-0.5464755811636023,4.411190213234219,0.12414676284893542,-0.11611657612718118,-5.042263163645509,1.1951835053054596,0.838880864561307,1.5147262178150838
0.61,-0.1284123098863474,-0.5356085848263263,4.821389312006909,0.14772512284548486,-0.12510995122075183,-4.891136982183043,1.2246564536708362,0.8438404535000587,1.848090039144045
0.612,-0.0938596892844879,-0.5233860311294791,5.217889842916388,0.17076020819041374,-0.1342825966493072,-4.736998328707597,1.253450245454513,0.8494571642718586,2.1881018107353083
0.614,-0.06029321791763589,-0.5108409080892241,5.59038818867732,0.19313785798765726,-0.14265087227385054,-4.561860519031365,1.2814223548433419,0.8558838658209575,2.542377914812522
0.616,-0.028009496739276704,-0.4974776672984362,5.9644911008844455,0.21466033546485644,-0.1506750283157455,-4.363982489281485,1.3083254438160519,0.8629005838423063,2.898355131537424
0.618,0.003374188924892704,-0.4838607690366361,6.300237795081836,0.2355827900364807,-0.15844859348400145,-4.162389927440942,1.334478449051502,0.8706257015528726,3.2124189251304864
0.62,0.033122280669291335,-0.46976985494394646,6.585319121060476,0.2554148549685039,-0.16567274638066212,-3.9648006505775073,1.3592685311574804,0.8790275942046134,3.582957568768137
0.622,0.06137941868704564,-0.4548538367461245,6.870937796917005,0.2742529543434632,-0.17217553927641308,-3.7444491660829957,1.3828161836479562,0.888037424868829,3.922792698027427
0.624,0.08798357384500001,-0.43996056369913084,7.090791926677819,0.2919890404041666,-0.17865272147624717,-3.5240193435885225,1.4049862701683333,0.8978623593068222,4.229731286250625
0.626,0.11283305655194573,-0.4243435131858065,7.3099905095767745,0.3085553823376175,-0.18435298664387098,-3.260418765304516,1.4256942062290847,0.907951573927742,4.520559485396129
0.628,0.13585704666348905,-0.4089527644760117,7.504634678572317,0.32390469387821735,-0.18885759525431084,-2.979263574542757,1.4448809315562439,0.9184402751886217,4.8386093033165976
0.63,0.1569951964396706,-0.39293191678540773,7.680565567570816,0.33799681353061223,-0.19343545348927038,-2.671650620879828,1.462495964575367,0.9296580628669529,5.097468726051503
0.632,0.17615760962168933,-0.3764393598038558,7.813397187505209,0.35077173541445955,-0.19689198236115435,-2.362294435481499,1.4784646832015031,0.9412205037643396,5.325072564715004
0.634,0.1932352350727056,-0.35996217176025685,7.989511682261505,0.36215681928247917,-0.19995314996753477,-2.0749160907249373,1.4926960248438617,0.9530582383938637,5.5360138148383875
0.636,0.20815209726934542,-0.3435997050986622,8.07706513211646,0.3721014037312507,-0.2022350552656474,-1.7242099345914956,1.5051267963371886,0.9653692703537984,5.729404102923077
0.638,0.22087134663755198,-0.3271652645297272,8.120992853127769,0.38058088399168155,-0.2041401654250408,-1.393686698862672,1.515726069174094,0.9777344547778037,5.907090210171601
0.64,0.23131064126081774,-0.3111225469815808,8.142485114169853,0.38754042363201807,-0.204886295485661,-1.0282921474752857,1.5244255881434021,0.9898048488004196,6.001917210979949
0.642,0.23948698216601075,-0.2946406106124161,8.099431915839046,0.39299130730506854,-0.204899192,-0.7180112354917306,1.5312391845162792,1.0024829310535714,6.099343607717042
0.644,0.24533945344235125,-0.2785354827781505,8.033440499196454,0.3968929646282342,-0.20452046375850505,-0.3433454810253953,1.536116212843925,1.0151671154168664,6.164694620649257
0.646,0.24883976732919846,-0.2632507939884207,7.945567337855318,0.3992265074265267,-0.2033800070481079,0.008933217888146106,1.5390331551755725,1.0275272635581951,6.197288775257133
0.648,0.2499755957868462,-0.2483684073319027,7.813941246600859,0.3999837363115692,-0.2010975926709585,0.3824787878569385,1.5399796262859526,1.040150171653791,6.213547250060086
0.65,0.2487448711670426,-0.23312984884914872,7.682230804888439,0.39916324311136175,-0.19843264689808313,0.7556634503770687,1.5389540758282083,1.0527573609039171,6.22968720626765
0.652,0.24517392334806629,-0.219036044281975,7.48528174502558,0.3967826110711026,-0.19501161458596072,1.1067521515520524,1.5359782713050685,1.0647980184997023,6.18175135994646
0.654,0.23917922281256707,-0.2050315631948052,7.283382632774455,0.3927861344589245,-0.19073222526891456,1.465269106991779,1.5309827194998213,1.0770918121578696,6.11581950598594
0.656,0.23090172469678188,-0.1913182183719156,7.063512493590654,0.38726781255399284,-0.1857684105101919,1.816707759361783,1.5240848221592371,1.0888633701858386,6.034742164699487
0.658,0.22033400451031357,-0.17873639821173104,6.820875372171674,0.380222656143317,-0.18004253752217453,2.168358378937053,1.515278284093478,1.1003608127195996,5.921622393246066
0.66,0.20751091750595804,-0.16690915532417255,6.491828186026885,0.37167395075893706,-0.17393039495411639,2.520054853209822,1.504592480911225,1.1115791817197993,5.808319220289043
0.662,0.19249936189117506,-0.15507810883667486,6.226482196267675,0.36166623692745004,-0.16703970451858366,2.8721534388923673,1.4920827962455994,1.1225338748060734,5.678180343525266
0.664,0.17538150911775924,-0.14494749086422792,5.880604151176573,0.35025433551203816,-0.1595355438589518,3.196411995268027,1.4778179322135876,1.132742465528667,5.503336202587407
0.666,0.15615720529509958,-0.13501186192190112,5.506474748379985,0.33743815276797423,-0.15151352197922138,3.504684808056126,1.4617976397099082,1.1425777253417722,5.309170935252926
0.668,0.13492780828544312,-0.12661353023891272,5.0889589556169526,0.3232852015243801,-0.14274063888733904,3.834337762042918,1.4441065667658084,1.152116384033977,5.082982955491059
0.67,0.11190087765706051,-0.11864057038647687,4.673401243116252,0.30793392976176753,-0.13363073316227758,4.096960140294187,1.4249173883419788,1.1607715542064059,4.84179488260261
0.672,0.08675823744073456,-0.1116605526997732,4.182405664163543,0.2911721493889816,-0.12355046748979348,4.386715741511758,1.4039651567445741,1.1690420821666467,4.54665828087418
0.674,0.06005740334446166,-0.10593877323432657,3.719971161111323,0.2733716110398235,-0.1136140230340882,4.606806802962574,1.3817145043498271,1.1766207243499403,4.287194327645054
0.676,0.03174095914801573,-0.10099679849821173,3.2360340097218647,0.2544939736775116,-0.10331045897997138,4.826084264429661,1.358117428840901,1.1836230267190033,3.9803613820414876
0.678,0.001937183740546968,-0.0975722604482313,2.709350835002233,0.23462478655648036,-0.09262687513961687,5.002585478428605,1.333280946202378,1.1897869440840287,3.6895189301472557
0.68,-0.029188213415514776,-0.09493963075825597,2.2543195831091785,0.21387452445996188,-0.08172026614231989,5.240932495324951,1.3073431812225929,1.1953176996875072,3.402736461568457
0.682,-0.0616405495522833,-0.09302841471832497,1.7705566468070866,0.19223963691701443,-0.07026987330446194,5.373264860251491,1.2802995776510073,1.2006515653409688,3.095540957393701
0.684,-0.09525422432347681,-0.09188122898497138,1.308684375005725,0.169830518013354,-0.05881894885400764,5.461351476385258,1.2522881331699056,1.2048645289949904,2.739934802308206
0.686,-0.1298754132213193,-0.091878772,0.8259607700855749,0.14674972072358988,-0.048152636154010955,5.461540222,1.2234372024097753,1.208227017278981,2.3527569829295403
0.688,-0.16543990995827373,-0.09265682051527083,0.38004660165091864,0.12304006563185503,-0.037714379155690765,5.349909168665952,1.1938001316525988,1.2107804773246242,1.975636596342639
0.69,-0.20165459486668258,-0.09420033808870872,-0.08187606783235961,0.09889693971619366,-0.027771572672707762,5.178417515429117,1.163621137620558,1.2124558390250388,1.570774234087278
0.692,-0.23845877352366193,-0.09725245206222434,-0.5429895306898319,0.07436081895243772,-0.016317869761950175,5.420444360252473,1.132951077403147,1.2132852642763143,1.1184091521478126
0.694,-0.2756931039800095,-0.10032481686003332,-0.9615181567216139,0.04953793062446454,-0.004123438456081885,5.68012999855225,1.1019224147148976,1.2130017319575102,0.6827881003965723
0.696,-0.3131561098031693,-0.10527944553362487,-1.4662002464406099,0.0245625910944835,0.006924876229169129,5.572038029163219,1.0707032568561896,1.2124338797048813,0.3116983515144782
0.698,-0.3508076852148642,-0.11057486546733968,-1.9673205099269595,-0.0005384608456407813,0.018270982252969123,5.6373373314127075,1.0393268872667938,1.2110433126662707,-0.05670524758254157
0.7,-0.3884487184323035,-0.11741604016983373,-2.44905703457981,-0.025632484669688656,0.02929287488456057,5.593542410453919,1.0079594170512944,1.209366630535392,-0.2982171459707838
0.702,-0.42598620218130046,-0.12504934191301756,-2.9768277295070993,-0.050657476149027054,0.03998397248049159,5.505692466797638,0.9766781369404366,1.2074023893093901,-0.573068377283737
0.704,-0.46304259993085234,-0.13377687472794117,-3.501614710801471,-0.0753617424815126,0.050232137036764705,5.4182298608382355,0.9457978104863145,1.2051705600955882,-0.7661893467205882
0.706,-0.5000685566589554,-0.14387378972833473,-4.015863080662177,-0.1000457050457906,0.06071327681678389,5.262518490584456,0.9149428911872168,1.2020250338984384,-1.0299410494771726
0.708,-0.5362559273011804,-0.15418484030407822,-4.455613440499643,-0.12417060252617146,0.07024055045695206,5.151194470147627,0.8847867380982474,1.1980924590579538,-1.3692696439274983
0.71,-0.5717075178947681,-0.16563726791181027,-4.9160677493775475,-0.14780499664402336,0.07901312490394471,4.9091005510120365,0.855243745869503,1.1935903089920152,-1.7094856534870695
0.712,-0.6062624374179353,-0.17746513192238944,-5.267540990159454,-0.17084163827271645,0.0873980520385701,4.645734334861241,0.8264479511872027,1.1879771928339604,-2.112768012120414
0.714,-0.6397478520929124,-0.18988339801940263,-5.614432081710136,-0.1931652338475283,0.09530058474035748,4.407247179784689,0.798543468340679,1.1818897727915099,-2.4634871284698967
0.716,-0.6721427092114675,-0.20284202319795142,-5.943875147380419,-0.2147617953775182,0.10330449213744641,4.20949660262506,0.7715477733610681,1.1751653884111481,-2.8026011006950933
0.718,-0.7032858803408495,-0.2162079373812366,-6.230088046044163,-0.2355239048870198,0.11018317936715206,3.9456826945163526,0.7455951403860653,1.1673056232076866,-3.1584919044974935
0.72,-0.733058703941819,-0.23034407820537312,-6.516278616949134,-0.2553724544827832,0.11667991004059701,3.6815091329810152,0.7207844525374021,1.159158335604776,-3.4823150174700896
0.722,-0.7611939884227409,-0.24476579079682126,-6.822388508962045,-0.27412934941843203,0.1223733461283359,3.440965019718183,0.6973383063395572,1.1505077987614756,-3.8038738426812952
0.724,-0.7879156991336669,-0.2601006389544638,-7.087755492194129,-0.29194379364403145,0.1277439781342121,3.1540179292540445,0.6750702713002144,1.1409262340461355,-4.14491680795027
0.726,-0.8127903990119332,-0.2757295475099464,-7.351304662779631,-0.3085269369940334,0.13231881690506256,2.8465564309240023,0.654341334870525,1.1308360091092318,-4.467902594033592
0.728,-0.8358703187512461,-0.29180749082046464,-7.593847684564187,-0.32391354951530976,0.13614716646280214,2.5157972971246187,0.6351080406698315,1.120418925325041,-4.759859127218846
0.73,-0.856931215582617,-0.30757917307721194,-7.788564129614879,-0.33795414821776504,0.13952681322318705,2.2129058842522884,0.6175573502925024,1.1093742880497537,-5.046206700686928
0.732,-0.8761090903530888,-0.3244183959114303,-7.921813994883303,-0.3507394068554188,0.14221840358767204,1.925812363764213,0.6015757104562075,1.0975562628096946,-5.274174188956913
0.734,-0.8932142819283839,-0.34066344815933214,-8.03321823752582,-0.3621428487175937,0.1441571532710793,1.5922324144607036,0.5873214226982573,1.0858973085019676,-5.503387635913655
0.736,-0.9081521063707745,-0.35707378090363723,-8.09908671431743,-0.3721014175746649,0.14568045248181388,1.2843116704558337,0.5748732266910213,1.0738301125767595,-5.713287221575815
0.738,-0.9208176083685092,-0.37332201345111005,-8.142628197278697,-0.38054505642617853,0.1464361837444497,0.9577562186650921,0.5643186418559464,1.0618829389617384,-5.8573570807406705
0.74,-0.9313233861839313,-0.3897858820471405,-8.142856598,-0.3875489182308976,0.146440148,0.6268860583338121,0.5555638366196209,1.049217783392199,-6.003330029851161
0.742,-0.9394968001883868,-0.40581211164504594,-8.098957492642661,-0.3929978508810063,0.1456782096353881,0.27518807113020155,0.5487526778216287,1.036592467741624,-6.116527967953738
0.744,-0.9453438974869782,-0.4214528734076061,-8.011105427534812,-0.39689593490129627,0.14415333103350023,-0.0764622168505007,0.5438800585653466,1.0239696335482833,-6.21351257845887
0.746,-0.948838369940489,-0.4373061319575372,-7.9675518662665725,-0.39922556419856886,0.14264344910096718,-0.3592665117891012,0.5409680656478235,1.0114798428445388,-6.277516866111111
0.748,-0.9499772228922727,-0.45261800450077727,-7.858128903470765,-0.3999848286782515,0.13997816489501375,-0.6893500145787397,0.540018992503165,0.9982660136934114,-6.310310424106541
0.75,-0.9487412440997379,-0.4680638017114428,-7.724726426506041,-0.3991608134883222,0.13688889585927505,-0.9791169535451315,0.5410490029510249,0.9857605372807391,-6.326647341231698
0.752,-0.9451465091147931,-0.4820895697545605,-7.571849346878701,-0.39676434266169985,0.13309814704122247,-1.2848749038487324,0.5440445482443677,0.9732176626181,-6.294529280622364
0.754,-0.9392032590322159,-0.4962137778415653,-7.374027885264495,-0.3928021565741797,0.12890009747947984,-1.5708507274543069,0.5489972958780314,0.9608666268429968,-6.246059038018491
0.756,-0.9309612836900634,-0.509531305874465,-7.1548918193071795,-0.38730751660803536,0.12395606210318592,-1.9432764823837376,0.5558655880908765,0.948837769253923,-6.165543445099857
0.758,-0.9203675625840982,-0.5225492509681743,-6.912375743106724,-0.3802450263485517,0.1182172811904762,-2.252378439524527,0.5646936798465848,0.9370131189487916,-6.084454413624551
0.76,-0.9075559330855418,-0.5347528901569352,-6.604873460332579,-0.37170396896935637,0.1124972529892755,-2.494132326550286,0.5753700379518457,0.925796723343184,-5.939139604613323
0.762,-0.892668342900119,-0.5458099983638875,-6.2864194457540306,-0.3617788891997622,0.10586547017457393,-2.7700864916536156,0.5877763715571938,0.9152280898198987,-5.783042982760479
0.764,-0.8755757000482451,-0.5565802138638165,-5.912182877520836,-0.3503838135975154,0.09858900089083704,-3.0148053601037588,0.6020202024912557,0.9042254049326288,-5.604819390877267
0.766,-0.8561212332674307,-0.5665119464621267,-5.4796751246839905,-0.33741415982999046,0.09105238787956989,-3.287937274800239,0.6182323356045845,0.8937147305219832,-5.387976282256989
0.768,-0.8348594037956848,-0.5749134420787655,-5.060957275424332,-0.32323960621301706,0.08302452377621544,-3.5302102066378693,0.6359504692108714,0.8841641128398475,-5.225299284010009
0.77,-0.8117136809758017,-0.5825317905985453,-4.621792668742697,-0.3078091247375134,0.07500715900870394,-3.7716407340048885,0.6552386009890332,0.8751945957504471,-4.998778771376296
0.772,-0.7867469558905413,-0.5893869345589671,-4.20313513531584,-0.2911646319821535,0.06623145001927883,-3.990976742700107,0.6760442230285544,0.8665068755482566,-4.73997831811365
0.774,-0.7601146122434773,-0.5950902570217316,-3.6994833337852273,-0.27340976496086333,0.05746870649034794,-4.166041074260663,0.6982377871674573,0.8586743288721534,-4.465374610102878
0.776,-0.731956014163758,-0.5998991739370015,-3.294546599548145,-0.2546373271147502,0.04822078867425731,-4.293913885611374,0.7217033623607458,0.8516023882961506,-4.151957121052826
0.778,-0.7020828929044918,-0.6041733161817412,-2.8271385787281753,-0.2347219133577217,0.038543507592202444,-4.427723575073375,0.7465976297273674,0.8453161981681802,-3.7437055588708077
0.78,-0.6718100813884001,-0.6067285696253549,-2.3663656286049077,-0.21454004354526512,0.029813763134045212,-4.511809499879245,0.7718249631087056,0.8404961396338748,-3.3891842306379645
0.782,-0.6387437607970996,-0.6087141087454545,-1.8520644182874924,-0.19249583999637462,0.02010915320585723,-4.5589703679244655,0.7993802103966163,0.835347661109701,-2.994546203152166
0.784,-0.6046867099738444,-0.6099258991173653,-1.391028590928503,-0.16979115297957723,0.01054744624,-4.582416534,0.8277610573618774,0.8315006326364072,-2.638999936192455
0.786,-0.57000790614129,-0.610293064155875,-0.905616094206368,-0.14667192143567426,0.001345093046572413,-4.583957108816443,0.8566600896992965,0.8281272209240822,-2.298311754410479
0.788,-0.534517181825149,-0.6095162090537635,-0.44464201534408604,-0.12301143929463647,-0.008193312225806451,-4.697978276516129,0.8862356929212157,0.8253404967849463,-1.9758142745698923
0.79,-0.4983166283146121,-0.6072180856053158,0.10504117968564036,-0.09887775341301762,-0.02077727338856874,-5.220617412269552,0.9164028306238696,0.8233910482896625,-1.61836287737328
0.792,-0.46158569315137066,-0.6045835982441492,0.5820753485174645,-0.07439047140405244,-0.030938868200635072,-5.285666671318358,0.9470118986090584,0.822837629817241,-1.1719418053125956
0.794,-0.42437653462371616,-0.6003875485106129,1.06570259757119,-0.04958436436461251,-0.042384768335082285,-5.3516187869902225,0.9780195274603174,0.8225568677944193,-0.7516536946124492
0.796,-0.3876335925784608,-0.5959822561608351,1.5098949994202133,-0.0250890673838396,-0.053399371282436624,-5.478494361571757,1.0086386894534758,0.8228265507374096,-0.44055723000803027
0.798,-0.3496907473604568,-0.5899157426848789,1.9942472333094896,0.00020616444004282656,-0.06414656483608915,-5.419866560009465,1.0402576680199858,0.8239203222417925,-0.1474353337070453
0.8,-0.3120974987072851,-0.583102848529321,2.4969812559197533,0.02526833187599857,-0.0751522483117284,-5.438712079322531,1.071585433984023,0.8258468581543209,0.28213200458950616
0.802,-0.27456170380285094,-0.5755023680907356,2.960248699894718,0.050292197473302734,-0.08584884761905329,-5.355035814818529,1.1028652481873642,0.8280801255752951,0.5786478193123882
0.804,-0.23686171077115134,-0.5664952425421746,3.458206034731437,0.07542552751804521,-0.09611001896071913,-5.286167878225341,1.1342819625796947,0.8309521370027091,0.862681437703608
0.806,-0.20034672006814086,-0.5573881629123785,3.917549575552763,0.099768856320274,-0.10597785104778279,-5.133708821711051,1.1647110322548972,0.8345742457206545,1.1839111929806734
0.808,-0.163880180282027,-0.5470381381957774,4.33825558368522,0.12407988528522378,-0.11557940243953935,-5.022609234823417,1.1950999083515272,0.8388010582898272,1.5251954244145873
0.81,-0.12866934136665875,-0.536241921017456,4.767278257990807,0.14755376848812635,-0.12452004120865821,-4.893992503270453,1.2244422612238184,0.8434532638758292,1.8408393769060862
0.812,-0.09421718821516246,-0.5240914198327182,5.184727600905822,0.17052187554512635,-0.13402771256721038,-4.741080716705322,1.2531523291342959,0.8492995222411001,2.1790965416345993
0.814,-0.06034361065560463,-0.5113354094753205,5.58665854629833,0.19310426283418886,-0.14220055506581175,-4.541833875880111,1.281380360912379,0.855825933489233,2.5391856601497698
0.816,-0.02787908257623479,-0.4982092382898865,5.943440433354333,0.21474727822906228,-0.1503113287871108,-4.363442899822834,1.3084341220035791,0.8626369863251268,2.883058838536085
0.818,0.0032925969908191247,-0.48443818679232425,6.296156775980631,0.23552839540372003,-0.1579656037820421,-4.1431981976633185,1.3344104557598664,0.8702293350517696,3.1911845984533715
0.82,0.033047575659792584,-0.47033105504516204,6.5818377536955435,0.25536505160770057,-0.16521070459711631,-3.945453799218422,1.3592062768785313,0.8789187955853194,3.610977179435176
0.822,0.06128504790967359,-0.45582045152028644,6.845901481696898,0.27419004055679524,-0.17170513417279237,-3.747442248246301,1.382737541491632,0.8879035852706444,3.9185818557045344
0.824,0.08779652349652362,-0.4406481674879089,7.108139242345187,0.29186434001426514,-0.177774324541963,-3.507098021067805,1.4048303946303045,0.8973863012759602,4.223883388644381
0.826,0.11282034676126877,-0.4248225575801836,7.330938278120901,0.30854690915263533,-0.18356290353845237,-3.2620072057521163,1.425683614698068,0.9076032130403004,4.534494088922857
0.828,0.13588751266539517,-0.4087970089647073,7.572273985014665,0.3239250045758732,-0.188519008627638,-2.932620260815548,1.4449063197550363,0.9182675723395731,4.825359796744247
0.83,0.1570268447080005,-0.3927734178162536,7.726134761745829,0.338017912342077,-0.19271352548510487,-2.6686067885083413,1.46252233820186,0.929490123585796,5.099845540639895
0.832,0.17616973754336218,-0.37675525052025033,7.87957662049935,0.3507798206955748,-0.19652271316023143,-2.361152166351399,1.4784747897926207,0.940988562588263,5.325996432098594
0.834,0.1931648264138756,-0.3605070006652497,7.966659683500531,0.36210988012799045,-0.19954564359617427,-2.0781378788034006,1.4926373506949762,0.9529365173368757,5.550104200737514
0.836,0.20813638991406808,-0.3440497728401914,8.076818212120573,0.3720909321856701,-0.20184524374354065,-1.7256096394047848,1.505113707005475,0.9650374272019139,5.728660704055502
0.838,0.22084101547171162,-0.32772428707853835,8.12062980972203,0.38056066318465026,-0.20336462369023608,-1.3974805269801873,1.5157007928862498,0.9773203657633172,5.92165091397473
0.84,0.2313205279350172,-0.3112173246803192,8.120867229284942,0.3875470147353255,-0.204517722,-1.0437633114226028,1.5244338270135183,0.9900208865467668,6.003613147329774
0.842,0.23946502076199616,-0.29544379051989206,8.099227442962446,0.39297666633181383,-0.204517722,-0.7192003216658843,1.531220883465451,1.002447590712123,6.099072131623753
0.844,0.24534668989119543,-0.2787054659664086,8.054114364841931,0.39689778892746364,-0.20374755801727218,-0.3384400279822513,1.5361222432495822,1.0156144802420488,6.165363261382251
0.846,0.24884285170337264,-0.2634593551104755,7.922594682479561,0.39922856370289594,-0.2025999167959719,0.013038388574305804,1.5390357253445357,1.027668653832201,6.197743604333453
0.848,0.24997346400619933,-0.24820521739513532,7.834356023029451,0.3999823151058655,-0.20068701482329795,0.3865769778132825,1.5399778499008108,1.040287152779063,6.245875923113389
0.85,0.24873666226580168,-0.2333309335793079,7.6803857130695645,0.39915777051053447,-0.1976330202520373,0.7599956748348884,1.5389472350413045,1.0526296176313923,6.22954113467202
0.852,0.2451451002947067,-0.2193465785751742,7.506178447082319,0.39676339565331425,-0.19423142094850598,1.0866286295210816,1.5359542522503575,1.0648575417369788,6.181507710173851
0.854,0.23919891316660707,-0.20519911259553114,7.329943067277333,0.39279926133607435,-0.19002839112295378,1.4829021821456567,1.5309991280782982,1.076948146654439,6.132913556281993
0.856,0.23093172817777513,-0.19186389851613286,7.088604327922729,0.38728781490413733,-0.18507693656411475,1.834158292312418,1.5241098253729581,1.0887145520351234,6.036151915284677
0.858,0.22036520510905178,-0.1788780406443914,6.846586004084726,0.3802434564936028,-0.17973174950357995,2.164246775823389,1.5153042843321776,1.1002278708466589,5.939087856061456
0.86,0.20750705058175312,-0.1668763646715973,6.534055264730765,0.37167137280679785,-0.17352182629201957,2.5211814850574976,1.5045892584597496,1.111614229317786,5.8079050135391865
0.862,0.192478214110939,-0.15543480301670246,6.203839422003818,0.36165213840729266,-0.16626776126485324,2.8727745679463137,1.4920651731133223,1.122549480913863,5.677845423216416
0.864,0.17532177373655336,-0.14476201665753424,5.851580169287076,0.3502145119889088,-0.15899691069624777,3.2020577137361528,1.4777681525979725,1.1326561275288862,5.499698389086956
0.866,0.15607982012616045,-0.1352440388981195,5.477652035910022,0.33738656257986194,-0.15061167275196383,3.488455312128065,1.4617331524149013,1.1427335142237562,5.305484014988812
0.868,0.13488220149577432,-0.12649364069577992,5.061050386351945,0.3232547970295203,-0.14222420151122606,3.838147108790643,1.444068560968575,1.1519705456147877,5.079225142276713
0.87,0.11177632246931966,-0.11859483650722934,4.670981093553074,0.30785089286500655,-0.13319699686516986,4.076525504294581,1.4248135921872989,1.160820733584695,4.824278534896439
0.872,0.08682504728138786,-0.11249340305955217,4.1222544062211774,0.291216689236795,-0.12328852434552168,4.383847251818723,1.404020831499821,1.1689494046992617,4.549814719802407
0.874,0.06013418954166667,-0.10638263373135219,3.703844867006206,0.2734228018596866,-0.11335852468779091,4.582156861425468,1.381778492954772,1.1765338887010381,4.274762326779926
0.876,0.031950259874789916,-0.10144727774747954,3.222876860589491,0.25463350752112845,-0.10273181618574309,4.844464042637766,1.358291846147179,1.1835111670131657,3.9853802660419877
0.878,0.0019274707996183207,-0.09756443979349905,2.751656455000717,0.23461831126335878,-0.0918315352834608,5.024970605363289,1.333272852105916,1.1898071954228011,3.6886669961747134
0.88,-0.02929684068657606,-0.09489376729149315,2.2673136699071983,0.21380210629041488,-0.08074193662641285,5.244227505036289,1.3072526585340964,1.1956939069613326,3.3968133382254613
0.882,-0.06176849360007152,-0.09262561945305052,1.8070059891165395,0.19215434087626654,-0.06970144935605338,5.3965303214389895,1.2801929574162594,1.2004448499018112,3.0896993611935177
0.884,-0.09537776011050185,-0.091497302,1.3669968747690473,0.16974816080414828,-0.058642691682723264,5.461540222,1.2521851868985576,1.204643059974246,2.7338534849284604
0.886,-0.1299850134242424,-0.09151288315539906,0.8829284525962441,0.14667665395151516,-0.04759151359906103,5.460044067288263,1.2233458689454544,1.2082738054384976,2.3462654366774647
0.888,-0.1653577372307509,-0.09263969619542253,0.36356521644014084,0.12309484745625746,-0.03744925592253521,5.351843706281691,1.19386860913969,1.2107593676760562,1.980291527765845
0.89,-0.20156220083418763,-0.094545876537196,-0.09812951318669527,0.09895853574204315,-0.027910295310681926,5.154176885129471,1.1636981324161402,1.2124439999921317,1.5601719333142585
0.892,-0.23834966763953902,-0.09721330302537828,-0.5593952322817826,0.07443355621242724,-0.01571498017228643,5.438913141965567,1.1330419991363907,1.213286402024187,1.1241299984432265
0.894,-0.2754638354375523,-0.10063502730464756,-1.0196174949457983,0.049690776333691886,-0.0035427068142160935,5.6800845200987755,1.1021134717399308,1.2130092416689646,0.6890439068163556
0.896,-0.3130853755420594,-0.10522035937940931,-1.4825233025903386,0.024609747271685956,0.007177847554107377,5.593595896566423,1.0707622021851808,1.2121681201900036,0.2998004430982901
0.898,-0.3507942236946165,-0.11094202300238493,-1.9661685218937515,-0.0005294864982134349,0.018625411298354398,5.637284808748986,1.0393381051790138,1.2107663206399952,-0.07205563471058907
0.9,-0.38843131589343777,-0.1173888189090909,-2.446939607071708,-0.025620882976029432,0.029625899193907786,5.615547277194975,1.00797391918773,1.2096503101929594,-0.2812377805461657
0.902,-0.42578624237557106,-0.12538415090336036,-2.930206474284199,-0.050524169604712676,0.04030438088179219,5.528175302927311,0.9768447700886029,1.207415853594018,-0.5553386602087703
0.904,-0.4633147445568141,-0.13434691094116946,-3.489805871942363,-0.07554317217050197,0.05081834778245823,5.4375588278390214,0.945571023635865,1.2051175759945107,-0.7709784368045347
0.906,-0.500090033567545,-0.14390323885947556,-3.9734695909744935,-0.10006002297496125,0.06074586418045292,5.283874295495232,0.9149249937567665,1.2022903944563768,-1.0311367213990466
0.908,-0.5362770698587099,-0.15421761117555158,-4.434650819058557,-0.12418469756432575,0.07064715700095409,5.149894119564579,0.8847691193007036,1.19807960775647,-1.3866242030975553
0.91,-0.5717255959440352,-0.16566988157092574,-4.873393987013376,-0.14781704869237167,0.07942405420732136,4.865348560881732,0.8552286808128565,1.193574837557902,-1.74246601712214
0.912,-0.6061838278756105,-0.17730813167863427,-5.241098883748329,-0.17078923194471585,0.08805888559908483,4.670678171014784,0.826513459069701,1.1880538250552621,-2.1082676143597325
0.914,-0.639728931806317,-0.18988595500345443,-5.614448524904229,-0.19315262032896308,0.09606515191197142,4.407253057511614,0.7985592352348034,1.18188851936081,-2.447437854176772
0.916,-0.6721391463350423,-0.20283587488632307,-5.94371888145447,-0.21475942012710147,0.10330378265277944,4.209590362904059,0.7715507424236318,1.1751685793080586,-2.8023748297440783
0.918,-0.7032944740630233,-0.21621588268817205,-6.274136054797491,-0.23552963403503946,0.1105680508888889,3.967466641267025,0.7455879789509686,1.167300949096774,-3.1748338116630825
0.92,-0.7331355533878354,-0.23055470730045324,-6.542606887178555,-0.2554236875555158,0.11714314804174619,3.699742003341126,0.7207204111190221,1.1590353130232587,-3.50284683960854
0.922,-0.7613793961268026,-0.24543891492648634,-6.849523442452639,-0.2742529543434632,0.12285720287120219,3.4352706319369712,0.697183800327613,1.150324319007268,-3.810257828759323
0.924,-0.7879845029581495,-0.26032063254485804,-7.091765289562634,-0.2919896628888756,0.12780889035755189,3.1277184077116438,0.6750129347255276,1.1407881711024817,-4.133751179236698
0.926,-0.8128718925472732,-0.2759788955982621,-7.37707996131282,-0.3085812660152417,0.1323847531073682,2.8200956022840136,0.6542734234864253,1.1309510188831091,-4.488640188009642
0.928,-0.8359016584960742,-0.2919780146752056,-7.617593899103291,-0.32393444267951466,0.13656414948401882,2.53431469163443,0.6350819243040686,1.1203028692385428,-4.778826749625029
0.93,-0.8570037417530981,-0.3081479827153937,-7.790920917846298,-0.3380024990333651,0.13994856091797883,2.2093321727487663,0.6174969115159675,1.1092426578566394,-5.049645984759342
0.932,-0.8761389975712413,-0.32415947348820584,-7.922762437827019,-0.3507593449658996,0.14261908635382414,1.9456814944334049,0.6015507878434482,1.0977513620936383,-5.275801427237313
0.934,-0.893209028288852,-0.34098426058621506,-8.054954707293227,-0.36213934628410305,0.1445329807057082,1.5933676350824253,0.5873258007344176,1.0859419125356464,-5.5187679118870205
0.936,-0.9080835885634005,-0.35728061634438657,-8.120458479165798,-0.3720557391974063,0.14604892089175744,1.2658449885490288,0.5749303248638329,1.073958525075083,-5.7114287381009
0.938,-0.9208872186510851,-0.3743865165036366,-8.142856598,-0.38059146334963034,0.146821618,0.9514836013603195,0.5642606333489149,1.0613690729599379,-5.859900895514486
0.94,-0.9313508542805198,-0.39003678611587983,-8.142238226835717,-0.3875672302596566,0.14681088519098712,0.6211172166483072,0.5555409466087268,1.0490245309375297,-5.98921303540391
0.942,-0.9395164683015022,-0.4060584335474914,-8.097972642717792,-0.39301096302312827,0.14604258552127278,0.2484195851273984,0.5487362875922747,1.0366749574769396,-6.118039896938505
0.944,-0.9453558228251965,-0.42207096715402026,-8.032055565227159,-0.396903885059538,0.144887913744729,-0.05950219555128052,0.5438701210171469,1.0237786707459202,-6.214532909317928
0.946,-0.9488437971896778,-0.43769224314856137,-7.965613785502055,-0.399229182503746,0.14297241288256018,-0.3885917038344099,0.540963542801879,1.01116065673165,-6.278696839628303
0.948,-0.9499751523442193,-0.4527243892770405,-7.857362794804228,-0.3999834482598332,0.14034101207269523,-0.6916922237165002,0.5400207180126341,0.9981741059051086,-6.310535752921081
0.95,-0.9487420453895314,-0.46760379570910826,-7.725524672810682,-0.3991613476770001,0.13728974218836434,-0.97747852755031,0.5410483352252295,0.9855490298903196,-6.310600281
0.952,-0.9451455880783661,-0.4820986486930504,-7.571741963032065,-0.39676372863429116,0.13347695434318751,-1.3070254169656694,0.5440453157810496,0.9732082839566099,-6.294473968736798
0.954,-0.9392311901604034,-0.49615860929565425,-7.396647035533127,-0.3928207772900708,0.12929796893896936,-1.5698644453433865,0.5489740200086445,0.9609148664701971,-6.262312131208027
0.956,-0.9308953393555927,-0.5101556761368948,-7.21582781790031,-0.3872635536535893,0.123858607065347,-1.9273328241087526,0.5559205416444073,0.9486174499472931,-6.179753978096828
0.958,-0.9203219026842293,-0.5231179435724163,-6.929738743539159,-0.3802145865225891,0.11850605270675885,-2.234479842022768,0.5647317297631421,0.9368412065451186,-6.066150047163905
0.96,-0.9075000722926451,-0.5353089143777274,-6.621116589955288,-0.37166672836488257,0.11239714919673303,-2.49883584288041,0.5754165886467993,0.9256214888974603,-5.920708933370573
0.962,-0.8924817372536215,-0.5463630050888889,-6.247600565984838,-0.3616544856535265,0.1059088312980324,-2.805223565059259,0.5879318758318689,0.9144167209491899,-5.774862942793171
0.964,-0.8753929642388273,-0.5567338597333333,-5.884828058831944,-0.3502619896356811,0.09924185317361112,-3.0186187214888887,0.6021724830911691,0.9043399774597222,-5.602262284531945
0.966,-0.856169598623956,-0.5664048025571653,-5.462850987534951,-0.33744640340252924,0.09115122977930701,-3.2848853371505493,0.6181920312770222,0.8938350431237474,-5.390122391508874
0.968,-0.8349282505712242,-0.5748090485069212,-5.02292064134821,-0.3232855040613899,0.08351307771980906,-3.5050210829231507,0.6358930968095124,0.8842862056508354,-5.212082743753699
0.97,-0.8117862861155226,-0.5824419152939072,-4.583255088786217,-0.3078575281940923,0.07511941399570764,-3.7467922085014904,0.6551780966486486,0.8750271352692262,-5.002015830820675
0.972,-0.786742264506619,-0.5890172301259842,-4.159015889431639,-0.2911615043982111,0.06621340948496779,-3.9699438580171797,0.67604813250483,0.86621394126199,-4.739199437387974
0.974,-0.7600373193533199,-0.5947386217495529,-3.7190902648587434,-0.27335823625807604,0.05742701656013827,-4.188977368237453,0.6983021981238527,0.8586422906031708,-4.447847630222792
0.976,-0.7317264392640992,-0.600057760273226,-3.2792181099959454,-0.2544842771842137,0.048271681141443055,-4.341587956765533,0.7218946747758436,0.8516378202859869,-4.139662054506619
0.978,-0.701906638349762,-0.6038681994120166,-2.8178487984395004,-0.23460441034761903,0.03910795520963713,-4.408175320390125,0.7467445084673809,0.8452039094799524,-3.7516884684361687
0.98,-0.6707435585887951,-0.6072755356709753,-2.378379815243831,-0.2138290286244796,0.029595543334900117,-4.517296819201527,0.7727137315570357,0.8401688888102233,-3.364638465977673
0.982,-0.6383436918858164,-0.6091557639168037,-1.88007027860094,-0.19222912755959476,0.020570444206110462,-4.582292570235958,0.7997136008026222,0.8354683172098707,-2.982307791812926
0.984,-0.6047459295311718,-0.6102996737943347,-1.4411294202278029,-0.16983063273524854,0.011049589095215426,-4.582416534,0.8277117076796996,0.8315464992116163,-2.6434224615834325
0.986,-0.5701373989683972,-0.6106843184641365,-0.9791251793353623,-0.14675824998586195,0.001882113901300872,-4.582416534,0.8565521790124748,0.8281745782141067,-2.303652898840554
0.988,-0.5347780888174641,-0.609548292693221,-0.43215758403027427,-0.123185377169378,-0.00799318864786893,-4.691588965969607,0.8860182703471292,0.8253799244962602,-1.9817475952455181
0.99,-0.49844638871563135,-0.6072563877590419,0.09788912074131734,-0.09896426031763444,-0.020241592281916167,-5.218769240433054,0.9162946971174437,0.8234019352725748,-1.6409224212491018
0.992,-0.46164347150446905,-0.6042060644944571,0.6692401823053999,-0.07442899030818735,-0.030925764269400403,-5.285587444224102,0.9469637499882017,0.8225583388425318,-1.1725163514544046
0.994,-0.4244214974620887,-0.6003923695175868,1.1310410053630617,-0.04961433959298999,-0.04198897269774651,-5.351532310775725,0.9779820583748211,0.8228367323307499,-0.7360744695854298
0.996,-0.38688839141470976,-0.5954270321321791,1.5933515677197612,-0.024592266575038744,-0.05345243642746269,-5.483500947751642,1.0092596892430565,0.822837234,-0.44444416249838803
0.998,-0.3492184811731044,-0.5897180065752349,2.0538489087014393,0.0005210085858369099,-0.06410954486083026,-5.439664508799691,1.0406512239198855,0.8239565029432616,-0.10584896181658143
1.0,-0.3115426903877429,-0.5828567579305292,2.515218371658723,0.025638204123524504,-0.07516725761177312,-5.439559937,1.072047774023608,0.8259172268002859,0.29785839805517156
1.002,-0.2740147555044691,-0.575220381987946,2.977307450364602,0.050656829691812656,-0.08548128006456618,-5.351786629703903,1.1033210392538435,0.8281630625382503,0.6055359617523571
1.004,-0.23681040950861762,-0.5668561032590612,3.437366062214498,0.07545972836205872,-0.09574798431669637,-5.242278809999406,1.1343247135032688,0.8309581459756388,0.8633468028978015
1.006,-0.20013692513342898,-0.557329645327734,3.8767634044367405,0.09990871962553802,-0.10566198473659758,-5.1543180224403145,1.1648858619139169,0.8345983645689778,1.2181969354335238
1.008,-0.16385404570752354,-0.5466254534936043,4.361364914207292,0.12409730832776916,-0.1156082345341303,-5.066164441064674,1.1951216871545247,0.8388142195864913,1.5263420234699343
1.01,-0.12839942764091558,-0.5359365953113444,4.779423021925325,0.14773371101096805,-0.12477212201884767,-4.8904455965072176,1.2246671888526466,0.8438645196006204,1.8658668436020518
1.012,-0.0938238189550602,-0.5237397173913511,5.218680282670479,0.17078412174585766,-0.13354144881379557,-4.736648166775196,1.2534801374503515,0.8491901341990709,2.188914653706576
1.014,-0.060267207433134684,-0.5115239920805297,5.5927380536839655,0.19315519830798572,-0.1419407145068003,-4.538813757056908,1.2814440302381405,0.8556439447866858,2.52848094868146
1.016,-0.02785359066599118,-0.4982005829557459,5.965611062101832,0.21476427283371083,-0.14993610220176065,-4.34141307975565,1.308455365207057,0.8626411642847965,2.8832617614477756
1.018,0.0032889722067238913,-0.48406907495797513,6.33976795863658,0.23552597888054363,-0.15757777472683857,-4.143328908164756,1.3344074351058655,0.8705028520248328,3.223172715031519
1.02,0.03304413501013111,-0.4699563210071514,6.603736692321216,0.25536275784028606,-0.16482577559058403,-3.945548199145054,1.3592034096656733,0.8789153479135876,3.594738708518236
1.022,0.06128121483450578,-0.45507560719127116,6.867567451385643,0.2741874851759866,-0.17169658555616504,-3.7476779820703556,1.3827343472687492,0.8878928881531123,3.934308467090627
1.024,0.08790116556240316,-0.4402660372360271,7.086426927242791,0.29193410147967574,-0.17777355698967603,-3.4853006010722676,1.404917596490404,0.8973851018853685,4.2400038521117835
1.026,0.11278998583116728,-0.4249303814337927,7.329293339213061,0.30852666855359484,-0.1835279730877172,-3.242133057730018,1.4256583138303325,0.907531564638586,4.532514894134453
1.028,0.1358572064644177,-0.40890971104434376,7.527166924135892,0.32390480041232567,-0.1881074302723805,-2.93454358278448,1.4448810647229704,0.9184695840232446,4.855673136436286
1.03,0.15699886445963326,-0.39288416986203195,7.725013676180539,0.3379992588733032,-0.1926861564678035,-2.670675994096351,1.4624990212667301,0.9296914990336275,5.098260488646196
1.032,0.176125596956371,-0.37642171754468234,7.857443134341787,0.3507503936375807,-0.19613319172436897,-2.361987140144754,1.4784380060075304,0.941233175098696,5.3253352495296085
1.034,0.19323353125107295,-0.359961982085796,7.989386999280267,0.3621556834002146,-0.19957170742802668,-2.0750377458703526,1.4926946049860514,0.9530583811039085,5.552175117959962
1.036,0.2081550385589988,-0.34356458502337234,8.055418630034463,0.37210336458641236,-0.20185562199844978,-1.7453664324633913,1.505129247387366,0.9653956945096589,5.745770811050441
1.038,0.22087006890161595,-0.32715647759801725,8.14298111750053,0.38058003216646863,-0.20337763509040482,-1.3936110841302962,1.5157250043808224,0.9777410659848932,5.891074632833235
1.04,0.23130779492712308,-0.3109168898515284,8.16474090021834,0.38753852607991407,-0.20413292038864628,-1.0454923308995632,1.5244232162058684,0.9899595833449781,6.003062267441048
1.042,0.23948905006294707,-0.2949680039107736,8.121276509716184,0.39299268590653313,-0.204136252,-0.6736992494575225,1.5312409077525038,1.0025218952140484,6.0996429211257714
1.044,0.24533913949295438,-0.2785921720266667,8.055637628055239,0.39689275532863627,-0.20375877934190476,-0.34411378022190475,1.5361159512180558,1.0151256032876192,6.196462040861905
1.046,0.2488415970444789,-0.26314880079892666,7.966923297521765,0.3992277272526831,-0.20260846223959453,0.01130205557757901,1.5390346798535655,1.0276099919444246,6.181345742329397
1.048,0.24997415186426197,-0.24788250086640726,7.83493507033074,0.3999827736839108,-0.2003180915914397,0.38507294333981845,1.5399784230840057,1.0402384132879379,6.213618773719845
1.05,0.24875486936838323,-0.23316832190496403,7.661039881807216,0.39916990857892215,-0.1976770851365405,0.732863321375899,1.5389624077063473,1.052444697944464,6.197634082270252
1.052,0.24514010281689133,-0.21809296907592218,7.504601135957502,0.396760063992962,-0.19382108716628865,1.1332937091592454,1.5359500877126326,1.0649545963396203,6.181056393689149
1.054,0.23918811215160907,-0.20472410717759235,7.284416528567938,0.3927920606734207,-0.18999527469070324,1.4852848870268178,1.5309901272598332,1.0770300715202623,6.116242949961263
1.056,0.23091548410740254,-0.19137830181848497,7.042689790447356,0.387276985507927,-0.18503277909861837,1.8150295009871367,1.5240962884782454,1.0888084850462125,6.035366713464031
1.058,0.2203492959585171,-0.178800977012041,6.801033143578803,0.3802328504181666,-0.17931379700822606,2.1663880186746542,1.5152910268394326,1.1002979464598237,5.938415306536958
1.06,0.20753438344731515,-0.16659762834593056,6.537014713640208,0.37168959473603996,-0.173207102626703,2.5180247190135057,1.5046120359511848,1.1115160277025236,5.825153827039332
1.062,0.1925371772074392,-0.15522403661651463,6.209375661902619,0.3616914471382928,-0.16638199966485012,2.8675086482377683,1.4921143089771103,1.1223878775260039,5.680606377902974
1.064,0.17538141314783023,-0.1449187571545617,5.8795916725735236,0.35025427153218885,-0.1587513196332737,3.175382869006082,1.4778178522384358,1.1327714203942756,5.486703879391413
1.066,0.1561493068404725,-0.13538432013262633,5.484223800685892,0.33743288712385155,-0.15036306759699714,3.5268449045316967,1.4617910576996778,1.1428659671284558,5.325109851097474
1.068,0.13490048031663687,-0.12656094803510864,5.064287628002627,0.3232669828974359,-0.1419196541835443,3.8142259715185096,1.4440837933750745,1.1521745259523524,5.081397594891569
1.07,0.11174939329702026,-0.11854538522965254,4.645645679983579,0.30783294006078665,-0.13274499165028558,4.078644168864113,1.4247911511747318,1.1608809963749407,4.822316593398977
1.072,0.08678691267211161,-0.11207335445762712,4.163157958234423,0.29119126619017527,-0.1228443641143471,4.38545630759513,1.403989052722666,1.1689986794132252,4.548139977644068
1.074,0.060097419495134106,-0.10597071783967327,3.722903505266511,0.2733982884849276,-0.11291542198459743,4.605473921360093,1.3817478511979588,1.1765781977428238,4.289135626212835
1.076,0.03192128948447131,-0.10148976138774796,3.2495987750941655,0.25461419392401613,-0.10320575062240372,4.820612095403501,1.3582677041505453,1.1834423457558927,4.00439443308133
1.078,0.002280476497529823,-0.0977411133362522,2.7548540918896673,0.23485364836510422,-0.09202166204553415,5.03587378090718,1.3335670227584047,1.189499999352014,3.70392224778634
1.08,-0.029250782148735686,-0.09452343517096659,2.246841187544168,0.21383281197757634,-0.08001318498965641,5.243823337315659,1.3072910406331106,1.1956851485104032,3.3976199743924624
1.082,-0.061739054892670155,-0.09262932061106484,1.8081896426534205,0.19217396668324607,-0.06935575822224867,5.396079094918144,1.2802174897172773,1.200711741759429,3.0908491785438432
1.084,-0.09528875399784946,-0.091497302,1.3473207547174069,0.16980749822544802,-0.058313853561962746,5.439756751872851,1.2522593585021504,1.2049037005565901,2.735698676239255
1.086,-0.1299735798097108,-0.09150910003092784,0.8631488368247422,0.1466842763580864,-0.04724409487628866,5.460180734680413,1.223355396953588,1.2082654604948453,2.3473275558041236
1.088,-0.16539656516376638,-0.09264844415718546,0.3824832661155635,0.12306896216471991,-0.0370058854805009,5.329088072592128,1.1938362524276518,1.210772476204174,1.9618378514404293
1.09,-0.20159256948411947,-0.09418197829797265,-0.10117950480480906,0.09893828997404598,-0.027077481884959925,5.198943319913719,1.1636728252839537,1.212729952974069,1.5895822988062236
1.092,-0.23817684682679427,-0.0971995640902876,-0.5792819962683876,0.07454877009377991,-0.015761535658180104,5.437992680493635,1.133186016738756,1.2132846701606554,1.1261803996414426
1.094,-0.2755339399139505,-0.10062114491094994,-0.9526228106384496,0.04964404001173403,-0.0035920664429913204,5.679106952634526,1.1020550513715777,1.2130103758781356,0.6747941975384615
1.096,-0.3128506373186787,-0.10510277281342847,-1.4260990675214646,0.024766239430990992,0.00690347892583928,5.553121125120014,1.070957817741021,1.2124624269391742,0.32502253736975084
1.098,-0.35080787765975696,-0.11135253475397014,-2.0123445585411233,-0.0005385891422444604,0.01906143924484475,5.637295706169234,1.0393267268963546,1.2110399908511496,-0.04124863577103579
1.1,-0.3884494039202279,-0.11741988291941217,-2.449299849269732,-0.025632941661680914,0.030058508850912536,5.61544566599763,1.0079588458105413,1.2096459217527848,-0.3143434528267362
1.102,-0.42581936703758677,-0.12501860308256119,-2.931022535277619,-0.05054625271390951,0.0403248098630316,5.506185034889997,0.9768171662074455,1.2076907992342598,-0.5399455869482063
1.104,-0.4631908469539231,-0.13381934523369632,-3.460214753237286,-0.07546057379664246,0.0510439687233457,5.4178043710685655,0.9456742714844625,1.2054401995540265,-0.7509253694859399
