zhaobohao-byte/Y1_1Pace/data/Atom3motors/raw_csv/260117_steps_10s_3motors_aligned.csv
time,des_dof_pos_right_ankle_joint,dof_pos_right_ankle_joint,dof_vel_right_ankle_joint,des_dof_pos_right_hip_pitch_joint,dof_pos_right_hip_pitch_joint,dof_vel_right_hip_pitch_joint,des_dof_pos_right_knee_joint,dof_pos_right_knee_joint,dof_vel_right_knee_joint
0.0,0.25,-0.346704364,-0.010990143,0.400000006,-0.011872649,0.010990143,1.539999962,1.003196597,-0.008080987
0.002,0.25,-0.3449560027133993,0.24477915829531083,0.400000006,-0.011855534988306885,0.035924687112993674,1.539999962,1.0038331009364039,0.05127721235950364
0.004,0.25,-0.3348262985132754,1.8774799937985474,0.400000006,-0.01110971,0.16381633779033217,1.539999962,1.007266856585903,0.5454713765487559
0.006,0.25,-0.3159999146903127,4.648384461102676,0.400000006,-0.01111806762257224,0.11991707630779253,1.539999962,1.0134725551919705,1.4180490382929891
0.008,0.25,-0.2901590874221482,7.634212534945164,0.400000006,-0.011502885822885691,0.07456269086832402,1.539999962,1.0215750391786607,2.3318994216241227
0.01,0.25,-0.25972069756778043,10.248670928492722,0.400000006,-0.012279383407995227,-0.08099902352052507,1.539999962,1.031106638695346,3.168759116856444
0.012,0.25,-0.2303655874235501,9.945980159586995,0.400000006,-0.014193648217926185,-0.38832487182425307,1.539999962,1.0417746432759225,3.8785742760685413
0.014,0.25,-0.20449751432970123,10.010781554817926,0.400000006,-0.01644304545096661,-0.6475154575395432,1.539999962,1.0522498066629173,4.450326153959578
0.016,0.25,-0.18400189356037444,9.226999210028083,0.400000006,-0.018718220129162223,-0.7790168075907098,1.539999962,1.0645125353185212,4.98059009518533
0.018,0.25,-0.16963920450282485,8.532251304322035,0.400000006,-0.019883513,-0.8008306474067797,1.539999962,1.0781728727062145,5.58667422161017
0.02,0.25,-0.15890132258984144,7.423616903499822,0.400000006,-0.019878191446047452,-0.556454317940384,1.539999962,1.09315906066305,6.17192238749839
0.022,0.25,-0.1505286838860684,6.282365616795614,0.400000006,-0.019480404195328326,-0.2700514802901919,1.539999962,1.1077480541720892,6.65363505902014
0.024,0.25,-0.1436698611305178,5.275371822045335,0.400000006,-0.01793921040586972,0.06103004773443092,1.539999962,1.1223131532894297,6.908308037900739
0.026,0.25,-0.13716837883661068,4.53330514682946,0.400000006,-0.015277918005005364,0.4974062950643547,1.539999962,1.135772061140865,6.888582396509474
0.028,0.25,-0.12990339692033445,4.187122162848101,0.400000006,-0.013355645324584834,0.6966301644768319,1.539999962,1.1480905428054815,6.6288104378254555
0.03,0.25,-0.1213558807531065,4.208529506797468,0.400000006,-0.010382919032168158,0.9963552740608523,1.539999962,1.1590196080648008,6.28249063309755
0.032,0.25,-0.11011788169341932,4.629845992203034,0.400000006,-0.00612381401588439,1.3094941251756838,1.539999962,1.1698703466224771,5.920863776573749
0.034,0.25,-0.0978775430791324,5.224138391697772,0.400000006,-0.0015351428016922894,1.6177299937690384,1.539999962,1.1799803054060303,5.597451040751282
0.036,0.25,-0.08414787003528851,5.793809373644015,0.400000006,0.0034284345698617075,1.9256758568426322,1.539999962,1.18923436763567,5.32267091533834
0.038,0.25,-0.07042186589491889,6.143517207651598,0.400000006,0.00915404972197042,2.2767086396281013,1.539999962,1.1984833172627622,5.031628781146708
0.04,0.25,-0.05783864818574153,6.2288390264723414,0.400000006,0.01526350809501669,2.5403908625276586,1.539999962,1.2066191725505484,4.724566136817239
0.042,0.25,-0.04679019639208676,5.985091475981767,0.400000006,0.02175019381337147,2.7816448893886307,1.539999962,1.2144694106470026,4.433909260702777
0.044,0.25,-0.03765695248679289,5.4998163028271385,0.400000006,0.028234790513207104,2.9575459577463765,1.539999962,1.2217591710569191,4.175967878210613
0.046,0.25,-0.030924520159186536,4.767151866225105,0.400000006,0.03496722284081347,3.1514886347826088,1.539999962,1.228909574818373,3.9858290263464236
0.048,0.25,-0.02519557432559247,4.042467681544362,0.400000006,0.04257853057460998,3.305678101531142,1.539999962,1.2364706705367394,3.887823976535429
0.05,0.25,-0.02051075751061799,3.436620611720353,0.400000006,0.050361572486995944,3.5062666678243857,1.539999962,1.2441964361189453,3.85423255
0.052,0.25,-0.015923341321973306,3.020766552849857,0.400000006,0.058000266513107725,3.6162473923927547,1.539999962,1.2517738497785986,3.8534699908996664
0.054,0.25,-0.010576843584028606,2.8689456044765196,0.400000006,0.06600732727985696,3.7259227908638857,1.539999962,1.2590589941032182,3.7565554908414778
0.056,0.25,-0.00408447548336502,2.980253694124406,0.400000006,0.07401429851663498,3.813505248913023,1.539999962,1.2657906173822482,3.659491535479919
0.058,0.25,0.0035262712891681626,3.2873230868193897,0.400000006,0.08162349292770796,3.8572328334798325,1.539999962,1.2725009687909037,3.5467941742239377
0.06,0.25,0.012337438693984515,3.683951266456343,0.400000006,0.09004256475163788,3.879646082205003,1.539999962,1.2792591666918405,3.449967399296843
0.062,0.25,0.02148484793625219,4.012242357345709,0.400000006,0.09767084027133684,3.9456792217580854,1.539999962,1.2859851344189142,3.4177890540568594
0.064,0.25,0.030450923629422068,4.18443209393275,0.400000006,0.10588974250040864,4.031775958132166,1.539999962,1.292577885006655,3.4019639310558087
0.066,0.25,0.03935915442029507,4.208568388618568,0.400000006,0.1147892866459158,4.098963110891328,1.539999962,1.299409807970493,3.353195027767902
0.068,0.25,0.04664031532315764,4.051927718506797,0.400000006,0.12323067805699975,4.142688878688767,1.539999962,1.3056187750925352,3.30416764167565
0.07,0.25,0.05235770750387412,3.655708792480272,0.400000006,0.1312434310356419,4.1210530256870905,1.539999962,1.3117896011647396,3.2230930623191085
0.072,0.25,0.05730483012057245,3.193824629910197,0.400000006,0.13925733523649375,4.142510605637209,1.539999962,1.3176799923273703,3.110605941298748
0.074,0.25,0.060740194943187234,2.6892359803005004,0.400000006,0.14765039287565507,4.099441724750238,1.539999962,1.3235722872254645,3.078007890601358
0.076,0.25,0.06417059888071096,2.3168917986341406,0.400000006,0.1556546697117977,4.16434921888417,1.539999962,1.3294578127071455,3.0136579180291068
0.078,0.25,0.06760871037301588,2.0764000904206346,0.400000006,0.16366986428571428,4.098899841,1.539999962,1.3353469145873016,2.980937283650794
0.08,0.25,0.07134326667973856,2.011852015248366,0.400000006,0.1715124328235294,4.098899841,1.539999962,1.3405643230326798,2.9018305059869283
0.082,0.25,0.07599862248733269,2.077787470959249,0.400000006,0.1796665813701004,3.966786496954589,1.539999962,1.3462690647380497,2.787109791959608
0.084,0.25,0.0809793138431209,2.233084404904467,0.400000006,0.186553178616081,3.9216524515108997,1.539999962,1.3507726319554496,2.690036497142823
0.086,0.25,0.08707780403542885,2.5180825647893355,0.400000006,0.19379791029428606,3.747253418,1.539999962,1.3558160146775617,2.6089487713088393
0.088,0.25,0.09318564782300358,2.736965325699762,0.400000006,0.20144186155292013,3.748657488942074,1.539999962,1.3605855267871276,2.4803496424705602
0.09,0.25,0.09928476836818886,2.824517456797544,0.400000006,0.21020863092011446,3.9237579675873375,1.539999962,1.3650745153094075,2.447785787386908
0.092,0.25,0.1050019147730025,2.8669097848614506,0.400000006,0.21821809833206696,4.010640492908702,1.539999962,1.3698438615885076,2.383644342
0.094,0.25,0.10993779349508082,2.7133523827793393,0.400000006,0.22581629317463106,3.9666935937853127,1.539999962,1.3745927341057624,2.383519429180956
0.096,0.25,0.11406024006289528,2.4758394979641603,0.400000006,0.23331165101721713,3.880324590852073,1.539999962,1.3792773318977511,2.351768861722066
0.098,0.25,0.11712335384712465,2.1478414871420406,0.400000006,0.2405545292449101,3.8358277794288607,1.539999962,1.3832101703513513,2.2717462889804736
0.1,0.25,0.11946701969609123,1.7902910437028632,0.400000006,0.24793815409207556,3.7688121060027324,1.539999962,1.3877723503021266,2.205759431247119
0.102,0.25,0.12174805070437389,1.5493551098877172,0.400000006,0.2547817952905932,3.659308301295746,1.539999962,1.391686310715159,2.1735223655089273
0.104,0.25,0.12367066597576334,1.3515248900460972,0.400000006,0.26168412207853153,3.5929053287020314,1.539999962,1.3959156595730071,2.092851777651063
0.106,0.25,0.12633352419256513,1.3298696121441549,0.400000006,0.2685262296786995,3.505343423226273,1.539999962,1.400107958936768,2.108774956754124
0.108,0.25,0.12977798217981,1.4184604938933492,0.400000006,0.27464823190617577,3.4390117921817103,1.539999962,1.404044817152494,2.0440375114152016
0.11,0.25,0.1335782173131434,1.5936171428989705,0.400000006,0.2811081751000718,3.329564716767776,1.539999962,1.4076778205913336,1.995741029168063
0.112,0.25,0.1374124249256662,1.7699234563387096,0.400000006,0.28723648623597475,3.2414096653657083,1.539999962,1.411617696703366,1.9469759619484572
0.114,0.25,0.14190071249041608,1.8992198208817206,0.400000006,0.29322086998246844,3.176763353852969,1.539999962,1.4149178740042074,1.8835981758730715
0.116,0.25,0.1461799287023539,1.9669309566637592,0.400000006,0.2986733643777035,3.0433422342935836,1.539999962,1.418066928712391,1.7854118536101087
0.118,0.25,0.15000099883082976,1.9444347566698856,0.400000006,0.3040266178526467,2.911313536468765,1.539999962,1.4214389380892942,1.7208462841738197
0.12,0.25,0.1534288616657923,1.8559065390563967,0.400000006,0.30936451480589006,2.8017326827481814,1.539999962,1.4245262889022297,1.6885250438973411
0.122,0.25,0.15609700797997378,1.6798818763372274,0.400000006,0.3143220209526761,2.7351445896738587,1.539999962,1.4278909209439743,1.6559612959737753
0.124,0.25,0.1583802885762348,1.4819172444139825,0.400000006,0.31890246189823435,2.581936704979838,1.539999962,1.430974391483417,1.5913214336275352
0.126,0.25,0.15990723560002382,1.2619833006303882,0.400000006,0.323858956398071,2.5157819250791857,1.539999962,1.4337834703994998,1.5267627770763277
0.128,0.25,0.16143127748469985,1.0432123492529781,0.400000006,0.32805007778696565,2.4278253862597525,1.539999962,1.436861331227517,1.4783407365197385
0.13,0.25,0.16292632524585376,0.9355427528777155,0.400000006,0.3321623926292922,2.320155790864284,1.539999962,1.4393348173937164,1.430837231366036
0.132,0.25,0.16410353006950915,0.8465076117122895,0.400000006,0.3364333846015765,2.2081992303170908,1.539999962,1.4421871676907918,1.3977809374557506
0.134,0.25,0.1663966870058396,0.9125658291001072,0.400000006,0.3398758926788225,2.0982607644205697,1.539999962,1.4447164464403526,1.3814707965314028
0.136,0.25,0.16868988261885537,0.9792343751524578,0.400000006,0.3436838746188554,2.0100819886827357,1.539999962,1.4472398614343385,1.3491620973825695
0.138,0.25,0.17172861791689617,1.1541099121711171,0.400000006,0.3467248938918692,1.8788567018288829,1.539999962,1.4497543993871391,1.3167760371646509
0.14,0.25,0.17441383566209612,1.2422517333419578,0.400000006,0.3501707666620961,1.7903847226266842,1.539999962,1.452004200042566,1.2192531706759269
0.142,0.25,0.1774630295939957,1.3078610404643793,0.400000006,0.3532199605939957,1.6804823345108413,1.539999962,1.453693802088873,1.1073498643414343
0.144,0.25,0.1801312158505041,1.329669952,0.400000006,0.3558855385910302,1.5706788432631824,1.539999962,1.4562142741110211,1.1551318390027812
0.146,0.25,0.18272692517302122,1.329669952,0.400000006,0.35811043299038126,1.463857985018658,1.539999962,1.4583955964032913,1.1080027951270135
0.148,0.25,0.1846971511538094,1.1529858917413423,0.400000006,0.3608383345798902,1.3950651468803439,1.539999962,1.460414543133389,1.026178837
0.15,0.25,0.185841055182534,0.976848831617991,0.400000006,0.36275163556096396,1.2851258727902648,1.539999962,1.4621042920992602,1.0262868145003579
0.152,0.25,0.18660453829016102,0.8012214618300537,0.400000006,0.36503644558771614,1.1971534507500299,1.539999962,1.4643436654020274,1.0413848047650565
0.154,0.25,0.18736783267023938,0.6692935542736691,0.400000006,0.3665630353326188,1.1090262542222222,1.539999962,1.4657511069803502,0.9133102376616649
0.156,0.25,0.18813255645240934,0.5383103673550811,0.400000006,0.36808729493201336,0.9994023055533159,1.539999962,1.4677106113222804,0.9448280078293178
0.158,0.25,0.18928032936305808,0.5168043482147485,0.400000006,0.3696111572777712,0.9114444324190127,1.539999962,1.4693922912340676,0.8646939031267523
0.16,0.25,0.19078823358393213,0.5602432958038639,0.400000006,0.37074208618459187,0.8245703053238309,1.539999962,1.4707782668887974,0.8806654938255389
0.162,0.25,0.19195124955521253,0.6269160958772264,0.400000006,0.3718986839306578,0.7358561831211113,1.539999962,1.4724762014447874,0.8158960303184516
0.164,0.25,0.1938511300851165,0.7145350100979553,0.400000006,0.37303775023359487,0.6701314796730861,1.539999962,1.473873206520447,0.783664934536852
0.166,0.25,0.1957530362933904,0.8241114706058013,0.400000006,0.37379851251747503,0.5824687888228721,1.539999962,1.4752715834419876,0.7353229201745125
0.168,0.25,0.19805027242911694,0.8901939356983293,0.400000006,0.37456481937088304,0.5162315333369928,1.539999962,1.4763986994792362,0.734862132322673
0.17,0.25,0.19995778119788196,0.911979271946335,0.400000006,0.3753267060506902,0.45012118156627795,1.539999962,1.4775246231329129,0.6224868865748453
0.172,0.25,0.20148077521776026,0.8899786763412214,0.400000006,0.3757074548051871,0.36243956221429424,1.539999962,1.4792009662250507,0.6864757697799689
0.174,0.25,0.20300636688229687,0.8454149073934955,0.400000006,0.37608564905885156,0.2960880388695497,1.539999962,1.4797681419138669,0.5736007099293543
0.176,0.25,0.20377077001706242,0.7137361084591337,0.400000006,0.3757082266740246,0.18670322254313326,1.539999962,1.4811684087080301,0.5577749631924591
0.178,0.25,0.2049116695066079,0.603499273826765,0.400000006,0.376087785,0.16445220545410166,1.539999962,1.4822880568837957,0.605258094100012
0.18,0.25,0.2052926882744186,0.450243412827907,0.400000006,0.376087785,0.09879762485581396,1.539999962,1.482852305688372,0.4768780848139535
0.182,0.25,0.20567619951738922,0.38439696350619346,0.400000006,0.376087785,0.07670348151119581,1.539999962,1.4842537736626966,0.5092914101560266
0.184,0.25,0.20643851865162757,0.340660095,0.400000006,0.376087785,0.032966614,1.539999962,1.4853713339042602,0.5570581859624222
0.186,0.25,0.20720440381602936,0.3410139554801705,0.400000006,0.376087785,0.032966614,1.539999962,1.485659691295016,0.44440943
0.188,0.25,0.20796243372458742,0.38468781576979194,0.400000006,0.376087785,0.032966614,1.539999962,1.4867738636036834,0.4444790012797178
0.19,0.25,0.20911216843631372,0.4508334258076877,0.400000006,0.376087785,0.032872170529067685,1.539999962,1.4878970643712546,0.5087016363866539
0.192,0.25,0.21064005416443754,0.5171000766737521,0.400000006,0.376087785,0.011113488371029377,1.539999962,1.4884586826688562,0.4279753507814664
0.194,0.25,0.2121658238806006,0.626373291,0.400000006,0.3760849667040038,0.03264186198212583,1.539999962,1.489024822308389,0.38000590832340325
0.196,0.25,0.2133124763792038,0.6265273743973857,0.400000006,0.37569829121735,-0.012376973806654784,1.539999962,1.490142464326322,0.412088275
0.198,0.25,0.21483203751291866,0.648349762,0.400000006,0.3745575254870813,-0.2092104565215311,1.539999962,1.4907016773645934,0.4118408404354067
0.2,0.25,0.21597761563975673,0.6475504191638446,0.400000006,0.37341194735296923,-0.31899955268018126,1.539999962,1.491260529,0.3466231379295254
0.202,0.25,0.2167407331873436,0.537964748401144,0.400000006,0.3726459647264927,-0.3631315955988559,1.539999962,1.4912626349989275,0.2340807344855202
0.204,0.25,0.21750071982351538,0.47156734969532554,0.400000006,0.37150182353672784,-0.42888953668018126,1.539999962,1.4915430683576199,0.2016523764279752
0.206,0.25,0.217879415,0.3398225388518519,0.400000006,0.37035992404704066,-0.47219152172990353,1.539999962,1.4918236649063952,0.153521925
0.208,0.25,0.217879415,0.23033742665624626,0.400000006,0.36959528885860876,-0.42885825857224674,1.539999962,1.4921038677642287,0.153521925
0.21,0.25,0.21788228079382302,0.1646717566427379,0.400000006,0.3684526584048414,-0.4726916773572621,1.539999962,1.4923867405166946,0.153521925
0.212,0.25,0.2182637796615672,0.14319026483872474,0.400000006,0.3676867640228892,-0.49433998809739577,1.539999962,1.4929456533154268,0.15364460730409904
0.214,0.25,0.218637498198295,0.18625382037813848,0.400000006,0.36656560939238586,-0.47280634109821323,1.539999962,1.4932203369787458,0.16947817421312625
0.216,0.25,0.21940975836789298,0.20917574414799334,0.400000006,0.3657814039540134,-0.450550079,1.539999962,1.4935060509071905,0.13745734003511706
0.218,0.25,0.22017414584547512,0.2750675072309527,0.400000006,0.36463778015452486,-0.4507203986154763,1.539999962,1.4937877938923334,0.15339669004948134
0.22,0.25,0.22094030438089568,0.319205986966889,0.400000006,0.3638716216191043,-0.47287732450202474,1.539999962,1.494066119,0.13697589053227727
0.222,0.25,0.22208095224588403,0.3847715420249344,0.400000006,0.36273097375411595,-0.5161739000967549,1.539999962,1.494066119,0.08876868356836078
0.224,0.25,0.2228475192122945,0.40711174008148676,0.400000006,0.36196440678770553,-0.4723537543023588,1.539999962,1.4940683245039315,0.07259341237026447
0.226,0.25,0.2239884822953949,0.4722066547344309,0.400000006,0.3608234437046051,-0.450550079,1.539999962,1.494346619,0.0566789003209258
0.228,0.25,0.22475174348190277,0.4284006082529013,0.400000006,0.36005724577329656,-0.45071926474709867,1.539999962,1.494348778420085,0.072720468
0.23,0.25,0.22548715601447777,0.4072170376199012,0.400000006,0.3589541264924739,-0.4719028353800988,1.539999962,1.494619157152821,0.072720468
0.232,0.25,0.22589237674297669,0.3401766495011357,0.400000006,0.3581545125140466,-0.428569794,1.539999962,1.4949091604930067,0.12111470965570831
0.234,0.25,0.226271749,0.25202377823903716,0.400000006,0.3573894950268113,-0.428569794,1.539999962,1.4951904232954005,0.10517450159699715
0.236,0.25,0.226271749,0.1643179423307894,0.400000006,0.35662682446386834,-0.42839683346029095,1.539999962,1.495470823607918,0.121203586
0.238,0.25,0.22627484223777725,0.09907807370307656,0.400000006,0.35586370251633676,-0.40641512123181495,1.539999962,1.495751390497019,0.121203586
0.24,0.25,0.226653218,0.12069482655996201,0.400000006,0.3551005181857041,-0.384616852,1.539999962,1.4960319796995964,0.12106733571859415
0.242,0.25,0.2266549525770013,0.09909971616644729,0.400000006,0.35434054085054445,-0.3845169057432093,1.539999962,1.496310115,0.10496813885987795
0.244,0.25,0.22704082352342658,0.1433868302451049,0.400000006,0.35357493546853147,-0.3624598321423077,1.539999962,1.4963123707611887,0.08901239736713287
0.246,0.25,0.22778677868321678,0.20785231291445222,0.400000006,0.3528289793310023,-0.340972580951282,1.539999962,1.4965866255526807,0.10481184691608392
0.248,0.25,0.22856448792470418,0.2529724862130991,0.400000006,0.3520532315350783,-0.340660095,1.539999962,1.496871114,0.088882446
0.25,0.25,0.22932645258942366,0.296703339,0.400000006,0.35166782882887704,-0.340660095,1.539999962,1.4968732806589422,0.08875760600356507
0.252,0.25,0.22970675601076812,0.2966007926529074,0.400000006,0.3509090029892319,-0.34055753085606605,1.539999962,1.497151613,0.072720468
0.254,0.25,0.2300895698345597,0.27436690879836223,0.400000006,0.3505230653390696,-0.31849984601958226,1.539999962,1.4971539090147163,0.072720468
0.256,0.25,0.23046937355319402,0.2305181870281791,0.400000006,0.3497649164429851,-0.296703339,1.539999962,1.497431993,0.07265872551498508
0.258,0.25,0.230849385,0.16448310232180754,0.400000006,0.3493808104862287,-0.29658542542005484,1.539999962,1.49743349800775,0.05664800314105163
0.26,0.25,0.23084724728174555,0.09853035707618935,0.400000006,0.34861982628174554,-0.274603692437582,1.539999962,1.4977140648913796,0.07299216306927388
0.262,0.25,0.2304701037318586,0.03309267134609082,0.400000006,0.34823830726240634,-0.2526205465272706,1.539999962,1.497992992,0.12092553441034644
0.264,0.25,0.2308446077079822,0.05467163091772004,0.400000006,0.34786380230454117,-0.23104533131800092,1.539999962,1.497992992,0.07332764187944757
0.266,0.25,0.230849385,0.05499682760803539,0.400000006,0.3474766883360038,-0.23072017372462036,1.539999962,1.498273492,0.072720468
0.268,0.25,0.23085138818415085,0.07692337,0.400000006,0.3470940828158492,-0.20867442164351355,1.539999962,1.498273492,0.07255075720634921
0.27,0.25,0.2312333111082628,0.07720638715488257,0.400000006,0.3467121598917372,-0.186813354,1.539999962,1.498273492,0.04029807353845237
0.272,0.25,0.23161486812666668,0.12102663680666667,0.400000006,0.34633060286666667,-0.1866668442,1.539999962,1.498273492,0.0241324292
0.274,0.25,0.23199578648338082,0.14297140481196582,0.400000006,0.345951676,-0.164836884,1.539999962,1.498273492,0.007996570231718897
0.276,0.25,0.23237567506681034,0.16478951680495688,0.400000006,0.3459512649342672,-0.164836884,1.539999962,1.498273492,-0.008046158181034482
0.278,0.25,0.232758826240372,0.12100066088172172,0.400000006,0.345568114759628,-0.16459579531250745,1.539999962,1.4982750304468822,0.024240157
0.28,0.25,0.233138204,0.14248680543245823,0.400000006,0.345188737,-0.12100338405692125,1.539999962,1.498552417795585,0.02405888089403341
0.282,0.25,0.23314074955100095,0.07707001947283128,0.400000006,0.34518619144232604,-0.14241662412392755,1.539999962,1.4982753637759771,-0.00797313779313632
0.284,0.25,0.233519673,0.098899841,0.400000006,0.344807267,-0.07692337,1.539999962,1.498553991,0.008080987
0.286,0.25,0.233519673,0.09861640908359208,0.400000006,0.344807267,-0.07692337,1.539999962,1.498552182193456,0.007976766006926199
0.288,0.25,0.23352281098640917,0.05512767826788269,0.400000006,0.3448041290135908,-0.07674259073211731,1.539999962,1.4982757993952074,-0.008213912933476394
0.29,0.25,0.233901143,0.07692337,0.400000006,0.344425797,-0.054946899,1.539999962,1.4985516838798427,-0.024107246911789247
0.292,0.25,0.233901143,0.07674325638805084,0.400000006,0.344425797,-0.054946899,1.539999962,1.4982757908990378,-0.008080987
0.294,0.25,0.23390287529684514,0.054946899,0.400000006,0.344425797,-0.05474728658030593,1.539999962,1.498553991,-0.0079342131625239
0.296,0.25,0.23428529908783866,0.05525638981966822,0.400000006,0.344425797,-0.010990143,1.539999962,1.498553991,0.024126373609380594
0.298,0.25,0.234664083,0.098899841,0.400000006,0.34442267761614126,-0.011169851046812042,1.539999962,1.498553991,0.008213125270917278
0.3,0.25,0.2346649431840731,0.09885028570104439,0.400000006,0.344044328,-0.032966614,1.539999962,1.498553991,0.02413083751673392
0.302,0.25,0.23504473708877283,0.07697031712532637,0.400000006,0.344044328,-0.032966614,1.539999962,1.498553991,-0.024136591173747925
0.304,0.25,0.235427022,0.09897840749350649,0.400000006,0.344044328,-0.032966614,1.539999962,1.498553991,0.007965458068747766
0.306,0.25,0.235428206689441,0.12081186524223603,0.400000006,0.344044328,-0.03289836409006211,1.539999962,1.498553991,-0.024189973242236023
0.308,0.25,0.23581044615380034,0.098899841,0.400000006,0.34404237384107694,-0.010990143,1.539999962,1.4985554279192281,-0.007915415259232785
0.31,0.25,0.236189961,0.09880305140030948,0.400000006,0.343662858,-0.011086932599690513,1.539999962,1.498834491,0.024311338182240207
0.312,0.25,0.236189961,0.07685769017035267,0.400000006,0.343662858,-0.032900934170352655,1.539999962,1.498834491,0.040353830621040046
0.314,0.25,0.236189961,0.054946899,0.400000006,0.343662858,-0.010990143,1.539999962,1.498834491,0.024147950609129814
0.316,0.25,0.23619110107770472,0.054946899,0.400000006,0.343662858,-0.01105582282964734,1.539999962,1.498834491,0.008177583371787207
0.318,0.25,0.236571431,0.054946899,0.400000006,0.343662858,-0.032966614,1.539999962,1.498836131149284,0.040402133
0.32,0.25,0.236571431,0.054946899,0.400000006,0.34366026172656716,-0.03281704279438806,1.539999962,1.49911499,0.040402133
0.322,0.25,0.236571431,0.054946899,0.400000006,0.343281388,-0.01136071171004512,1.539999962,1.4991173546995964,0.04053835966813109
0.324,0.25,0.2365731169042045,0.054946899,0.400000006,0.343281388,-0.054946899,1.539999962,1.49939549,0.0564898866568323
0.326,0.25,0.236952901,0.054946899,0.400000006,0.34327893977965296,-0.054946899,1.539999962,1.4993972902075112,0.04050584052626575
0.328,0.25,0.23695422349013748,0.054946899,0.400000006,0.342899919,-0.05502308760239091,1.539999962,1.499675989,0.05650528097178721
0.33,0.25,0.23733201148530986,0.054675012320804094,0.400000006,0.34289755948530987,-0.0766514833208041,1.539999962,1.4996777239827526,0.040602032300582847
0.332,0.25,0.23695444928458875,0.011079339611436076,0.400000006,0.342518449,-0.03305582609144085,1.539999962,1.499956489,0.072720468
0.334,0.25,0.237334371,0.03308688200404425,0.400000006,0.3425163617370049,-0.054946899,1.539999962,1.4999580237869632,0.07263205100987272
0.336,0.25,0.237334371,0.054876474448558206,0.400000006,0.342136979,-0.054946899,1.539999962,1.500236988,0.056561302
0.338,0.25,0.237334371,0.032995305483920725,0.400000006,0.342136979,-0.054946899,1.539999962,1.500236988,0.056561302
0.34,0.25,0.237334371,0.010990143,0.400000006,0.3421352091534618,-0.054946899,1.539999962,1.500517488,0.040552075310849395
0.342,0.25,0.23733537187274895,0.011047803389028027,0.400000006,0.341755509,-0.05500455938902803,1.539999962,1.5005182239544426,0.07276287271270125
0.344,0.25,0.23771584,0.032898623965968585,0.400000006,0.341755509,-0.07685537996596858,1.539999962,1.5007988547979532,0.08878245198000952
0.346,0.25,0.23771584,0.011016408651966058,0.400000006,0.341755509,-0.05492062878964982,1.539999962,1.5010781507555873,0.056561302
0.348,0.25,0.23771584,0.033050368360562035,0.400000006,0.341755509,-0.03288287417242201,1.539999962,1.5007990558221005,0.0564997286006192
0.35,0.25,0.23771684278886368,0.055004669625164294,0.400000006,0.341755509,-0.010990143,1.539999962,1.501077748638547,0.04035964722248775
0.352,0.25,0.23809731,0.07681353994502618,0.400000006,0.341755509,-0.010880293879105189,1.539999962,1.500799388827463,0.024159399605901948
0.354,0.25,0.23809731,0.05487631530649382,0.400000006,0.341755509,0.010919559303282589,1.539999962,1.501078486,0.00802908722621313
0.356,0.25,0.2380976297952096,0.032966614,0.400000006,0.341755509,-0.010971716412934132,1.539999962,1.501078486,-0.008080987
0.358,0.25,0.23847671338593807,0.032728478230126014,0.400000006,0.341755509,0.010990143,1.539999962,1.5010769663964196,-0.008080987
0.36,0.25,0.2380998708043811,-0.01069506171993876,0.400000006,0.341755509,0.010990143,1.539999962,1.500799869987045,-0.008080987
0.362,0.25,0.23809885791502566,-0.010811776877789713,0.400000006,0.341755509,0.011079318320921351,1.539999962,1.5007991251985917,0.008080987
0.364,0.25,0.23847878,0.03285115552549254,0.400000006,0.341755509,0.03285115552549254,1.539999962,1.501077012333612,0.007911180392716417
0.366,0.25,0.23847878,0.010990143,0.400000006,0.341755509,0.010990143,1.539999962,1.500797987,-0.02402101756762222
0.368,0.25,0.23847878,0.010990143,0.400000006,0.341755509,0.010990143,1.539999962,1.5007992928924434,0.008005743238987704
0.37,0.25,0.23848104203747628,0.011120458885910817,0.400000006,0.341755509,0.010990143,1.539999962,1.501078486,-0.008176807505218216
0.372,0.25,0.23886025,0.032966614,0.400000006,0.341755509,0.010990143,1.539999962,1.501078486,-0.024226615255716507
0.374,0.25,0.23886025,0.032966614,0.400000006,0.341755509,0.010877905463127896,1.539999962,1.5010770536930294,-0.008080987
0.376,0.25,0.23886025,0.032966614,0.400000006,0.341755509,-0.010963831908307398,1.539999962,1.5007983227661,-0.008061640610246588
0.378,0.25,0.23886025,0.032966614,0.400000006,0.341755509,0.010990143,1.539999962,1.501078486,0.007995100269957487
0.38,0.25,0.23886025,0.032966614,0.400000006,0.341755509,0.010990143,1.539999962,1.501078486,-0.008016094803967882
0.382,0.25,0.23886025,0.010990143,0.400000006,0.341755509,0.03291411406927854,1.539999962,1.501078486,-0.008080987
0.384,0.25,0.2388619288810515,0.010990143,0.400000006,0.341755509,0.010990143,1.539999962,1.501078486,-0.008009856627929106
0.386,0.25,0.239241719,0.010990143,0.400000006,0.341755509,0.011037235437857144,1.539999962,1.501078486,0.008046354198571429
0.388,0.25,0.239241719,0.011008517975752509,0.400000006,0.341755509,0.03294823902424749,1.539999962,1.501078486,-0.008080987
0.39,0.25,0.239241719,0.032966614,0.400000006,0.341755509,0.010927267330870084,1.539999962,1.501078486,-0.008127211085816448
0.392,0.25,0.239241719,0.032908593795751825,0.400000006,0.341755509,-0.01093211272374895,1.539999962,1.501078486,-0.024240157
0.394,0.25,0.23924527349289212,0.010990143,0.400000006,0.341755509,0.010990143,1.539999962,1.501078486,-0.02408958774184685
0.396,0.25,0.239623189,0.010990143,0.400000006,0.341755509,0.010990143,1.539999962,1.501078486,-0.008080987
0.398,0.25,0.239623189,0.011549203132176394,0.400000006,0.341755509,0.010990143,1.539999962,1.501078486,-0.007669913374895994
0.4,0.25,0.239623189,0.054510642782374746,0.400000006,0.341755509,0.010771995954920484,1.539999962,1.501078486,0.0239193803705608
0.402,0.25,0.239623189,0.010990143,0.400000006,0.341755509,-0.01043346737195122,1.539999962,1.501078486,-0.008080987
0.404,0.25,0.239623189,0.010990143,0.400000006,0.341755509,0.03280682747713414,1.539999962,1.501078486,-0.008080987
0.406,0.25,0.239623189,-0.010577222281437128,0.400000006,0.341755509,-0.0101643732313021,1.539999962,1.501078486,0.0077773688433720786
0.408,0.25,0.23962473562294298,0.011079243884092536,0.400000006,0.341755509,0.03287751311590746,1.539999962,1.501078486,-0.04020556418530885
0.41,0.25,0.240004659,0.03286978982436294,0.400000006,0.341755509,0.010893302016194333,1.539999962,1.501078486,0.00800978039866635
0.412,0.25,0.240004659,0.011061581082952084,0.400000006,0.341755509,-0.010918692515771732,1.539999962,1.501078486,-0.008080987
0.414,0.25,0.240004659,0.03268130633919509,0.400000006,0.341755509,0.01127545066080491,1.539999962,1.501078486,-0.008080987
0.416,0.25,0.240004659,0.011055713088912759,0.400000006,0.341755509,0.032966614,1.539999962,1.501078486,-0.008129200301109918
0.418,0.25,0.24000625262795416,0.032966614,0.400000006,0.341755509,0.032782979899379325,1.539999962,1.501078486,-0.024172650321795178
0.42,0.25,0.2403840370116778,0.03272566895448045,0.400000006,0.341755509,-0.010749197954480458,1.539999962,1.501078486,-0.008080987
0.422,0.25,0.2400065688459888,-0.010770071025509597,0.400000006,0.341755509,0.03274654202550959,1.539999962,1.501078486,-0.008161888792823936
0.424,0.25,0.240386128,0.032856731645,0.400000006,0.341755509,-0.010770359215,1.539999962,1.501078486,-0.02415936115
0.426,0.25,0.240386128,0.010990143,0.400000006,0.341755509,0.03288543304182555,1.539999962,1.501078486,-0.008080987
0.428,0.25,0.240386128,0.010990143,0.400000006,0.341755509,0.010990143,1.539999962,1.501078486,-0.008080987
0.43,0.25,0.240386128,0.010990143,0.400000006,0.341755509,0.010990143,1.539999962,1.501078486,-0.008080987
0.432,0.25,0.240386128,0.01074516471164335,0.400000006,0.341755509,0.010990143,1.539999962,1.501078486,-0.008080987
0.434,0.25,0.2403883419085633,-0.010862577677958073,0.400000006,0.341755509,0.010990143,1.539999962,1.501078486,-0.008080987
0.436,0.25,0.24076737209096294,0.010977126130403886,0.400000006,0.341755509,0.010990143,1.539999962,1.501078486,-0.008080987
0.438,0.25,0.2403878424719101,-0.010891355197752809,0.400000006,0.341755509,0.03286784334382022,1.539999962,1.501078486,-0.008008348914606741
0.44,0.25,0.24076633470490832,0.010917351987817858,0.400000006,0.341755509,0.01106292137823773,1.539999962,1.501078486,0.008027464200236546
0.442,0.25,0.24039426857343824,-0.010990143,0.400000006,0.341755509,0.010990143,1.539999962,1.501078486,0.007391253478779208
0.444,0.25,0.24075940608876162,-0.010990143,0.400000006,0.341755509,0.010518125405153901,1.539999962,1.501078486,-0.02389314547530422
0.446,0.25,0.24039457799881545,-0.010016450325396825,0.400000006,0.341755509,-0.010990143,1.539999962,1.501078486,-0.008080987
0.448,0.25,0.240767598,0.032966614,0.400000006,0.341755509,-0.010641997467309754,1.539999962,1.501078486,-0.008080987
0.45,0.25,0.240767598,0.03264270657457847,0.400000006,0.341755509,0.01131405042542153,1.539999962,1.501078486,-0.008080987
0.452,0.25,0.24076905538299903,0.010990143,0.400000006,0.341755509,0.03288265422540592,1.539999962,1.501078486,-0.008142722128939827
0.454,0.25,0.24114703962353776,0.010990143,0.400000006,0.341755509,0.010990143,1.539999962,1.5010769945129385,-0.024154234437079047
0.456,0.25,0.24076890517594235,0.010990143,0.400000006,0.341755509,0.010990143,1.539999962,1.5007989481805506,-0.008136359318326833
0.458,0.25,0.241149068,0.010990143,0.400000006,0.341755509,-0.010990143,1.539999962,1.501078486,-0.00807905398074393
0.46,0.25,0.241149068,0.010990143,0.400000006,0.341755509,-0.010913959386518466,1.539999962,1.501078486,0.008080987
0.462,0.25,0.241149068,0.010990143,0.400000006,0.341755509,0.011121189338700061,1.539999962,1.501078486,0.007984612676803816
0.464,0.25,0.241149068,0.011126501661840746,0.400000006,0.341755509,0.032693873005170626,1.539999962,1.501078486,-0.008181250722854187
0.466,0.25,0.241149068,0.032310072294840855,0.400000006,0.341755509,-0.009676945617488227,1.539999962,1.501078486,-0.02375740574181317
0.468,0.25,0.241149068,-0.010582937547537787,0.400000006,0.341755509,0.010786522603120432,1.539999962,1.501078486,-0.008230681895173085
0.47,0.25,0.241149068,-0.011273236853530535,0.400000006,0.341755509,0.03268352014646946,1.539999962,1.501078486,-0.008080987
0.472,0.25,0.241149068,-0.032966614,0.400000006,0.341755509,0.010990143,1.539999962,1.501078486,-0.008080987
0.474,0.25,0.241149068,-0.031954848454263565,0.400000006,0.341755509,0.010990143,1.539999962,1.501078486,-0.008080987
0.476,0.25,0.241149068,0.01047385394050316,0.400000006,0.341755509,0.010990143,1.539999962,1.501078486,-0.008080987
0.478,0.25,0.24115800870312498,-0.009959906507812501,0.400000006,0.341755509,0.010990143,1.539999962,1.501078486,-0.008459717546874999
0.48,0.25,0.241530538,0.032966614,0.400000006,0.341755509,0.011356022682476943,1.539999962,1.501078486,-0.02397112781925979
0.482,0.25,0.241530538,0.03343234210310132,0.400000006,0.341755509,0.03250096670963541,1.539999962,1.5010725426618134,-0.008080987
0.484,0.25,0.241530538,0.054330924675459254,0.400000006,0.341755509,0.010990143,1.539999962,1.5008019176854686,-0.008307428501413094
0.486,0.25,0.24153126965955404,0.010990143,0.400000006,0.341755509,0.010990143,1.539999962,1.501078486,-0.024209163626708222
0.488,0.25,0.241912007,0.010990143,0.400000006,0.341755509,0.010826994702142944,1.539999962,1.501078486,-0.007961025023704058
0.49,0.25,0.241912007,0.010990143,0.400000006,0.341755509,-0.010734345822942644,1.539999962,1.5010752216724854,0.007704847335827099
0.492,0.25,0.241912007,0.010990143,0.400000006,0.341755509,0.010990143,1.539999962,1.5008001948633272,-0.024240157
0.494,0.25,0.241912007,0.010990143,0.400000006,0.341755509,0.010990143,1.539999962,1.501078486,-0.024112365283094555
0.496,0.25,0.241912007,0.010990143,0.400000006,0.341755509,0.010990143,1.539999962,1.501078486,-0.008575485382808019
0.498,0.25,0.241912007,0.010990143,0.400000006,0.341755509,0.010990143,1.539999962,1.501078486,-0.008080987
0.5,0.25,0.241912007,-0.010990143,0.400000006,0.341755509,-0.010019703023501485,1.539999962,1.501078486,-0.008080987
0.502,0.25,0.241912007,-0.010595145647657843,0.400000006,0.341755509,0.03257168520522343,1.539999962,1.501078486,-0.008080987
0.504,0.25,0.241912007,0.010990143,0.400000006,0.341755509,0.010990143,1.539999962,1.501078486,-0.008080987
0.506,0.25,0.241912007,0.010593985177170457,0.400000006,0.341755509,0.010990143,1.539999962,1.501078486,-0.007789694501236895
0.508,0.25,0.241912007,-0.01085360317536734,0.400000006,0.341755509,0.010990143,1.539999962,1.501078486,0.007980590076334965
0.51,0.25,0.24191518932630202,0.010990143,0.400000006,0.341755509,0.010806777486950305,1.539999962,1.501078486,-0.008080987
0.512,0.25,0.2422904607255814,0.010816345389767442,0.400000006,0.341755509,-0.010642577944651163,1.539999962,1.501078486,-0.008080987
0.514,0.25,0.24191839440465118,-0.010622101001860465,0.400000006,0.341755509,0.03223059388279069,1.539999962,1.501078486,-0.008080987
0.516,0.25,0.24191378658492824,-0.010990143,0.400000006,0.341755509,0.010990143,1.539999962,1.501078486,-0.008080987
0.518,0.25,0.242293477,-0.010813605099976026,0.400000006,0.341755509,0.010813605099976026,1.539999962,1.501078486,-0.008080987
0.52,0.25,0.242293477,0.011587908738279853,0.400000006,0.341755509,-0.010691234184062986,1.539999962,1.501078486,-0.007861201119527615
0.522,0.25,0.242293477,0.054002918441660705,0.400000006,0.341755509,0.01130476677952756,1.539999962,1.501078486,0.007849605840372226
0.524,0.25,0.242293477,-0.010990143,0.400000006,0.341755509,0.03263751543261231,1.539999962,1.501078486,-0.007838960767054908
0.526,0.25,0.242293477,-0.010990143,0.400000006,0.341755509,0.010990143,1.539999962,1.501078486,0.007885961985185186
0.528,0.25,0.242293477,-0.01068503781550029,0.400000006,0.341755509,0.010990143,1.539999962,1.501078486,-0.008305290111625216
0.53,0.25,0.242293477,0.010641814581029498,0.400000006,0.341755509,0.010990143,1.539999962,1.501078486,-0.023984077614227876
0.532,0.25,0.242293477,-0.010906438471617281,0.400000006,0.341755509,0.010990143,1.539999962,1.5007990551861239,-0.02411707279102701
0.534,0.25,0.242293477,0.011035416873848765,0.400000006,0.341755509,0.010990143,1.539999962,1.501078486,0.008014401996606883
0.536,0.25,0.242293477,0.03215794829960578,0.400000006,0.341755509,0.010990143,1.539999962,1.501078486,-0.02394287923390276
0.538,0.25,0.242293477,-0.010990143,0.400000006,0.341755509,0.010990143,1.539999962,1.501078486,-0.008080987
0.54,0.25,0.242293477,-0.010990143,0.400000006,0.341755509,0.010990143,1.539999962,1.501078486,-0.007707054625998807
0.542,0.25,0.242293477,-0.010990143,0.400000006,0.341755509,0.010990143,1.539999962,1.501078486,0.007325606155807365
0.544,0.25,0.242293477,-0.010990143,0.400000006,0.341755509,0.010990143,1.539999962,1.501078486,-0.024021140785518962
0.546,0.25,0.242293477,-0.010750519073942411,0.400000006,0.341755509,0.010990143,1.539999962,1.501078486,-0.008080987
0.548,0.25,0.242293477,0.0108823965,0.400000006,0.341755509,0.010990143,1.539999962,1.501079861,-0.007922550019607844
0.55,0.25,0.242293477,-0.010636118785714289,0.400000006,0.341755509,0.010990143,1.539999962,1.5013544681428572,0.023719578350140054
0.552,0.25,0.2426739878441092,0.010934876476293104,0.400000006,0.341755509,-0.010990143,1.539999962,1.5010777807223419,-0.02428079415229885
0.554,0.25,0.242293477,-0.010990143,0.400000006,0.341755509,-0.010841451295513886,1.539999962,1.5007998845128174,-0.040183487697127936
0.556,0.25,0.24229440492507906,-0.010990143,0.400000006,0.341755509,0.010990143,1.539999962,1.501078486,-0.008041673027730479
0.558,0.25,0.242674947,-0.010502908115931723,0.400000006,0.341755509,0.01147729331733049,1.539999962,1.501078486,0.007722726077999051
0.56,0.25,0.24266858535272945,0.010623585141091782,0.400000006,0.341755509,0.032600119762567485,1.539999962,1.501078486,-0.0078114591792441505
0.562,0.25,0.24230224694758787,-0.010990143,0.400000006,0.341755509,0.010990143,1.539999962,1.501078486,0.007709425239189994
0.564,0.25,0.24266678580607315,-0.010990143,0.400000006,0.341755509,0.010990143,1.539999962,1.501078486,-0.008080987
0.566,0.25,0.24229869840901772,-0.010990143,0.400000006,0.341755509,0.010990143,1.539999962,1.501078486,-0.008080987
0.568,0.25,0.242674947,0.010990143,0.400000006,0.341755509,0.010990143,1.539999962,1.501078486,0.007986393506688963
0.57,0.25,0.242674947,0.01082459044032445,0.400000006,0.341755509,0.010990143,1.539999962,1.501078486,-0.008080987
0.572,0.25,0.242674947,-0.010541877607647743,0.400000006,0.341755509,0.010990143,1.539999962,1.501078486,-0.008080987
0.574,0.25,0.242674947,-0.010990143,0.400000006,0.341755509,0.010990143,1.539999962,1.501078486,-0.008080987
0.576,0.25,0.242674947,-0.010990143,0.400000006,0.341755509,0.010990143,1.539999962,1.501078486,-0.008080987
0.578,0.25,0.242674947,-0.010990143,0.400000006,0.341755509,0.011223218935658733,1.539999962,1.501078486,-0.008080987
0.58,0.25,0.242674947,-0.010990143,0.400000006,0.341755509,0.032945896139052556,1.539999962,1.501078486,-0.008080987
0.582,0.25,0.242674947,-0.010990143,0.400000006,0.341755509,0.010717454255636407,1.539999962,1.501078486,-0.02403968536931886
0.584,0.25,0.242674947,-0.01070522295993401,0.400000006,0.341755509,-0.010990143,1.539999962,1.501078486,-0.008080987
0.586,0.25,0.242674947,0.010990143,0.400000006,0.341755509,-0.010926499046814673,1.539999962,1.501078486,-0.008057586458494208
0.588,0.25,0.242674947,0.010990143,0.400000006,0.341755509,0.03267328288459721,1.539999962,1.501078486,0.007865264927947082
0.59,0.25,0.242674947,0.010898098251256282,0.400000006,0.341755509,0.010990143,1.539999962,1.501078486,-0.008148655216080401
0.592,0.25,0.242674947,-0.010990143,0.400000006,0.341755509,0.010990143,1.539999962,1.501078486,-0.02398575085760286
0.594,0.25,0.242674947,-0.010990143,0.400000006,0.341755509,0.010990143,1.539999962,1.501078486,0.008080987
0.596,0.25,0.242674947,-0.010990143,0.400000006,0.341755509,0.010990143,1.539999962,1.501078486,0.008080987
0.598,0.25,0.242674947,-0.010990143,0.400000006,0.341755509,0.010990143,1.539999962,1.501078486,-0.008169183703844328
0.6,0.25,0.242674947,-0.011006054527211295,0.400000006,0.341755509,0.010990143,1.539999962,1.501078282911548,-0.024240157
0.602,0.25,0.242674947,-0.03240017446342918,0.400000006,0.341755509,0.010990143,1.539999962,1.5008016015915762,-0.023823657351748
0.604,0.25,0.242674947,0.01038563988061648,0.400000006,0.341755509,0.010990143,1.539999962,1.501078486,0.007858723931357439
0.606,0.25,0.242674947,-0.03278318875517116,0.400000006,0.341755509,0.010990143,1.539999962,1.501078486,-0.008215858504778033
0.608,0.25,0.242674947,-0.010990143,0.400000006,0.341755509,0.010990143,1.539999962,1.501078486,-0.023872246465967337
0.61,0.25,0.242674947,-0.010990143,0.400000006,0.341755509,0.010990143,1.539999962,1.501078486,-0.008080987
0.612,0.25,0.242674947,-0.010990143,0.400000006,0.341755509,0.010990143,1.539999962,1.501078486,-0.008080987
0.614,0.25,0.242674947,-0.010990143,0.400000006,0.341755509,0.010990143,1.539999962,1.501078486,-0.008080987
0.616,0.25,0.242674947,-0.010990143,0.400000006,0.341755509,0.010990143,1.539999962,1.501078486,-0.008080987
0.618,0.25,0.242674947,0.01072519385499463,0.400000006,0.341755509,-0.01072519385499463,1.539999962,1.501078486,-0.008275768736484067
0.62,0.25,0.242674947,-0.010990143,0.400000006,0.341755509,0.010990143,1.539999962,1.501078486,-0.024029301875444838
0.622,0.25,0.242674947,-0.010990143,0.400000006,0.341755509,0.010808248093067883,1.539999962,1.501078486,-0.00821471004269609
0.624,0.25,0.242674947,-0.011304654212880143,0.400000006,0.341755509,-0.01067557718962433,1.539999962,1.501078486,-0.023777600377459747
0.626,0.25,0.242674947,-0.03232623959386474,0.400000006,0.341755509,0.01131030241407083,1.539999962,1.501078486,0.007845534814520905
0.628,0.25,0.242674947,0.010814849457004162,0.400000006,0.341755509,0.0326160573387656,1.539999962,1.501078486,-0.00820985694105409
0.63,0.25,0.242674947,-0.01049728869070735,0.400000006,0.341755509,-0.010004519923485902,1.539999962,1.501078486,-0.02387782702080444
0.632,0.25,0.242674947,-0.01146977259964222,0.400000006,0.341755509,-0.010510430139177103,1.539999962,1.501078486,-0.008080987
0.634,0.25,0.242674947,-0.03198700327910857,0.400000006,0.341755509,0.010990143,1.539999962,1.501078486,-0.008441106746156595
0.636,0.25,0.242674947,0.010507636125268434,0.400000006,0.341755509,0.010990143,1.539999962,1.501078486,-0.02388543410808876
0.638,0.25,0.242674947,-0.010990143,0.400000006,0.341755509,0.010990143,1.539999962,1.501078486,-0.007345890726601571
0.64,0.25,0.242674947,-0.010990143,0.400000006,0.341755509,0.011459813939643026,1.539999962,1.501078486,0.023549404509628932
0.642,0.25,0.242674947,-0.010990143,0.400000006,0.341755509,0.03268342802075877,1.539999962,1.501078486,-0.007976865478167502
0.644,0.25,0.242674947,-0.010830751957917262,0.400000006,0.341755509,-0.010830751957917262,1.539999962,1.501078486,0.007963787711602471
0.646,0.25,0.242674947,0.010893117161059413,0.400000006,0.341755509,0.010990143,1.539999962,1.501078486,-0.008080987
0.648,0.25,0.242674947,-0.010874967034297965,0.400000006,0.341755509,0.010874967034297965,1.539999962,1.501078486,-0.008080987
0.65,0.25,0.242674947,0.010990143,0.400000006,0.341755509,-0.010895229926232458,1.539999962,1.501078486,-0.008080987
0.652,0.25,0.242674947,0.010762895836363638,0.400000006,0.341755509,0.010990143,1.539999962,1.501078486,-0.008248051502673796
0.654,0.25,0.242674947,-0.011150229545378554,0.400000006,0.341755509,0.010990143,1.539999962,1.501078486,-0.02400471518199188
0.656,0.25,0.242674947,-0.03257325321071471,0.400000006,0.341755509,0.010990143,1.539999962,1.501078486,0.008080987
0.658,0.25,0.242674947,0.010773008539395383,0.400000006,0.341755509,0.010990143,1.539999962,1.501078486,0.007921329318257557
0.66,0.25,0.242674947,-0.011173171312908984,0.400000006,0.341755509,0.010990143,1.539999962,1.501078486,-0.008080987
0.662,0.25,0.242674947,-0.032830449286064996,0.400000006,0.341755509,0.011126307713935002,1.539999962,1.501078486,-0.007980848512508767
0.664,0.25,0.242674947,-0.01127788730114566,0.400000006,0.341755509,0.032678869698854335,1.539999962,1.501078486,0.007869373592471357
0.666,0.25,0.242674947,-0.03271304780170652,0.400000006,0.341755509,0.010990143,1.539999962,1.501078486,-0.024146942222929936
0.668,0.25,0.242674947,0.01038275957986897,0.400000006,0.341755509,0.010686424932578917,1.539999962,1.501078486,-0.007857664905419892
0.67,0.25,0.242674947,-0.03268046203385416,0.400000006,0.341755509,-0.010990143,1.539999962,1.501078486,0.007870544630208334
0.672,0.25,0.242674947,-0.011120753192559136,0.400000006,0.341755509,-0.010859510134197076,1.539999962,1.5010768189430643,-0.008177023907167479
0.674,0.25,0.242674947,-0.0328982334056965,0.400000006,0.341755509,0.010990143,1.539999962,1.5007988597829103,-0.02418987715078985
0.676,0.25,0.242674947,-0.010835536791845495,0.400000006,0.341755509,0.010990143,1.539999962,1.501078486,-0.008194648305436337
0.678,0.25,0.242674947,0.010838306344573235,0.400000006,0.341755509,0.010838306344573235,1.539999962,1.501078486,-0.024240157
0.68,0.25,0.242674947,-0.010750807255005268,0.400000006,0.341755509,-0.010750807255005268,1.539999962,1.501078486,-0.024240157
0.682,0.25,0.242674947,-0.010990143,0.400000006,0.341755509,-0.010990143,1.539999962,1.501078486,-0.008446553235418874
0.684,0.25,0.242674947,-0.010990143,0.400000006,0.341755509,0.010920644345494345,1.539999962,1.501078486,-0.024189063917183513
0.686,0.25,0.242674947,-0.010990143,0.400000006,0.341755509,0.010990143,1.539999962,1.501078486,0.0076570778739716225
0.688,0.25,0.242674947,-0.010990143,0.400000006,0.341755509,0.010990143,1.539999962,1.501078486,-0.02380884574921856
0.69,0.25,0.242674947,-0.010990143,0.400000006,0.341755509,0.010990143,1.539999962,1.501078486,0.008080987
0.692,0.25,0.242674947,-0.010990143,0.400000006,0.341755509,0.010990143,1.539999962,1.501078486,0.00770763346868302
0.694,0.25,0.242674947,-0.010990143,0.400000006,0.341755509,0.010503853486725664,1.539999962,1.501078486,-0.007723421203539822
0.696,0.25,0.242674947,-0.010990143,0.400000006,0.341755509,-0.01044861823160953,1.539999962,1.501078486,0.007284696177454968
0.698,0.25,0.242674947,-0.010990143,0.400000006,0.341755509,0.010977371189424753,1.539999962,1.501078486,-0.024221376556072045
0.7,0.25,0.242674947,-0.010990143,0.400000006,0.341755509,0.010990143,1.539999962,1.501078486,-0.024240157
0.702,0.25,0.24267508397307003,-0.05492322322190305,0.400000006,0.341755509,0.032958722987073606,1.539999962,1.501078486,-0.024228551562298025
0.704,0.25,0.24305470284041777,0.010891373194073356,0.400000006,0.341755509,0.010990143,1.539999962,1.501078486,0.008008362147194558
0.706,0.25,0.242674947,-0.010487137646960668,0.400000006,0.341755509,0.010990143,1.539999962,1.501078486,-0.008080987
0.708,0.25,0.242674947,0.009994341899487303,0.400000006,0.341755509,0.010990143,1.539999962,1.501078486,-0.008080987
0.71,0.25,0.242674947,-0.03246387571428571,0.400000006,0.341755509,0.010990143,1.539999962,1.501078486,-0.008080987
0.712,0.25,0.2426834585010142,-0.010009363432048682,0.400000006,0.341755509,0.010990143,1.539999962,1.501078486,-0.008441536432048681
0.714,0.25,0.243056417,0.03246492682545071,0.400000006,0.341755509,0.010990143,1.539999962,1.501078486,-0.02387126936829782
0.716,0.25,0.2430545132761407,0.010880450508079849,0.400000006,0.341755509,0.010990143,1.539999962,1.501078486,-0.008080987
0.718,0.25,0.242674947,-0.011027100428708709,0.400000006,0.341755509,0.010953179155675676,1.539999962,1.501078486,-0.008053807704384384
0.72,0.25,0.242674947,-0.0325606671558134,0.400000006,0.341755509,-0.010584196155813404,1.539999962,1.501078486,0.007931728892967085
0.722,0.25,0.242674947,0.010883309224328595,0.400000006,0.341755509,0.032913201748207555,1.539999962,1.501078486,-0.008120260714910682
0.724,0.25,0.242674947,-0.03249490343715716,0.400000006,0.341755509,0.011461853562842834,1.539999962,1.501078486,-0.02389331099475316
0.726,0.25,0.24268327147054616,-0.010510487343191034,0.400000006,0.341755509,0.03248704159444312,1.539999962,1.501078486,-0.008080987
0.728,0.25,0.24304800756839848,0.010505591890610106,0.400000006,0.341755509,0.010990143,1.539999962,1.501078486,-0.00843721274475691
0.73,0.25,0.242674947,-0.010516945454222854,0.400000006,0.341755509,0.010990143,1.539999962,1.501078486,-0.023544338664537496
0.732,0.25,0.242674947,0.010378688884080372,0.400000006,0.341755509,0.010990143,1.539999962,1.501078486,0.008080987
0.734,0.25,0.242674947,-0.032719657840526,0.400000006,0.341755509,0.010990143,1.539999962,1.501078486,0.008080987
0.736,0.25,0.242674947,-0.011298419697337138,0.400000006,0.341755509,0.010990143,1.539999962,1.501078486,0.007854273622444128
0.738,0.25,0.242674947,-0.032474189359551896,0.400000006,0.341755509,0.010743909311047552,1.539999962,1.501078486,-0.007899932828149207
0.74,0.25,0.242674947,0.010748428164714321,0.400000006,0.341755509,-0.010748428164714321,1.539999962,1.501078486,0.007725554864212288
0.742,0.25,0.242674947,-0.01068872004626759,0.400000006,0.341755509,0.010990143,1.539999962,1.501078486,-0.024461791538516575
0.744,0.25,0.242674947,0.01007943187805454,0.400000006,0.341755509,0.010990143,1.539999962,1.501078486,-0.039955718871561796
0.746,0.25,0.242674947,-0.054766938015089486,0.400000006,0.341755509,0.010990143,1.539999962,1.501078486,-0.008147143386711896
0.748,0.25,0.242674947,-0.011638002545677859,0.400000006,0.341755509,0.010990143,1.539999962,1.501078486,-0.024001994007837174
0.75,0.25,0.242674947,-0.010990143,0.400000006,0.341755509,0.010990143,1.539999962,1.501078486,0.008030216715804735
0.752,0.25,0.242674947,-0.010990143,0.400000006,0.341755509,0.011197122161778733,1.539999962,1.501078486,-0.02393574946828803
0.754,0.25,0.242674947,-0.011197616853847993,0.400000006,0.341755509,0.03255163027593212,1.539999962,1.501078486,0.008080987
0.756,0.25,0.242674947,-0.03270492703881876,0.400000006,0.341755509,-0.010728410611336033,1.539999962,1.501078486,0.007696119841152655
0.758,0.25,0.242674947,-0.010990143,0.400000006,0.341755509,0.010755561505869798,1.539999962,1.501078486,-0.024240157
0.76,0.25,0.242674947,-0.010990143,0.400000006,0.341755509,-0.010870074937299608,1.539999962,1.501078486,-0.024063601647429045
0.762,0.25,0.24267557177538607,-0.010954143467477773,0.400000006,0.341755509,0.010990143,1.539999962,1.501078486,0.008054516757136173
0.764,0.25,0.2430499014852597,0.01061471930369677,0.400000006,0.341755509,0.010990143,1.539999962,1.501078486,-0.00780494018156294
0.766,0.25,0.24304885411692345,-0.011425840382777977,0.400000006,0.341755509,0.011425840382777977,1.539999962,1.501078486,-0.023919791274453598
0.768,0.25,0.242674947,-0.03249126251206979,0.400000006,0.341755509,0.032015828505616635,1.539999962,1.501078486,-0.008080987
0.77,0.25,0.242674947,-0.011518059178142467,0.400000006,0.341755509,-0.010990143,1.539999962,1.501078486,-0.008469160663931502
0.772,0.25,0.242674947,-0.03248983277196328,0.400000006,0.341755509,-0.010513279005244965,1.539999962,1.501078486,-0.02388958256442961
0.774,0.25,0.24268317460605338,-0.01051606867135367,0.400000006,0.341755509,0.010990143,1.539999962,1.501078486,-0.008429510566491896
0.776,0.25,0.24304832383432656,0.010523815120619786,0.400000006,0.341755509,0.010523815120619786,1.539999962,1.501078486,-0.023554440238140642
0.778,0.25,0.242674947,-0.010990143,0.400000006,0.341755509,-0.010082072739845939,1.539999962,1.501078486,0.007747108685574229
0.78,0.25,0.242674947,-0.010990143,0.400000006,0.341755509,0.032951222978641455,1.539999962,1.501078486,-0.008075328045518209
0.782,0.25,0.242674947,-0.032966614,0.400000006,0.341755509,-0.010990143,1.539999962,1.501078486,0.008080987
0.784,0.25,0.242674947,-0.032966614,0.400000006,0.341755509,0.01095612993988811,1.539999962,1.501078486,-0.008055977398523985
0.786,0.25,0.24267635581224684,-0.010908967295210866,0.400000006,0.341755509,0.011071304615558733,1.539999962,1.501078486,0.00802129898546581
0.788,0.25,0.24305523794388967,0.010922205834522112,0.400000006,0.341755509,0.03289868862601046,1.539999962,1.501078486,-0.008080987
0.79,0.25,0.24267503816262398,-0.010990143,0.400000006,0.341755509,0.010990143,1.539999962,1.501078486,-0.008080987
0.792,0.25,0.24305541492955224,-0.011047872237253733,0.400000006,0.341755509,0.010990143,1.539999962,1.501078486,-0.008080987
0.794,0.25,0.24267651591304348,-0.03287622898413631,0.400000006,0.341755509,0.010990143,1.539999962,1.501078486,-0.008147446571092832
0.796,0.25,0.24305256195652172,-0.01121223189612221,0.400000006,0.341755509,0.010990143,1.539999962,1.501078486,-0.024076856339600473
0.798,0.25,0.24267609214289146,-0.010990143,0.400000006,0.341755509,0.010990143,1.539999962,1.501078486,-0.0081294955554755
0.8,0.25,0.2426792352300885,-0.010743055355417365,0.400000006,0.341755509,-0.010743055355417365,1.539999962,1.501078486,-0.008080987
0.802,0.25,0.24305096549769695,0.010676027657375695,0.400000006,0.341755509,0.011304203823314044,1.539999962,1.501078486,-0.008080987
0.804,0.25,0.2426768750072202,-0.010990143,0.400000006,0.341755509,0.0328555415833935,1.539999962,1.501078486,-0.007999301932851985
0.806,0.25,0.243056417,-0.010990143,0.400000006,0.341755509,0.010675916321597353,1.539999962,1.501078486,0.0078499379860586
0.808,0.25,0.24305432151158346,-0.010990143,0.400000006,0.341755509,-0.010869401042034871,1.539999962,1.501078486,-0.007992206154048245
0.81,0.25,0.24267767275919971,-0.010990143,0.400000006,0.341755509,0.010990143,1.539999962,1.501078486,0.0078500392043587
0.812,0.25,0.243056417,-0.010990143,0.400000006,0.341755509,0.010990143,1.539999962,1.501078486,-0.024142404924616098
0.814,0.25,0.243056417,-0.010990143,0.400000006,0.341755509,0.010990143,1.539999962,1.501078486,-0.008374243226151698
0.816,0.25,0.24305487240312015,-0.010990143,0.400000006,0.341755509,0.010990143,1.539999962,1.501078486,-0.008080987
0.818,0.25,0.242674947,-0.010990143,0.400000006,0.341755509,0.010990143,1.539999962,1.501078486,-0.008080987
0.82,0.25,0.242674947,-0.010990143,0.400000006,0.341755509,0.010990143,1.539999962,1.501078486,-0.008080987
0.822,0.25,0.24305545864732622,-0.011045353658093074,0.400000006,0.341755509,-0.010879712099533438,1.539999962,1.501078486,-0.00804038388311999
0.824,0.25,0.24267722388910112,-0.032704248254506386,0.400000006,0.341755509,0.03283544251259401,1.539999962,1.5010768117789184,0.00788807101575743
0.826,0.25,0.243056417,0.010990143,0.400000006,0.341755509,0.011152311674363247,1.539999962,1.5008000568569386,-0.024120915326588905
0.828,0.25,0.24305422464367815,0.01086381951724138,0.400000006,0.341755509,0.03284031244252873,1.539999962,1.501078486,-0.008173855793103448
0.83,0.25,0.24267892903495192,-0.010760698306826182,0.400000006,0.341755509,0.011219547869692703,1.539999962,1.501078486,-0.02407147694722027
0.832,0.25,0.24305559150589084,-0.010990143,0.400000006,0.341755509,0.010990143,1.539999962,1.501078486,-0.00811595514859341
0.834,0.25,0.24267681115613826,-0.03275180744016686,0.400000006,0.341755509,0.010990143,1.539999962,1.501078486,-0.024240157
0.836,0.25,0.2430546310060024,0.010784343057262906,0.400000006,0.341755509,0.010990143,1.539999962,1.501078486,-0.024088833516686673
0.838,0.25,0.242674947,-0.03270933360840998,0.400000006,0.341755509,0.010732817945884602,1.539999962,1.501078486,0.00789177741309282
0.84,0.25,0.24268014537066004,-0.010990143,0.400000006,0.341755509,-0.010391135172650789,1.539999962,1.501078486,-0.008301191354781372
0.842,0.25,0.24305346514880952,-0.010990143,0.400000006,0.341755509,0.032626472427976186,1.539999962,1.501078486,-0.023990052909523808
0.844,0.25,0.242674947,-0.01113150445729601,0.400000006,0.341755509,-0.010848757003097082,1.539999962,1.501078486,0.008080987
0.846,0.25,0.24267708702029125,-0.032596733155407016,0.400000006,0.341755509,0.010990143,1.539999962,1.501078486,0.007990319444736214
0.848,0.25,0.243056417,0.032513196022290726,0.400000006,0.341755509,0.011141273580744605,1.539999962,1.501078486,-0.008080987
0.85,0.25,0.243056417,-0.032935038610632184,0.400000006,0.341755509,0.032935038610632184,1.539999962,1.501078486,-0.008080987
0.852,0.25,0.243056417,-0.010990143,0.400000006,0.341755509,0.010990143,1.539999962,1.501078486,-0.008175114357346648
0.854,0.25,0.243056417,-0.010990143,0.400000006,0.341755509,0.010990143,1.539999962,1.501078486,-0.0241398167320597
0.856,0.25,0.24305464820556413,-0.010990143,0.400000006,0.341755509,0.011092043174652242,1.539999962,1.501078486,0.007931120799072643
0.858,0.25,0.24267572345953065,-0.010990143,0.400000006,0.341755509,0.03287714263158525,1.539999962,1.501078486,-0.024207265969109194
0.86,0.25,0.243056417,-0.010990143,0.400000006,0.341755509,-0.010990143,1.539999962,1.501078486,-0.008183028702609316
0.862,0.25,0.2430541717111111,-0.010990143,0.400000006,0.341755509,-0.010860769544864866,1.539999962,1.501078486,-0.024049918434714712
0.864,0.25,0.242674947,-0.011283093480476585,0.400000006,0.341755509,0.010990143,1.539999962,1.501078486,0.00786554485513743
0.866,0.25,0.24267604265342269,-0.032840361945428435,0.400000006,0.341755509,0.010990143,1.539999962,1.501078486,-0.008080987
0.868,0.25,0.243056417,0.01084111524907815,0.400000006,0.341755509,0.010990143,1.539999962,1.501078486,-0.007971407778161056
0.87,0.25,0.24305468780281522,-0.011089761978647264,0.400000006,0.341755509,0.010990143,1.539999962,1.501078486,0.007934475790170583
0.872,0.25,0.242676958345716,-0.03285074045608148,0.400000006,0.341755509,0.010990143,1.539999962,1.501078486,-0.024154955863990413
0.874,0.25,0.24305241349850923,-0.010990143,0.400000006,0.341755509,0.01075946140572451,1.539999962,1.501078486,-0.008080987
0.876,0.25,0.24267909589088085,-0.010990143,0.400000006,0.341755509,-0.010751084074937254,1.539999962,1.501078486,-0.008256735114019361
0.878,0.25,0.243056417,-0.010693112108108109,0.400000006,0.341755509,0.010693112108108109,1.539999962,1.501078486,-0.024240157
0.88,0.25,0.24305006823632905,0.0106243274935806,0.400000006,0.341755509,-0.0106243274935806,1.539999962,1.501078486,-0.02397122169329529
0.882,0.25,0.242674947,-0.010990143,0.400000006,0.341755509,0.011293953110356334,1.539999962,1.501078486,-0.008080987
0.884,0.25,0.242674947,-0.010990143,0.400000006,0.341755509,0.03266765007470167,1.539999962,1.501078486,-0.007861122437231503
0.886,0.25,0.242674947,-0.010990143,0.400000006,0.341755509,0.011309591285714286,1.539999962,1.501078486,0.0076111693462409145
0.888,0.25,0.24268028414251838,-0.010990143,0.400000006,0.341755509,0.03265914143917477,1.539999962,1.501078486,-0.023787952234526913
0.89,0.25,0.2430531046043773,-0.011180969975496611,0.400000006,0.341755509,0.010990143,1.539999962,1.501078486,0.007940648698346615
0.892,0.25,0.24267740545327604,-0.032824982607948444,0.400000006,0.341755509,0.010990143,1.539999962,1.501078486,-0.008185127730397422
0.894,0.25,0.243056417,-0.010990143,0.400000006,0.341755509,0.011158122713842112,1.539999962,1.501078486,-0.024116642503403795
0.896,0.25,0.243056417,-0.010990143,0.400000006,0.341755509,0.03275933830647087,1.539999962,1.5010758404148759,-0.0082333955995702
0.898,0.25,0.24305222101243423,-0.011231873670970827,0.400000006,0.341755509,0.011231873670970827,1.539999962,1.500801072354854,-0.024062413857962695
0.9,0.25,0.242674947,-0.032660622436629774,0.400000006,0.341755509,0.032660622436629774,1.539999962,1.501078486,-0.007855954159585862
0.902,0.25,0.242674947,-0.011257700894724278,0.400000006,0.341755509,0.010990143,1.539999962,1.501078486,0.007687485366197183
0.904,0.25,0.2426800915411147,-0.03267023719811433,0.400000006,0.341755509,0.011286519801885667,1.539999962,1.501078486,-0.024240157
0.906,0.25,0.243056417,-0.010670448806866954,0.400000006,0.341755509,0.032646975294468285,1.539999962,1.501078486,-0.0240051285379113
0.908,0.25,0.243056417,0.01067106177988906,0.400000006,0.341755509,0.010990143,1.539999962,1.501078486,-0.007846368470317479
0.91,0.25,0.243056417,-0.010990143,0.400000006,0.341755509,0.010887787041313433,1.539999962,1.501078486,0.008005725270328357
0.912,0.25,0.24305404846985074,-0.011126593924417911,0.400000006,0.341755509,-0.010853668388417911,1.539999962,1.501078486,-0.008080987
0.914,0.25,0.24267794283769634,-0.032794023913612566,0.400000006,0.341755509,0.011162733086387435,1.539999962,1.501078486,-0.00820789147643979
0.916,0.25,0.243056417,-0.010858571792050761,0.400000006,0.341755509,0.03283506562815754,1.539999962,1.501078486,-0.024046686725846998
0.918,0.25,0.24305250215274463,0.010539035469928402,0.400000006,0.341755509,0.011215677189260144,1.539999962,1.501078486,0.007915124259665871
0.92,0.25,0.242674947,-0.03271700080714969,0.400000006,0.341755509,0.03271700080714969,1.539999962,1.501078486,-0.008080987
0.922,0.25,0.24268036082587954,-0.010990143,0.400000006,0.341755509,0.010990143,1.539999962,1.501078486,-0.008080987
0.924,0.25,0.2430508225311792,-0.010990143,0.400000006,0.341755509,0.010990143,1.539999962,1.501078486,-0.008080987
0.926,0.25,0.24268058537649284,-0.010665259974104294,0.400000006,0.341755509,0.010990143,1.539999962,1.501078486,-0.008080987
0.928,0.25,0.243056417,0.010990143,0.400000006,0.341755509,0.010990143,1.539999962,1.501078486,-0.007972905970145688
0.93,0.25,0.243056417,0.010990143,0.400000006,0.341755509,0.010990143,1.539999962,1.501078486,0.007808800874510734
0.932,0.25,0.243056417,0.010916674215470934,0.400000006,0.341755509,0.010990143,1.539999962,1.501078486,-0.024186145210576576
0.934,0.25,0.24305458058165844,-0.010990143,0.400000006,0.341755509,0.010990143,1.539999962,1.501078486,-0.008080987
0.936,0.25,0.24268038879743223,-0.010990143,0.400000006,0.341755509,0.010990143,1.539999962,1.501078486,-0.008080987
0.938,0.25,0.2430520469379475,-0.011241902094988068,0.400000006,0.341755509,0.010990143,1.539999962,1.501078486,-0.008080987
0.94,0.25,0.2426797301800812,-0.03213988974158108,0.400000006,0.341755509,0.01126570180761882,1.539999962,1.501078486,-0.008080987
0.942,0.25,0.243056417,0.03234315105804529,0.400000006,0.341755509,0.032654909584147795,1.539999962,1.501078486,-0.008080987
0.944,0.25,0.243056417,-0.010990143,0.400000006,0.341755509,0.010680080388164974,1.539999962,1.501078486,-0.008080987
0.946,0.25,0.243056417,-0.010619101557774608,0.400000006,0.341755509,-0.010619101557774608,1.539999962,1.501078486,-0.008353764239657632
0.948,0.25,0.24305109688890203,0.010377107031911123,0.400000006,0.341755509,0.010990143,1.539999962,1.501082397948942,-0.02356403395875192
0.95,0.25,0.24267701483172283,-0.032728337919160966,0.400000006,0.341755509,0.010990143,1.539999962,1.5013574654956399,0.024064954004006597
0.952,0.25,0.24305407945109592,0.010720787430355885,0.400000006,0.341755509,0.010990143,1.539999962,1.5010802048310157,-0.007882931439311805
0.954,0.25,0.2426765077677497,-0.03287669823417569,0.400000006,0.341755509,0.010990143,1.539999962,1.501078486,-0.024240157
0.956,0.25,0.243056417,-0.010990143,0.400000006,0.341755509,0.010990143,1.539999962,1.501078486,-0.024022258884248207
0.958,0.25,0.243056417,-0.010674349292329613,0.400000006,0.341755509,0.010990143,1.539999962,1.501078486,-0.008313147955829969
0.96,0.25,0.24305240392647937,0.010527716865391513,0.400000006,0.341755509,0.010990143,1.539999962,1.501078486,-0.02390013779234907
0.962,0.25,0.24268000048728966,-0.032675482805227356,0.400000006,0.341755509,0.010990143,1.539999962,1.501078486,0.007652815740422484
0.964,0.25,0.243056417,-0.010990143,0.400000006,0.341755509,0.010990143,1.539999962,1.501078486,-0.024240157
0.966,0.25,0.243056417,-0.010990143,0.400000006,0.341755509,0.011087291079689367,1.539999962,1.501078486,-0.02416872458781362
0.968,0.25,0.243056417,-0.01084637849411345,0.400000006,0.341755509,0.032822874446545365,1.539999962,1.501078486,-0.008080987
0.97,0.25,0.243056417,0.010899784765327696,0.400000006,0.341755509,0.010990143,1.539999962,1.501078486,-0.008080987
0.972,0.25,0.243056417,-0.010755211589852008,0.400000006,0.341755509,0.010990143,1.539999962,1.501078486,-0.008080987
0.974,0.25,0.242677880679404,-0.03279760485027637,0.400000006,0.341755509,-0.0108211045111752,1.539999962,1.501078486,-0.02386732113169911
0.976,0.25,0.243056417,-0.010990143,0.400000006,0.341755509,0.0113321384503445,1.539999962,1.501078486,0.02348571162889047
0.978,0.25,0.243056417,-0.010990143,0.400000006,0.341755509,0.03270443309154264,1.539999962,1.501078486,-0.02385456338506969
0.98,0.25,0.24305532278702044,-0.011053180564718539,0.400000006,0.341755509,0.010990143,1.539999962,1.501078486,0.008034627806023664
0.982,0.25,0.24267705684970542,-0.03272349619045329,0.400000006,0.341755509,0.010990143,1.539999962,1.501078486,-0.008080987
0.984,0.25,0.243056417,0.01068446209402116,0.400000006,0.341755509,0.010990143,1.539999962,1.501078486,-0.0083057133627719
0.986,0.25,0.24305221310024885,-0.01123232949164593,0.400000006,0.341755509,0.01123232949164593,1.539999962,1.501078486,-0.02406207869569854
0.988,0.25,0.24267687431143992,-0.03285558166726813,0.400000006,0.341755509,0.03285558166726813,1.539999962,1.501078486,-0.007999331411403824
0.99,0.25,0.243056417,-0.010990143,0.400000006,0.341755509,0.010990143,1.539999962,1.501078486,0.007855426629568302
0.992,0.25,0.243056417,-0.010990143,0.400000006,0.341755509,0.010990143,1.539999962,1.501078486,-0.008181498583732056
0.994,0.25,0.243056417,-0.01078204561775148,0.400000006,0.341755509,0.010990143,1.539999962,1.501078486,-0.023934158003550293
0.996,0.24145309330802242,0.24305555895217237,0.010891270218775898,0.39430206813887236,0.341755509,0.010990143,1.5328775397804268,1.501078486,0.00800828642748905
0.998,-0.050000001,0.24267675341647924,-0.03275846077637031,0.200000003,0.341755509,0.010990143,1.289999962,1.501078486,-0.024087103163134845
1.0,-0.050000001,0.24304703061442903,-0.012071688496177737,0.200000003,0.341755509,0.010990143,1.289999962,1.5010750350447921,0.007484503321070234
1.002,-0.050000001,0.2422274533894231,-0.10936056619711539,0.200000003,0.3417445050721154,0.009722159639423078,1.289999962,1.5007858500096152,-0.042266773913461536
1.004,-0.050000001,0.23750346050651505,-0.8559904721118219,0.200000003,0.3409755796280502,-0.07888116917460318,1.289999962,1.4999002694728736,-0.17760134760459606
1.006,-0.050000001,0.2279504897654469,-2.2801564656310735,0.200000003,0.34020491571925615,-0.16839660753689262,1.289999962,1.497372933569286,-0.5330631891421715
1.008,-0.050000001,0.21371596020910924,-3.976418331904519,0.200000003,0.3386527144039853,-0.3909878733317519,1.289999962,1.493679275751868,-1.0193888069723638
1.01,-0.050000001,0.1981575780131768,-5.366256588615237,0.200000003,0.33640158979276474,-0.670714399313608,1.289999962,1.488938043623862,-1.4369691940318639
1.012,-0.050000001,0.18287741623963516,-6.1907080401696275,0.200000003,0.3356773439742952,-0.6815960686590855,1.289999962,1.4844230360812602,-1.8212559192209192
1.014,-0.050000001,0.1700422396712757,-6.3538501238501865,0.200000003,0.33678420256474695,-0.20808695844318867,1.289999962,1.4796885218993627,-1.9652869510294577
1.016,-0.050000001,0.1605369473518695,-5.785288860504644,0.200000003,0.336033463,-0.16537334224601094,1.289999962,1.4751697126102643,-2.076995003855799
1.018,-0.050000001,0.15565455921981167,-4.6396776981430445,0.200000003,0.3360423301653355,-0.18323722880033375,1.289999962,1.4709476843808558,-2.095764733521397
1.02,-0.050000001,0.153791547,-3.3235454615841182,0.200000003,0.33639719446357463,-0.03501062676201264,1.289999962,1.4658922637177776,-2.2261746884284013
1.022,-0.050000001,0.153791547,-2.124303133779074,0.200000003,0.3356251580789192,-0.12397234121675992,1.289999962,1.460548679056422,-2.4043539360130937
1.024,-0.050000001,0.15377494172912232,-1.344953337065058,0.200000003,0.33448267709368346,-0.25513832047362195,1.289999962,1.4546622449924296,-2.5968959520250765
1.026,-0.050000001,0.15298530676356267,-1.0458277607134852,0.200000003,0.33334152487468705,-0.3645076238430905,1.289999962,1.4485381177074044,-2.7412351508426136
1.028,-0.050000001,0.1498833016802575,-1.1853344337911302,0.200000003,0.33180427895445874,-0.49704315081306627,1.289999962,1.4423650846506915,-2.885780774312232
1.03,-0.050000001,0.14338262761685008,-1.846176875103538,0.200000003,0.32952115525215947,-0.6722180897767128,1.289999962,1.4361990126850077,-2.9651853039112535
1.032,-0.050000001,0.13579293053868094,-2.6099441967367794,0.200000003,0.3276241284276887,-0.8028128900786691,1.289999962,1.4303556152377896,-2.948917444718241
1.034,-0.050000001,0.12590798337223674,-3.397609259201331,0.200000003,0.3253412014002853,-0.890611528545757,1.289999962,1.4250444082087,-2.9002211016458284
1.036,-0.050000001,0.1163991897098284,-3.9232058664310574,0.200000003,0.3226788258683547,-1.0221057074318973,1.289999962,1.4200109690367215,-2.7551705211651263
1.038,-0.050000001,0.1075813677052744,-4.075771986699929,0.200000003,0.3199879417562367,-1.1763166538271561,1.289999962,1.4154974784280114,-2.560078849129366
1.04,-0.050000001,0.10074531516908788,-3.9212630194422484,0.200000003,0.31694703109942846,-1.2421018957669683,1.289999962,1.411585665080138,-2.3828823277183857
1.042,-0.050000001,0.09541805634952734,-3.45945733977815,0.200000003,0.31389850182721074,-1.3299855388900323,1.289999962,1.4079438347322004,-2.1892127399680508
1.044,-0.050000001,0.09274796608071216,-2.7313850627756677,0.200000003,0.31083558554421364,-1.4398468950510386,1.289999962,1.4045693152433236,-2.01100887627181
1.046,-0.050000001,0.09161015370205067,-1.9875490810336551,0.200000003,0.3077958813230398,-1.4836678065503017,1.289999962,1.4017756779348614,-1.866255302603257
1.048,-0.050000001,0.09121888752447553,-1.3464246896223775,0.200000003,0.3043225048391608,-1.5497573375734264,1.289999962,1.398641738034965,-1.7531686821748251
1.05,-0.050000001,0.09045103128461447,-0.9774846617847921,0.200000003,0.3009092371139405,-1.571789409245055,1.289999962,1.3947398691887953,-1.7373648864838327
1.052,-0.050000001,0.08855447020131815,-0.9123630239820251,0.200000003,0.2974985815170761,-1.615383148,1.289999962,1.3911167407028162,-1.7534818654901139
1.054,-0.050000001,0.08585733683361145,-1.0689719021702027,0.200000003,0.2944312132224076,-1.6152312248393326,1.289999962,1.387455591828367,-1.801428124072944
1.056,-0.050000001,0.08127253992897085,-1.5086231809725164,0.200000003,0.2913772689546698,-1.5932576396594884,1.289999962,1.384372523435098,-1.7367944392913741
1.058,-0.050000001,0.07555941910567164,-1.9688624839186866,0.200000003,0.28794678157050746,-1.5722909524706865,1.289999962,1.3815728206667461,-1.672039441867224
1.06,-0.050000001,0.06944890722663802,-2.3423597946240604,0.200000003,0.2837391971331901,-1.7488114616455424,1.289999962,1.3787654064296455,-1.5588457555725028
1.062,-0.050000001,0.06372021708745247,-2.604898213368821,0.200000003,0.27878014098479087,-1.9893441289163498,1.289999962,1.3762401173041825,-1.4616470002205324
1.064,-0.050000001,0.05802267054251884,-2.669478364477933,0.200000003,0.27460110153283096,-2.0326827249666306,1.289999962,1.37400364301507,-1.3490367576329387
1.066,-0.050000001,0.053821297345090564,-2.4701800129857006,0.200000003,0.27115065472640615,-1.9668657575157293,1.289999962,1.3717500573241184,-1.2687064348093422
1.068,-0.050000001,0.05077895707193045,-2.1619629972910563,0.200000003,0.2669532278364892,-1.9460110724670716,1.289999962,1.3692225184312254,-1.2850972827701561
1.07,-0.050000001,0.04887597615666109,-1.7666331248464482,0.200000003,0.26238180468237265,-2.07692337,1.289999962,1.3661402522623776,-1.3337279617725424
1.072,-0.050000001,0.047352414146120896,-1.3489644165114232,0.200000003,0.2581722868318658,-2.077129955103403,1.289999962,1.363045060593884,-1.4144827044017134
1.074,-0.050000001,0.04659089864175535,-1.0641120327686238,0.200000003,0.2539810808279326,-2.099396556737056,1.289999962,1.3599675584700466,-1.4623855179807486
1.076,-0.050000001,0.045817509095539125,-0.8239434572074189,0.200000003,0.24939338376538644,-2.1641369320883825,1.289999962,1.3571539123665315,-1.4461765035641698
1.078,-0.050000001,0.0442863765994257,-0.8029380777724336,0.200000003,0.24519456792773392,-2.098652678009572,1.289999962,1.354349711737497,-1.4296407894527399
1.08,-0.050000001,0.0423554024225134,-0.8707305763624776,0.200000003,0.24098924826706372,-2.076598762209172,1.289999962,1.3518163222073853,-1.3807509912946994
1.082,-0.050000001,0.039295115430510896,-1.0485894894444443,0.200000003,0.2371719297848041,-2.0546380180151242,1.289999962,1.3492976989509349,-1.3163849960902703
1.084,-0.050000001,0.03548418237154056,-1.3767854224208338,0.200000003,0.23298488837154055,-2.032966614,1.289999962,1.3470559202104764,-1.2679497510358713
1.086,-0.050000001,0.03167965049575105,-1.6166300362501496,0.200000003,0.22918035649575103,-2.0327588173262714,1.289999962,1.3448174908497905,-1.220102906
1.088,-0.050000001,0.027471843242738096,-1.7481403769004762,0.200000003,0.2249725492292857,-2.0106944558192854,1.289999962,1.3422866805117857,-1.2203203222913095
1.09,-0.050000001,0.023671721128740015,-1.8121282045988794,0.200000003,0.22116324066694482,-1.9887452696152106,1.289999962,1.3400459722524736,-1.2352920093858624
1.092,-0.050000001,0.020633915191766238,-1.7223845243649594,0.200000003,0.2173488913954809,-1.9662455880670768,1.289999962,1.3378088862657045,-1.1543047784346385
1.094,-0.050000001,0.018742632465047038,-1.4822577447742051,0.200000003,0.21356464604525427,-1.9009064707769443,1.289999962,1.3361374641776826,-1.058571147363344
1.096,-0.050000001,0.017220918948030177,-1.1969192162791282,0.200000003,0.21013503476110645,-1.857069704477787,1.289999962,1.3341760370092204,-1.0744994112975692
1.098,-0.050000001,0.01645751917266187,-0.9319796468460432,0.200000003,0.20668614202805757,-1.834641342261151,1.289999962,1.332205924318705,-1.0257951796964029
1.1,-0.050000001,0.01606871506034996,-0.6688388614400667,0.200000003,0.20322737326104034,-1.7695281573732888,1.289999962,1.3305057954072135,-0.9785756882519938
1.102,-0.050000001,0.015302196114108378,-0.5601724586708046,0.200000003,0.19942728564168058,-1.7909425706586297,1.289999962,1.3282683473888754,-1.0415537521950344
1.104,-0.050000001,0.014156324960714286,-0.5390511010271428,0.200000003,0.19636649790904762,-1.7686385659594048,1.289999962,1.3263062336832143,-0.9770463291052381
1.106,-0.050000001,0.013004310698662846,-0.5837416161973497,0.200000003,0.19294265610339065,-1.7242130938555398,1.289999962,1.3246255844166668,-0.9288284360545607
1.108,-0.050000001,0.011083743935514576,-0.6955855991715645,0.200000003,0.18989147893551458,-1.636171031801071,1.289999962,1.322943976435098,-0.8960202521922666
1.11,-0.050000001,0.0084187907359008,-0.9355918758788602,0.200000003,0.18722211383772505,-1.5491957517276738,1.289999962,1.3215410372677954,-0.832067877758078
1.112,-0.050000001,0.0057478509157819395,-1.0674905650668018,0.200000003,0.18416961091387332,-1.5269543376365262,1.289999962,1.3198642546359298,-0.815713890612907
1.114,-0.050000001,0.00307595904467557,-1.1980762223817516,0.200000003,0.1811207550446756,-1.4826984695234606,1.289999962,1.3187346226973171,-0.7839750042177047
1.116,-0.050000001,0.0004315316498151902,-1.2194445402646954,0.200000003,0.17847341670668893,-1.417583466,1.289999962,1.3170683490966972,-0.7997514300620008
1.118,-0.050000001,-0.0014747336132537314,-1.1314203344679403,0.200000003,0.1758024764278209,-1.4173157967758805,1.289999962,1.3159437995345673,-0.7513876785690746
1.12,-0.050000001,-0.002998725495020996,-1.0208611038613078,0.200000003,0.17313012264775046,-1.3515262939757648,1.289999962,1.3142613088733053,-0.7351118491367726
1.122,-0.050000001,-0.003767437725097714,-0.8223363852118916,0.200000003,0.17082683083666944,-1.3291441161174937,1.289999962,1.3131356905071658,-0.701813050728651
1.124,-0.050000001,-0.004523384140154669,-0.6693468604968471,0.200000003,0.16855259313670434,-1.285221612912195,1.289999962,1.312296415363593,-0.6062834416328376
1.126,-0.050000001,-0.004904083529131419,-0.49411404444513285,0.200000003,0.1662683928323603,-1.197724930510068,1.289999962,1.3108977505222208,-0.6543771470294293
1.128,-0.050000001,-0.005286569325896605,-0.384616852,0.200000003,0.1639818076883771,-1.1756175908019673,1.289999962,1.3097762620471394,-0.6220707233473671
1.13,-0.050000001,-0.00605768503157148,-0.3852249626427811,0.200000003,0.16206281528378857,-1.1096872921780774,1.289999962,1.3086468206771904,-0.5899994300042568
1.132,-0.050000001,-0.0071927739737410075,-0.4505975143492806,0.200000003,0.16017100070971224,-1.0878423579187049,1.289999962,1.3075342639075538,-0.6059251481507194
1.134,-0.050000001,-0.008346473806612749,-0.4952648782302569,0.200000003,0.15825255274000952,-1.0216732751584208,1.289999962,1.3066859332421503,-0.525210857
1.136,-0.050000001,-0.00986873225211385,-0.6046951959275931,0.200000003,0.15635145574788614,-0.977725135812433,1.289999962,1.3055678668632844,-0.5251377171686317
1.138,-0.050000001,-0.011393154270649844,-0.6704085167134015,0.200000003,0.15482703372935014,-0.9118510672380385,1.289999962,1.304727172790288,-0.5089911814982147
1.14,-0.050000001,-0.012916682306626865,-0.6923511356979104,0.200000003,0.153303505695403,-0.8461978756999403,1.289999962,1.303887089882627,-0.49285692559689553
1.142,-0.050000001,-0.014443568276150629,-0.7142079745260012,0.200000003,0.15177662072026302,-0.8677394386616856,1.289999962,1.3030432751016139,-0.47684366957083085
1.144,-0.050000001,-0.015591190712966252,-0.6920254455982238,0.200000003,0.1506265580472469,-0.757821938706572,1.289999962,1.3019199211893426,-0.5089455523051509
1.146,-0.050000001,-0.016727875460390763,-0.6483653771889876,0.200000003,0.14911097805293075,-0.692329942460746,1.289999962,1.3010841019339254,-0.4928954723719361
1.148,-0.050000001,-0.017500105961769204,-0.5596722251605694,0.200000003,0.1475756730382308,-0.7135189217322668,1.289999962,1.3002325065620515,-0.460568577
1.15,-0.050000001,-0.01825299428784849,-0.49460766319103633,0.200000003,0.1468227847121515,-0.648450595025056,1.289999962,1.299402212663569,-0.460568577
1.152,-0.050000001,-0.01864236415277281,-0.4277939660064401,0.200000003,0.1460452126856291,-0.5388477088221825,1.289999962,1.2982739770249254,-0.46014072460310074
1.154,-0.050000001,-0.019405657818008577,-0.34086425945188187,0.200000003,0.14452216828227726,-0.5822123695481182,1.289999962,1.2977101113673177,-0.41223839598689854
1.156,-0.050000001,-0.020167879198568873,-0.362636566,0.200000003,0.14338520639654145,-0.5597061398145499,1.289999962,1.2968694059636257,-0.42811255129755516
1.158,-0.050000001,-0.020931195025331584,-0.36283091910837617,0.200000003,0.14300017496582626,-0.47194355814936073,1.289999962,1.2960299715595651,-0.41194536827613815
1.16,-0.050000001,-0.021695923629611997,-0.38486272063532495,0.200000003,0.14223543470840275,-0.40634745436467506,1.289999962,1.2954676579909545,-0.3955647256531778
1.162,-0.050000001,-0.022461253145584725,-0.4068031222458234,0.200000003,0.14147280457279238,-0.384616852,1.289999962,1.2949076984009547,-0.36299086264200475
1.164,-0.050000001,-0.023602748050023596,-0.4288005921789759,0.200000003,0.14070913794997641,-0.384616852,1.289999962,1.2943491096838131,-0.2987959881435819
1.166,-0.050000001,-0.024357768468528954,-0.450547443790193,0.200000003,0.13995416326579546,-0.3846115820375255,1.289999962,1.2940714877419972,-0.2828045783451625
1.168,-0.050000001,-0.025125062771856783,-0.4284417046602831,0.200000003,0.13957051661115738,-0.3404038940907577,1.289999962,1.2935056513488759,-0.2668329199159034
1.17,-0.050000001,-0.02588637430385028,-0.406593323,0.200000003,0.13918986034807487,-0.2965409049235904,1.289999962,1.29266802146406,-0.2989059498569555
1.172,-0.050000001,-0.02664922563350036,-0.40651466705511813,0.200000003,0.13880843468146029,-0.2525106005110952,1.289999962,1.2923875540665712,-0.2826329901088046
1.174,-0.050000001,-0.027411108304863582,-0.38442392198707,0.200000003,0.13842833,-0.18671689737010674,1.289999962,1.29210682786121,-0.23411059775634638
1.176,-0.050000001,-0.027790722994068803,-0.3406809522986951,0.200000003,0.13842833,-0.16484731174377223,1.289999962,1.2918276920960854,-0.1858660837020166
1.178,-0.050000001,-0.028175789732449857,-0.31828624855659027,0.200000003,0.138043445258596,-0.16464006911819484,1.289999962,1.2918250473685529,-0.13707335444878224
1.18,-0.050000001,-0.02856172961106543,-0.27495404166944676,0.200000003,0.137665391,-0.14262942433055328,1.289999962,1.2915441604449667,-0.10554276332667685
1.182,-0.050000001,-0.029313467038529308,-0.2966078227980735,0.200000003,0.137665391,-0.12097564320192647,1.289999962,1.2912677801310937,-0.15331121532855632
1.184,-0.050000001,-0.03008340616239418,-0.2969155834439013,0.200000003,0.137283921,-0.098899841,1.289999962,1.2909806429817574,-0.13783097638702754
1.186,-0.050000001,-0.030468737760247857,-0.31867981,0.200000003,0.13728014812976644,-0.09868248553133938,1.289999962,1.2904222889375596,-0.1860029278326978
1.188,-0.050000001,-0.031227679922180365,-0.3184754138133977,0.200000003,0.13690599992218036,-0.07651454215399106,1.289999962,1.2901420731584647,-0.20170443531869556
1.19,-0.050000001,-0.031604433329408994,-0.29677060863103366,0.200000003,0.137282753329409,-0.03310116493666117,1.289999962,1.289865040606075,-0.16978283750270778
1.192,-0.050000001,-0.032368859155963305,-0.31867981,0.200000003,0.13728423915679733,0.03298494618098415,1.289999962,1.28958344905588,-0.16967042345204336
1.194,-0.050000001,-0.032750282868383405,-0.31867981,0.200000003,0.1376655274341917,0.054954758968168815,1.289999962,1.2893030836781116,-0.153521925
1.196,-0.050000001,-0.03351331235526003,-0.31867981,0.200000003,0.138046861,0.07693380764948944,1.289999962,1.2890225507779625,-0.153521925
1.198,-0.050000001,-0.034273171335549746,-0.31867981,0.200000003,0.138046861,0.09882155862882926,1.289999962,1.2887431841652814,-0.153521925
1.2,-0.050000001,-0.03504215524343048,-0.34027681224940276,0.200000003,0.13805018723471094,0.0767317452528667,1.289999962,1.288742185,-0.12092176048399426
1.202,-0.050000001,-0.03542434364391232,-0.2964703266198475,0.200000003,0.13842833,0.05517991138015249,1.289999962,1.2887392109113653,-0.08853975100166786
1.204,-0.050000001,-0.035801768,-0.2740665542646638,0.200000003,0.13842833,0.07692337,1.289999962,1.2884644940128755,-0.05639947913447783
1.206,-0.050000001,-0.03580564009816097,-0.20834368217876761,0.200000003,0.13843220209816096,0.07692337,1.289999962,1.288742185,-0.04007405831526152
1.208,-0.050000001,-0.036183238,-0.16457746002360513,0.200000003,0.1388098,0.07692337,1.289999962,1.288742185,-0.008271706817596565
1.21,-0.050000001,-0.03618778255563498,-0.1425947863369073,0.200000003,0.1388098,0.07666155833690733,1.289999962,1.288742185,-0.024240157
1.212,-0.050000001,-0.036564708,-0.120880127,0.200000003,0.1388098,0.05519027650636192,1.289999962,1.288742185,-0.02406120294957587
1.214,-0.050000001,-0.036564708,-0.120880127,0.200000003,0.1388098,0.07691042438795948,1.289999962,1.288742185,-0.008090505832469366
1.216,-0.050000001,-0.03694992221055122,-0.12131168730648215,0.200000003,0.13919127,0.07670760857428437,1.289999962,1.288742185,-0.024081508891412348
1.218,-0.050000001,-0.03732841801295922,-0.16488130202282725,0.200000003,0.13919127,0.054946899,1.289999962,1.288742185,-0.00814631329675425
1.22,-0.050000001,-0.037708890231482585,-0.18680028987563904,0.200000003,0.13919127,0.054946899,1.289999962,1.288742185,-0.040382919383307576
1.222,-0.050000001,-0.03809786001239276,-0.20899936061487132,0.200000003,0.13919127,0.07650433514775977,1.289999962,1.2884643589752145,-0.008080987
1.224,-0.050000001,-0.0388570111910299,-0.2305692944335548,0.200000003,0.13919127,0.032966614,1.289999962,1.288742185,-0.008080987
1.226,-0.050000001,-0.039234996,-0.208789825,0.200000003,0.13919127,0.032966614,1.289999962,1.288742185,-0.008154552168323947
1.228,-0.050000001,-0.03923856832456141,-0.20837822206744905,0.200000003,0.13919484232456142,0.03317245118764817,1.289999962,1.288742185,-0.024088832387624465
1.23,-0.050000001,-0.039616466,-0.16475324914244946,0.200000003,0.13957274,0.05486326414625446,1.289999962,1.288742185,-0.008080987
1.232,-0.050000001,-0.03961696560221455,-0.14282781586153115,0.200000003,0.13957274,0.032966614,1.289999962,1.288742185,-0.008102150337302058
1.234,-0.050000001,-0.039997935,-0.120880127,0.200000003,0.13957274,0.032966614,1.289999962,1.288742185,-0.024240157
1.236,-0.050000001,-0.039997935,-0.07694955343876578,0.200000003,0.13957274,0.032966614,1.289999962,1.288742185,-0.008090612428877767
1.238,-0.050000001,-0.040001617406149444,-0.098899841,0.200000003,0.13919495240614946,-0.010777962906328209,1.289999962,1.28873947727744,-0.00823697469753307
1.24,-0.050000001,-0.040379405,-0.098899841,0.200000003,0.1395691566313912,0.010990143,1.289999962,1.2884643198989298,-0.0240883645588585
1.242,-0.050000001,-0.04038202771929825,-0.09905096198008535,0.200000003,0.13919127,0.010839022019914652,1.289999962,1.288742185,-0.008080987
1.244,-0.050000001,-0.04076132902166151,-0.12093244401618662,0.200000003,0.13919127,-0.010963982221613901,1.289999962,1.288742185,-0.008080987
1.246,-0.050000001,-0.04114220779350154,-0.164821188895144,0.200000003,0.13919127,0.010982294766484171,1.289999962,1.288742185,-0.008080987
1.248,-0.050000001,-0.04114589425175993,-0.14265206814222647,0.200000003,0.13956918974824006,0.0325575187791433,1.289999962,1.2887395744523327,-0.008080987
1.25,-0.050000001,-0.041523814,-0.12065519784769158,0.200000003,0.13919127,-0.010990143,1.289999962,1.288464555418848,-0.008080987
1.252,-0.050000001,-0.041527049113473484,-0.098899841,0.200000003,0.13919127,-0.010803735892259915,1.289999962,1.2887398061777353,-0.00821802726158624
1.254,-0.050000001,-0.041905284,-0.098899841,0.200000003,0.13919127,0.01076243582186235,1.289999962,1.2884645908704453,-0.024072754310073826
1.256,-0.050000001,-0.041905284,-0.098899841,0.200000003,0.13919127,-0.010787368037492608,1.289999962,1.288742185,-0.008080987
1.258,-0.050000001,-0.041905284,-0.09884228357595239,0.200000003,0.13919127,0.010961359292142857,1.289999962,1.288742185,-0.008080987
1.26,-0.050000001,-0.041905284,-0.054946899,0.200000003,0.13919127,-0.010990143,1.289999962,1.288742185,-0.008080987
1.262,-0.050000001,-0.042286754,-0.09888413604216294,0.200000003,0.13919127,0.010990143,1.289999962,1.288742185,-0.008080987
1.264,-0.050000001,-0.042286754,-0.0769286049859457,0.200000003,0.13919127,0.010990143,1.289999962,1.288742185,-0.008080987
1.266,-0.050000001,-0.042668223,-0.098899841,0.200000003,0.13919127,0.010990143,1.289999962,1.288742185,-0.00808865992022792
1.268,-0.050000001,-0.042668223,-0.098899841,0.200000003,0.13919127,0.010990143,1.289999962,1.288742185,-0.024178773638176637
1.27,-0.050000001,-0.04304955610885167,-0.098899841,0.200000003,0.13919127,0.010990143,1.289999962,1.288742185,0.008069388503349283
1.272,-0.050000001,-0.043049693,-0.098899841,0.200000003,0.13919127,0.010990143,1.289999962,1.288742185,0.008080987
1.274,-0.050000001,-0.04343125402123598,-0.09890508563994274,0.200000003,0.13919127,0.010984898360057267,1.289999962,1.2884617519291337,-0.024240157
1.276,-0.050000001,-0.043812633,-0.120880127,0.200000003,0.13919127,-0.010966094547045953,1.289999962,1.288742185,-0.024222477382932164
1.278,-0.050000001,-0.043820465477975405,-0.120880127,0.200000003,0.13919127,0.011441372916676615,1.289999962,1.288736425658947,-0.008080987
1.28,-0.050000001,-0.044194102,-0.12040092848463188,0.200000003,0.13919127,0.03248749865654038,1.289999962,1.2884678002609005,-0.008080987
1.282,-0.050000001,-0.044194102,-0.09843409366841291,0.200000003,0.13919127,0.011455890331587094,1.289999962,1.288736240363734,-0.007738466298487915
1.284,-0.050000001,-0.0442016923121649,-0.07736064757142858,0.200000003,0.13919127,0.03252933642857143,1.289999962,1.288461685,0.007759403578339092
1.286,-0.050000001,-0.044575572,-0.098899841,0.200000003,0.13919127,0.010990143,1.289999962,1.288461685,-0.008080987
1.288,-0.050000001,-0.044575572,-0.09887891600975958,0.200000003,0.13919127,0.010990143,1.289999962,1.2884618185396333,-0.008080987
1.29,-0.050000001,-0.044575572,-0.05499921147560105,0.200000003,0.13919127,0.010990143,1.289999962,1.2887418511509166,-0.008080987
1.292,-0.050000001,-0.044957042,-0.07692858387212337,0.200000003,0.13919127,0.010984928222775801,1.289999962,1.2884617515480425,-0.008080987
1.294,-0.050000001,-0.044957042,-0.09879556355753262,0.200000003,0.13919127,-0.010885847455516018,1.289999962,1.2887408540391458,-0.008080987
1.296,-0.050000001,-0.0449579035132533,-0.05509580323535005,0.200000003,0.13919127,-0.01094050251099489,1.289999962,1.288461685,-0.008080987
1.298,-0.050000001,-0.04533828428598597,-0.12084094167490789,0.200000003,0.13919127,0.010977079713419706,1.289999962,1.288461685,-0.008080987
1.3,-0.050000001,-0.045719981,-0.120880127,0.200000003,0.13919127,-0.010984901486705617,1.289999962,1.288461685,-0.008084840385000595
1.302,-0.050000001,-0.04572016224242784,-0.120880127,0.200000003,0.13919127,0.010990143,1.289999962,1.288461685,-0.024232479522864947
1.304,-0.050000001,-0.04610022761361207,-0.120880127,0.200000003,0.13919127,0.010990143,1.289999962,1.288461685,-0.008132809970661597
1.306,-0.050000001,-0.046101451,-0.09890509692682928,0.200000003,0.13919127,0.010990143,1.289999962,1.288461685,-0.008080987
1.308,-0.050000001,-0.046482875521936105,-0.12087750655579399,0.200000003,0.13919127,0.010990143,1.289999962,1.288461685,-0.024238230537195996
1.31,-0.050000001,-0.046482921,-0.09893124514716038,0.200000003,0.13919127,0.010990143,1.289999962,1.288461685,-0.024240157
1.312,-0.050000001,-0.04686230670734892,-0.098899841,0.200000003,0.13919127,0.010990143,1.289999962,1.2887406531229966,0.007904473569630775
1.314,-0.050000001,-0.046486220435663514,-0.033156727839454975,0.200000003,0.13919127,0.03277653314893365,1.289999962,1.2887397588744076,0.007941197414454976
1.316,-0.050000001,-0.04686439,-0.05500440849946473,0.200000003,0.13919127,0.010932623517188059,1.289999962,1.2884624190311644,-0.008080987
1.318,-0.050000001,-0.046864572042471964,-0.07692337,0.200000003,0.13919127,-0.010979653720114531,1.289999962,1.288742185,-0.008073274294679075
1.32,-0.050000001,-0.04724586,-0.07689732226857889,0.200000003,0.13919127,0.010990143,1.289999962,1.288742185,0.008061830932677492
1.322,-0.050000001,-0.04724586,-0.05504588037940026,0.200000003,0.13919127,0.010990143,1.289999962,1.288742185,-0.00800819394417447
1.324,-0.050000001,-0.04724586,-0.03306097248557119,0.200000003,0.13919127,-0.010895784510135939,1.289999962,1.288742185,-0.008080987
1.326,-0.050000001,-0.04724586,-0.05494165060339064,0.200000003,0.13919127,0.03295611811723973,1.289999962,1.2884617519770774,-0.008080987
1.328,-0.050000001,-0.04724586,-0.03300560918332347,0.200000003,0.13919127,-0.010990143,1.289999962,1.288742185,-0.008080987
1.33,-0.050000001,-0.04724586,-0.054811715697811944,0.200000003,0.13919127,-0.010990143,1.289999962,1.288742185,-0.008080987
1.332,-0.050000001,-0.04762733,-0.05499655448210251,0.200000003,0.13919127,0.010990143,1.289999962,1.288461685,-0.008080987
1.334,-0.050000001,-0.04762733,-0.07692075655357355,0.200000003,0.13919127,0.010990143,1.289999962,1.288461685,-0.008080987
1.336,-0.050000001,-0.04762733,-0.0549495189893896,0.200000003,0.13919127,0.010990143,1.289999962,1.288461685,-0.008080987
1.338,-0.050000001,-0.04762733,-0.054946899,0.200000003,0.13919127,0.010990143,1.289999962,1.288742185,0.008080987
1.34,-0.050000001,-0.04762733,-0.011037291567103695,0.200000003,0.13919127,0.010990143,1.289999962,1.2884622867878426,-0.008046312919904647
1.342,-0.050000001,-0.04762733,-0.0328778862786749,0.200000003,0.13919127,0.010990143,1.289999962,1.288742185,0.008048363685110424
1.344,-0.050000001,-0.04762733,0.010906634556399904,0.200000003,0.13919127,0.010990143,1.289999962,1.288742185,-0.00805028270363334
1.346,-0.050000001,-0.04762733,-0.032966614,0.200000003,0.13919127,0.010990143,1.289999962,1.288461685,-0.024240157
1.348,-0.050000001,-0.04762733,-0.032966614,0.200000003,0.13919127,0.010990143,1.289999962,1.2887415844290473,-0.008115584961222791
1.35,-0.050000001,-0.04800848123552584,-0.032966614,0.200000003,0.13919127,0.03294824999176316,1.289999962,1.288742185,-0.008080987
1.352,-0.050000001,-0.0480088,-0.032966614,0.200000003,0.13919127,0.011016330405862727,1.289999962,1.2884620192469016,-0.02422090155433746
1.354,-0.050000001,-0.0480088,-0.05493379052850668,0.200000003,0.13919127,-0.010977034527910306,1.289999962,1.288461685,-0.024240157
1.356,-0.050000001,-0.0480088,-0.054881675602373885,0.200000003,0.13919127,0.010990143,1.289999962,1.288461685,-0.024144248560830858
1.358,-0.050000001,-0.0480088,-0.03299531229495549,0.200000003,0.13919127,0.010990143,1.289999962,1.288461685,0.008038787286765575
1.36,-0.050000001,-0.0480088,0.010974406690811456,0.200000003,0.13919127,0.010990143,1.289999962,1.288742084582339,0.008080987
1.362,-0.050000001,-0.0480088,0.010912014021327014,0.200000003,0.13919127,0.010990143,1.289999962,1.288461685,-0.008023539225118483
1.364,-0.050000001,-0.0480088,-0.010935452714928913,0.200000003,0.13919127,0.010990143,1.289999962,1.288461685,0.008040773557582937
1.366,-0.050000001,-0.0480088,-0.032836065877153375,0.200000003,0.13919127,0.010990143,1.289999962,1.288461685,-0.024048157807888798
1.368,-0.050000001,-0.0480088,-0.032966614,0.200000003,0.13919127,0.032945551130945244,1.289999962,1.2887419161608962,-0.008096474403857669
1.37,-0.050000001,-0.04801192234412811,-0.01134993139430605,0.200000003,0.13919127,0.010990143,1.289999962,1.288742185,-0.008080987
1.372,-0.050000001,-0.048390269,-0.054873961339416924,0.200000003,0.13919127,0.010917205336098603,1.289999962,1.2887412542107135,-0.008080987
1.374,-0.050000001,-0.048390269,-0.033021317245437304,0.200000003,0.13919127,-0.01093543975207395,1.289999962,1.2884623830919648,-0.008080987
1.376,-0.050000001,-0.04801007338245112,0.010843410859322843,0.200000003,0.13919127,0.03289325429709108,1.289999962,1.2887412486623748,-0.024186216041487837
1.378,-0.050000001,-0.048390269,-0.032966614,0.200000003,0.13919127,0.010990143,1.289999962,1.288461685,-0.008025103222010253
1.38,-0.050000001,-0.048390269,-0.03288533619028871,0.200000003,0.13919127,0.010990143,1.289999962,1.2884627224015748,0.008021213533762825
1.382,-0.050000001,-0.04838859310911897,-0.010893577981952032,0.200000003,0.13919127,0.010990143,1.289999962,1.2887409526917597,-0.008080987
1.384,-0.050000001,-0.04800898252105263,0.010969111058851675,0.200000003,0.13919127,0.011000658057894738,1.289999962,1.2884618192105262,-0.008073253998086123
1.386,-0.050000001,-0.048388803220941405,-0.032797711955811715,0.200000003,0.13919127,0.032882170307396735,1.289999962,1.2887411071902017,0.008018885274735831
1.388,-0.050000001,-0.04801302290405904,0.010746818800738009,0.200000003,0.13919127,0.010990143,1.289999962,1.288461685,-0.008080987
1.39,-0.050000001,-0.048390269,-0.010990143,0.200000003,0.13919127,0.010990143,1.289999962,1.2884643869265073,-0.007925306194434534
1.392,-0.050000001,-0.048390269,-0.010832484044829649,0.200000003,0.13919127,0.010832484044829649,1.289999962,1.288742185,0.007965061304841602
1.394,-0.050000001,-0.048390269,0.010771304073367311,0.200000003,0.13919127,-0.010771304073367311,1.289999962,1.288742185,-0.008080987
1.396,-0.050000001,-0.048390269,-0.0110820727818812,0.200000003,0.13919127,0.010990143,1.289999962,1.288741011640373,-0.008148582428468986
1.398,-0.050000001,-0.048390269,-0.03281789515315208,0.200000003,0.13919127,0.010990143,1.289999962,1.288461685,-0.024240157
1.4,-0.050000001,-0.048390269,-0.011050626287423718,0.200000003,0.13919127,0.010990143,1.289999962,1.288461685,-0.02419568399413665
1.402,-0.050000001,-0.048390269,-0.032825033299212596,0.200000003,0.13919127,0.011131723700787402,1.289999962,1.288463492086614,-0.008185090457408733
1.404,-0.050000001,-0.048390269,-0.011150785867705213,0.200000003,0.13919127,0.03280597113229478,1.289999962,1.2887401346105454,-0.024122037243259436
1.406,-0.050000001,-0.048390269,-0.03269442714945814,0.200000003,0.13919127,0.010990143,1.289999962,1.288465159097892,-0.007880814879480766
1.408,-0.050000001,-0.048390269,-0.01073884998392283,0.200000003,0.13919127,0.01073884998392283,1.289999962,1.288742185,0.007896212734905324
1.41,-0.050000001,-0.048390269,0.010758716203158651,0.200000003,0.13919127,-0.010758716203158651,1.289999962,1.2887392316618809,-0.008080987
1.412,-0.050000001,-0.048390269,-0.010990143,0.200000003,0.13919127,0.01129620030886345,1.289999962,1.288461685,-0.008080987
1.414,-0.050000001,-0.048390269,-0.011079339611436076,0.200000003,0.13919127,0.03287741738856392,1.289999962,1.288461685,-0.008080987
1.416,-0.050000001,-0.048390269,-0.032849329702680265,0.200000003,0.13919127,0.010990143,1.289999962,1.2884631819758063,-0.008080987
1.418,-0.050000001,-0.048390269,-0.010995392993072147,0.200000003,0.13919127,0.010995392993072147,1.289999962,1.2887421179909222,-0.008080987
1.42,-0.050000001,-0.048390269,-0.03291651766538692,0.200000003,0.13919127,0.032866412634313134,1.289999962,1.288461685,-0.008080987
1.422,-0.050000001,-0.048390269,-0.010802321899596488,0.200000003,0.13919127,-0.010802321899596488,1.289999962,1.2884640818668407,-0.008080987
1.424,-0.050000001,-0.048390269,0.010805050784528394,0.200000003,0.13919127,0.010897588860202118,1.289999962,1.288742185,-0.008080987
1.426,-0.050000001,-0.048390269,-0.032380593670991546,0.200000003,0.13919127,-0.010404122670991549,1.289999962,1.2887384454451851,-0.008080987
1.428,-0.050000001,-0.048390269,0.01021052193729846,0.200000003,0.13919127,0.03244688165281261,1.289999962,1.288461685,-0.007889892359369401
1.43,-0.050000001,-0.048390269,-0.05464832437502953,0.200000003,0.13919127,-0.010990143,1.289999962,1.2884654952409638,0.007861446838176234
1.432,-0.050000001,-0.048390269,-0.032869384605404756,0.200000003,0.13919127,-0.010892896726892264,1.289999962,1.288742185,-0.008080987
1.434,-0.050000001,-0.048390269,-0.010990143,0.200000003,0.13919127,0.010990143,1.289999962,1.288742185,-0.008080987
1.436,-0.050000001,-0.048390269,-0.011045413166586826,0.200000003,0.13919127,0.011045413166586826,1.289999962,1.2887414795508982,-0.008121626828742514
1.438,-0.050000001,-0.048390269,-0.03265768622596783,0.200000003,0.13919127,0.03265768622596783,1.289999962,1.288461685,-0.024353743251816554
1.44,-0.050000001,-0.048390269,0.010710264561629025,0.200000003,0.13919127,-0.010850191635511774,1.289999962,1.288461685,-0.040196340023306104
1.442,-0.050000001,-0.048390269,-0.03266124023432304,0.200000003,0.13919127,0.010990143,1.289999962,1.288461685,-0.008080987
1.444,-0.050000001,-0.048390269,-0.011214872667776458,0.200000003,0.13919127,0.010990143,1.289999962,1.288461685,-0.008080987
1.446,-0.050000001,-0.048390269,-0.0324522525237638,0.200000003,0.13919127,0.010990143,1.289999962,1.28846387325012,-0.007954903429428709
1.448,-0.050000001,-0.048390269,0.032337025032552084,0.200000003,0.13919127,0.011304910162760418,1.289999962,1.288742185,0.007849500393229167
1.45,-0.050000001,-0.048390269,-0.010990143,0.200000003,0.13919127,0.032804695853594766,1.289999962,1.288742185,-0.008200044461675578
1.452,-0.050000001,-0.048390269,-0.010898449315852207,0.200000003,0.13919127,0.010990143,1.289999962,1.2887410148569727,-0.024240157
1.454,-0.050000001,-0.04839181783926439,0.01081167037783616,0.200000003,0.13919127,0.010990143,1.289999962,1.2884628238822544,-0.02417454775949367
1.456,-0.050000001,-0.048769507382282716,-0.032838050595152816,0.200000003,0.13919127,0.010990143,1.289999962,1.2887405440616047,-0.008080987
