zhaobohao-byte/Y1_1Pace/data/Atom3motors/raw_csv/Chrip_y1_1_leftleg_aligned.csv
time,des_dof_pos_left_ankle_pitch_joint,dof_pos_left_ankle_pitch_joint,dof_vel_left_ankle_pitch_joint,des_dof_pos_left_ankle_roll_joint,dof_pos_left_ankle_roll_joint,dof_vel_left_ankle_roll_joint,des_dof_pos_left_hip_pitch_joint,dof_pos_left_hip_pitch_joint,dof_vel_left_hip_pitch_joint,des_dof_pos_left_hip_roll_joint,dof_pos_left_hip_roll_joint,dof_vel_left_hip_roll_joint,des_dof_pos_left_hip_yaw_joint,dof_pos_left_hip_yaw_joint,dof_vel_left_hip_yaw_joint,des_dof_pos_left_knee_joint,dof_pos_left_knee_joint,dof_vel_left_knee_joint,des_dof_pos_waist_yaw_joint,dof_pos_waist_yaw_joint,dof_vel_waist_yaw_joint
0.0,-0.25935678879678187,-0.266468287,-0.040435791,0.0003859250923718713,-0.010032922,0.024673462,0.0007718501847437426,0.018524885,0.079652786,0.40064320818474375,0.340913057,-0.02822876,0.0006432091293206198,-0.005105734,-0.125888824,0.9007718655750894,0.879503489,0.043029785,0.0,0.007400274,-0.061798096
0.002,-0.25871909580541314,-0.266468287,-0.005465633186126619,0.0007685395113866699,-0.010032922,0.0036001405487587554,0.0015370790044115894,0.018524885,0.05349928982040623,0.4012809002129486,0.3412950678864473,0.07516127171089204,0.0012808985250983666,-0.005105734,-0.054424266232212845,0.9015370622981995,0.879503489,-0.008665230855446016,0.0,0.007400274,0.0020604527048343063
0.004,-0.2580751495843388,-0.266468287,0.07398614477440192,0.0011549173597113793,-0.010032922,-0.010570968004545454,0.002309833756091791,0.018524885,-0.019208697962679426,0.4019248473973267,0.341296434,0.03891867302727273,0.0019248619572983204,-0.005105734,0.05109175504688995,0.9023098328477643,0.879503489,-0.0704827648145933,0.0,0.007400274,-0.07246136090287081
0.006,-0.25742991940128757,-0.266468287,0.046693728649668656,0.0015420401072961374,-0.010032922,-0.004882070063574076,0.003084081203862661,0.018524885,0.021022302466696622,0.40257007659871247,0.341296434,0.11796922375783445,0.0025700678347639486,-0.005105734,0.1574912469984275,0.9030840851824035,0.879503489,-0.02852240838762215,0.0,0.007400274,0.046828440224531045
0.008,-0.25677356166961296,-0.266468287,-0.01625596561282487,0.0019358682584806497,-0.010032922,0.04842240139033277,0.0038717365169612995,0.018524885,-0.07920246231649258,0.40322643434113714,0.34092991180616955,-0.023046257102744716,0.003226447104634496,-0.005105734,-0.002270489946805926,0.9038717384094601,0.879503489,0.005570032530240465,0.0,0.007766796193830459,0.11981448014403692
0.01,-0.2561096451451153,-0.266468287,1.823606851948656e-07,0.002334205478250535,-0.010032922,-0.0575982732212506,0.00466841096921797,0.018524885,0.008803962781744126,0.4038903518421678,0.340913057,-0.009213764271322474,0.0038903431219396247,-0.005105734,-0.04366393542513177,0.9046684027784645,0.879503489,0.03929756001868711,0.0,0.007415015736583613,-0.08550990321502155
0.012,-0.2554427965142926,-0.2661110755778958,0.08748868767213303,0.0027343273555128513,-0.010032922,-0.006573119271855873,0.00546865569132837,0.018524885,0.0585763751990992,0.40455719948570745,0.340913057,-0.06099647666774454,0.004557212249339419,-0.005105734,-0.11325663907702968,0.9054686330951237,0.879503489,-0.028792219751356977,0.0,0.007400274,-0.007115804327866973
0.014,-0.2547628211084165,-0.2664646826330835,-0.010454238394359036,0.0031422991027104134,-0.010032922,-0.029453221549231356,0.0062845972396576326,0.018524885,-0.002138324131368323,0.40523717489158345,0.340913057,-0.037642255685046366,0.0052371641997146934,-0.005105734,-0.06535195364604243,0.9062846148801712,0.879503489,-0.07861778421839663,0.0,0.007400274,0.05516378894346335
0.016,-0.2540833932086426,-0.266468287,0.017309006423783396,0.0035499654516399333,-0.010032922,0.04120535863156012,0.007099931903279866,0.018524885,0.10258244971338264,0.40591660279135744,0.3412932788219227,0.05492854656762883,0.005916609747905195,-0.00472551217807729,0.11977530612702765,0.9070999285991141,0.879503489,-0.053616750840291036,0.0,0.007400274,-0.05175120931655534
0.018,-0.25339317187637106,-0.2660849550790865,0.05568999502728366,0.003964096740701002,-0.010032922,0.03373815134615384,0.007928194481402003,0.018524885,0.06989119577596153,0.4066068241421078,0.341296434,-0.01753880385252405,0.0066068282345016684,-0.005105687921033653,0.029765642934375003,0.9079281712390319,0.879503489,0.08085734966694713,0.0,0.007400274,0.03279612566129806
0.02,-0.2526994127744128,-0.266084909,0.09077306706148713,0.004380355541910099,-0.010032922,0.0317239820386082,0.008760712065219984,0.018524885,0.07659782787273595,0.407300584206987,0.341296434,0.09073815658150619,0.007300592890783355,-0.004722539734509056,-0.0754808221844614,0.9087607287862168,0.879503489,0.15591094875738798,0.0,0.007400274,-0.015998455346520495
0.022,-0.2519994336057305,-0.266084909,0.04503908938250986,0.004800333038598153,-0.010032699675133379,-0.004510251345975412,0.009600666058489226,0.018524885,0.070520519756553,0.40800056241297655,0.341296434,0.06945226650777081,0.008000554730996921,-0.004722357,0.0374521706078636,0.9096006679088325,0.879503489,-0.10646153247970308,0.0,0.007400274,-0.06333724812862446
0.024,-0.25129815791022264,-0.266084909,0.08808862468104847,0.005221108986832655,-0.00965972747889121,0.03174042664567386,0.010442216985635624,0.018524885,0.10911665454987243,0.4087018390897773,0.341296434,0.11101733594409649,0.008701847970074216,-0.004722357,0.1517598215598469,0.910442210961695,0.879503489,-0.028079832429598703,0.0,0.007400274,-0.08560424870900023
0.026,-0.2505829996733847,-0.266084909,-0.02250602904847397,0.005650198459988145,-0.009649545,0.03666440475942549,0.011300396903971548,0.018899314242369836,-0.0424347300897666,0.4094169975666864,0.341296434,-0.02942316359784558,0.009416996438648488,-0.004722357,-0.037367507482944345,0.9113003890800236,0.879503489,-0.020574983700179534,0.0,0.007400274,0.14031198913105924
0.028,-0.2498684177380753,-0.266084909,-0.025177002,0.0060789514890615655,-0.009649545,0.05121366193425202,0.012157901999402271,0.018908262,0.007067012698703717,0.4101315939427376,0.341296434,-0.07368990111970103,0.010131585155528991,-0.004722357,-0.02882054369613453,0.9121579052441123,0.879503489,-0.04147258004309237,0.0,0.007400274,-0.09227880123718327
0.03,-0.24914180174601286,-0.26571131559095884,0.04322220302734231,0.006514914768388479,-0.009649545,0.025367366972657675,0.013029830536776959,0.018908262,0.0070813464706525695,0.4108581804406094,0.341296434,0.007737591297484497,0.010858191293977625,-0.004722357,0.11897822435144004,0.9130298562701739,0.8798770824090412,0.09675993691833759,0.0,0.007400274,-0.11043152262231133
0.032,-0.24841204253644525,-0.265701532,0.12205147463307217,0.006952771463913824,-0.009277317972103514,0.09409659360197056,0.013905543915978456,0.018908262,-0.011944168508784426,0.4115879532858169,0.341296434,-0.00045229296011396053,0.011587953428007182,-0.0043501299721035135,0.2798760512926164,0.9139055498804309,0.879886866,0.06069866306244064,0.0,0.007400274,0.20790017650949674
0.034,-0.24767211041688528,-0.265701532,0.0407980657523718,0.007396729587646077,-0.009266168,0.0528437665761979,0.014793459191032674,0.018908262,-0.09428454255338058,0.4123278710553303,0.341296434,0.008190031822505104,0.012327882646076795,-0.004713885597574156,0.013003038977903225,0.9147934624586215,0.879886866,0.023100527554221206,0.0,0.007775179597574156,0.026441108292061977
0.036,-0.24692859666201716,-0.2653255420572314,0.04637374721819483,0.00784284016416309,-0.009266168,0.0764952787525933,0.01568568132832618,0.01928425292106832,0.11644146792285683,0.41307141387124463,0.341296434,0.04421874109073566,0.01307140027360515,-0.00434729937689281,0.2561622678484559,0.9156857010386266,0.879886866,0.13931262738213904,0.0,0.00740859337689281,-0.0465420360941934
0.038,-0.24617906120810487,-0.265317202,0.016655311934256053,0.008292559198331348,-0.009266168,0.029705377377162626,0.01658511938045292,0.019292593,0.06198451383391004,0.41382092126197856,0.34167185161591695,0.05248442627681661,0.01382093200262217,-0.00433898,0.036064148359861575,0.9165851215263409,0.879886866,0.11023161091695502,0.0,0.007400274,-0.13772090699307957
0.04,-0.24542361896566112,-0.264941956685653,0.15193523497354622,0.008745832017407893,-0.009266168,0.05038760529218303,0.017491664018838678,0.019292593,0.015327155684938032,0.41457639205031593,0.341679811,0.015304973095328883,0.014576387018361751,-0.00433898,0.013358350095090562,0.9174916746833194,0.880262111314347,0.09402746722140133,0.0,0.007400274,0.0022658272681125025
0.042,-0.24466162744899905,-0.264933825,-0.015585686300751883,0.00920302667874166,-0.00889047775689223,0.04789688024060151,0.018406052373689228,0.01966828324310777,0.16985475418796994,0.4153383842917064,0.341679811,0.026458128498746868,0.0153383774699714,-0.00433898,0.05932380104010025,0.9184060425357483,0.880270243,-0.09471875653884713,0.0,0.007400274,-0.0783953754511278
0.044,-0.24389398282919847,-0.264933825,0.046595229354593065,0.009663610349713742,-0.008882791,0.06359679541123275,0.019327220699427484,0.01967597,0.03751836074012377,0.4161060134227099,0.341679811,-0.04642818881675394,0.016106017265267177,-0.00433898,0.09609151646216087,0.9193272205262405,0.880270243,0.08410847236078059,0.0,0.007400274,-0.06667640496811043
0.046,-0.24311935924493444,-0.2645583186743464,0.07646161554458637,0.010128387436710368,-0.008506351241733316,0.025479895467351084,0.020256774857091774,0.02005147534618599,0.17078959442175004,0.4168806527387366,0.341679811,0.05505869095177272,0.0168806466897497,-0.003962540241733318,0.06401323437591024,0.9202567642816448,0.880645748346186,0.13183853683132388,0.0,0.007400274,-0.14708511120257847
0.048,-0.24233909116455998,-0.2641747512565295,0.12191608686511629,0.010596547294777008,-0.00849846,0.04539841369874777,0.021193093605771523,0.020059347,0.17245068173452593,0.41766091983544,0.3420555077234347,0.037781471231127,0.017660910851657524,-0.003954649,0.1141644031924866,0.9211931088003816,0.88065362,0.09746413323864042,0.0,0.007775969743470483,0.0785133535427549
0.05,-0.2415523874163489,-0.26416707,0.14676492589292955,0.01106856918636797,-0.00849846,0.005354022564444977,0.022137138356291705,0.020059347,0.08329466465100752,0.4184476235836511,0.342063189,0.04486151325515679,0.018447615616539563,-0.003954649,0.1092218737759628,0.9221371652905148,0.8810302982902111,0.1451966995051866,0.0,0.007407907713962084,0.06820544046977466
0.052,-0.24075997546901073,-0.263790435761621,0.1397745047487485,0.011544018508939213,-0.008122759678903456,0.09039341907914185,0.023088036050059595,0.020435047321096543,0.07191376129201431,0.41924003554707984,0.342439823238379,0.09884512574493445,0.01924002954707986,-0.003954649,-0.00903032979356376,0.9230880588569725,0.8814136513210965,0.19164085467246722,0.0,0.007400274,-0.13845697027127535
0.054,-0.23996134346505824,-0.26340753355399454,0.17098227989105846,0.012023197079866889,-0.008115083,0.09806153027658054,0.024046395159733776,0.020442724,0.10815618217454459,0.42003866853494176,0.342447519,0.0626110865926896,0.02003866247171381,-0.003579442553994523,0.07218402803571854,0.924046405875208,0.881421328,0.18659442914716037,0.0,0.007400274,-0.05456156112727706
0.056,-0.2391586816283566,-0.26303140258615854,0.21706517325555294,0.012504791635875402,-0.007747123545943418,0.08949108548304886,0.025009584258861437,0.020811599088847322,0.07907354490343699,0.42084133017830294,0.3428154784540566,0.06765615750923544,0.020841320371643393,-0.003571272,0.01103095929717092,0.9250095770139636,0.8817892874540566,0.11968240207622165,0.0,0.007400274,-0.0321396052779986
0.058,-0.23834654057746477,-0.263015985,0.218967438,0.012992077281690141,-0.007361667851829633,0.07746209854829034,0.025984154563380282,0.02119709314817037,0.08548023417756449,0.4216534564084507,0.342830896,0.13565358472825434,0.02165346146478873,-0.003201233851829634,0.059939947112177566,0.9259841291690141,0.8821747431481703,0.16106789996820636,0.0,0.007400274,-0.034226095092381524
0.06,-0.23752826681718636,-0.26264153234700277,0.15041091862477385,0.013483043406093787,-0.007348329,0.0976980036186226,0.02696608682742204,0.021584884652997224,0.2425439430642866,0.4224717291828136,0.342830896,0.023334478106139186,0.022471738015234468,-0.003187895,-0.002287345769870955,0.9269661036598429,0.8825634654688217,0.1453724326499819,0.0,0.007400274,0.0014363429126764
0.062,-0.23670600947079898,-0.262632608,0.0720668582561925,0.013976391106532903,-0.00697678183368719,0.1478466778995046,0.027952783199331182,0.021593809,0.13121913348761502,0.42329398652920097,0.342830896,0.09583070228520879,0.023293984529201003,-0.0028172701012031142,0.07289176464048124,0.9279527892268004,0.882572412,0.1437803037091295,0.0,0.007400274,0.07456990754140128
0.064,-0.2358749325175449,-0.2622566723200193,0.1246556272515989,0.014475036548233615,-0.006963998,0.11999895464221069,0.02895007309646723,0.021968812494871485,0.20129262879232535,0.4241250634824551,0.3432058994948715,0.029761819931096903,0.02412506155977162,-0.002804518,0.1829984465908049,0.9289500813438801,0.8833224199679016,0.3509095819285628,0.0,0.007400274,0.13676267707505732
0.066,-0.23504091934908136,-0.26151167724719104,0.18745546706179778,0.014975448142448103,-0.006595697623595505,0.10966423073595506,0.029950896284896205,0.022346402859550564,0.13140930193258427,0.4249590764504892,0.34358257433707867,0.06634144270224719,0.024959079584108805,-0.002435301140449438,0.1590123975561798,0.9299509199909329,0.883339167,0.14620525946067414,0.0,0.007400274,0.05013984544382023
0.068,-0.23419827398578594,-0.261481524,0.17507769876357906,0.015481031865384614,-0.006580621,0.062071200163069835,0.030962063730769228,0.022361517,0.057564381856086325,0.4258017074548495,0.343597651,0.11557533682747333,0.02580172012792642,-0.002420187,0.023846202854025222,0.9309620657876254,0.8837134801645248,0.18292622380383122,0.0,0.007400274,0.21191126768974297
0.07,-0.23334861731350579,-0.2611060289666467,0.2464531410243873,0.015990829827989037,-0.006204192562104005,0.09446501389970113,0.03198165965597807,0.023112505107830243,0.19633427946156606,0.4266513946704017,0.34397407845845784,0.22134875144937238,0.02665138470258672,-0.0020446929460848774,0.11026960503048416,0.931981665237573,0.8840989714584578,0.18880718404722055,0.0,0.007400274,-0.07402183085941422
0.072,-0.23249445301331273,-0.26034626895363533,0.27186978627938024,0.01650332933745394,-0.005820818151489869,0.12081323884672228,0.03300665867490788,0.023128271,0.1825442772387366,0.42750555798668727,0.343981981,0.19814000901823597,0.02750554987436111,-0.0016613381514898689,0.1629659662990465,0.933006638787234,0.8844823468278903,0.17037500217938023,0.0,0.007400274,-0.06217565555077473
0.074,-0.23163665436591183,-0.2599628141540796,0.24603589173958212,0.017018005253873657,-0.005812913,0.1194217465954243,0.03403601049463647,0.023495895845920392,0.24072102753916189,0.4283633566340882,0.3443496058459204,0.16395190652340375,0.028363341752085817,-0.0012858081540796078,0.2649954764297887,0.9340359973504171,0.8848578768459204,0.24314583401260653,0.0,0.007400274,-0.0413135231536127
0.076,-0.2307703346813527,-0.25957676888787407,0.19332438306273286,0.01753780252369612,-0.005071407267996634,0.1845141040895325,0.0350756040733508,0.024253153732003364,0.22554331336534073,0.4292296763316266,0.34473565014625646,0.04018084369787285,0.02922967022779233,-0.001270056,0.1617340502253335,0.9350755805016671,0.8852439211462565,0.13603859753118616,0.0,0.007029061380122581,-0.09496638687068862
0.078,-0.22989868247732698,-0.2591947836387968,0.16953232244587874,0.01806078870405728,-0.005045205,0.12398132318048317,0.036121578384248204,0.024647341621151113,0.13352426660409758,0.4301013291527446,0.344748735,0.054898209984130746,0.030101315474940334,-0.0009011546789436287,0.2311632654066793,0.9361215869904534,0.8856249916211512,0.2698191007039318,0.0,0.007015944,-0.15401713983230697
0.08,-0.22901910456272487,-0.25880536279008604,0.2802526230658102,0.018588534667546175,-0.00467121379008605,0.143952642660526,0.03717706836099784,0.02503672420991395,0.2987996328824385,0.43098087645022787,0.3451227271854321,0.03485526440855654,0.03098088945022787,-0.0005117337900860502,0.21189838879663073,0.9371770446459583,0.8860153048541995,0.18685974228396557,0.0,0.007015944,-0.1906424201477397
0.082,-0.2281289749377979,-0.25802867568436055,0.25707092217955113,0.01912261277669209,-0.00427790332490203,0.157805585240114,0.038245226534437564,0.02504665767509797,0.16631140116708232,0.4318710070432555,0.34551698931563946,0.15333507548094052,0.03187102004325548,-0.00011842468436052725,0.16116016467438546,0.9382452251217827,0.8867920143156395,0.27966909394869965,0.0,0.007015944,-0.028196144133950836
0.084,-0.22723834818850602,-0.25764675552606575,0.22666931170074814,0.01965698577989746,-0.003895032791829949,0.2932447599331433,0.0393139715411947,0.025429528208170054,0.15840698272152953,0.43276163310909743,0.34589890947393426,0.13965435086509914,0.03276164588589484,0.00026349547393421206,0.28428668820935754,0.939314000057589,0.8871739344739342,0.15319649408550054,0.0,0.007015944,-0.005394935776748603
0.086,-0.22634121414890318,-0.25726215692555476,0.24183013507229778,0.020195271174296613,-0.0031286466676210926,0.30060544350059654,0.040390541348593226,0.025813177666189454,0.18580808333047005,0.4336587828323796,0.34628255666618946,0.28281478427893103,0.03365878398211731,0.0006480950727749942,0.26934692792770226,0.9403905441988555,0.8875585330744453,0.1315683492994512,0.0,0.007015944,-0.002293915185874493
0.088,-0.22543798042203148,-0.25687891462166346,0.20226313683353195,0.02073721463376252,-0.0023612131758817922,0.3177028976204719,0.04147442828636147,0.02619641837833651,0.19072878283317446,0.43456201557796853,0.3466657973783365,0.1825503521191611,0.03456202437076777,0.001031337378336511,0.25104798738548617,0.9414744234935623,0.8879417763763108,0.39406510533817923,0.0,0.006633342623689228,0.07080499946008104
0.09,-0.22452877697048673,-0.2561128457494933,0.365140342308692,0.021282730941806497,-0.0019770123737927743,0.27753122484320975,0.042565461883612994,0.026963438432454988,0.14382936062334567,0.43547121931155536,0.3470501718062478,0.14427214452664838,0.03547121725514697,0.0014147596262072256,0.24644199082365564,0.9425654675451625,0.8887078442524144,0.20818482482103254,0.0,0.006632566,-0.1651104728618099
0.092,-0.22361496806337272,-0.25572851624330756,0.15112201438036882,0.021831022703544575,-0.0012124462299821534,0.37276273373753716,0.04366204540708915,0.026964903,0.07685664221820346,0.4363850429538131,0.3474328223850089,0.1730806921302796,0.036385037867883996,0.0021802761378941103,0.3163564549530042,0.943662033716434,0.8890921737566925,0.3178834531624033,0.0,0.006632566,0.010770185447233793
0.094,-0.22269250218281492,-0.2553444542910198,0.18075851147408648,0.02238449880955786,-0.00044337751874850726,0.3681018053330547,0.044768997637468715,0.027730100417960354,0.26908247984069733,0.4373075092665951,0.3478168807089802,0.1716682896764987,0.0373074996703611,0.002565797708980177,0.36992103033066637,0.9447690035640567,0.8894762367069501,0.20257078527107714,0.0,0.006249967291019823,0.08606037186171482
0.096,-0.22176542967944912,-0.25457938615658493,0.3861556395959752,0.022940738092722308,-5.967457668492498e-05,0.3118764165837104,0.045881477185444615,0.028113801423315075,0.3199722390113122,0.4382345528404369,0.3481998034233151,0.2903010952548226,0.03823456451774902,0.0033318157794713027,0.2361838145331031,0.9458814789882465,0.8902413038466301,0.2802091821247916,0.0,0.006249189,0.026894206372588714
0.098,-0.2208356916,-0.2542056447222736,0.27036409075970425,0.02349858641497326,0.0006822692925138632,0.3058578501411737,0.04699717380213904,0.028485389646256933,0.1892355594625693,0.43916431941390377,0.34894266889001846,0.23466974714648797,0.039164313302673795,0.003705561243761553,0.19890079035466726,0.9469971645518717,0.8906150452777264,0.2710264212798059,0.0,0.006249189,0.0443915124711183
0.1,-0.21989906723322147,-0.25344916660182076,0.2559135205618112,0.02406055924496644,0.001080949172256828,0.30077042734355536,0.048121117511505274,0.02924276037134643,0.3296232333315764,0.4401009447559923,0.3493404561990896,0.12469666572280785,0.04010093076677852,0.004462039398179205,0.31596127979228555,0.9481210910292425,0.8913715243677527,0.3458527344578342,0.0,0.005877476800910397,0.040575072240776236
0.102,-0.2189484172180908,-0.2526751994302885,0.3063148348707933,0.024630947904540578,0.001842347782451923,0.2612297352590144,0.0492618967929925,0.029640971391225963,0.20287972763701922,0.44105159378190917,0.34972697339122594,0.2958692658299279,0.04105158083017519,0.005235073782451923,0.3510063982469952,0.9492619177286379,0.891769706391226,0.2539181764266827,0.0,0.005865812,-0.026701964094350952
0.104,-0.2179969474620706,-0.2519078367986641,0.33733079590744275,0.025201831894203244,0.0022345431006679387,0.17459911599379774,0.05040366380427004,0.03040072171946565,0.24647926708874046,0.4420030635379294,0.3501106450791985,0.23563489860543896,0.04200305349033874,0.00562820261879771,0.25914551791269086,0.9504036800904103,0.8925294557409351,0.2684967681812977,0.0,0.005865812,-0.07152921366793893
0.106,-0.21703876709450604,-0.2511396933509483,0.3603963718487415,0.025776738330234777,0.0026190818668734342,0.22892328019849695,0.051553477627815515,0.03079257778217822,0.4100531934537755,0.4429612436605887,0.3508705566699272,0.2969752894015269,0.04296123090549398,0.006387201564356435,0.3168754226036026,0.9515534503788583,0.8932976196490516,0.34834769115996655,0.0,0.005865812,-0.03961069141071215
0.108,-0.21607521763093251,-0.25037290798748363,0.4490267476271308,0.026354867305151443,0.0030024845062581952,0.21828875215198473,0.05270973362640115,0.031175960506258198,0.3890165175632376,0.4439247786105414,0.3512619625062582,0.2878548047825724,0.043924780481755306,0.007154901111455478,0.34056028760579327,0.9527097509502742,0.8936899596051973,0.40382807421635475,0.0,0.0054894993739420675,-0.10315397943378235
0.11,-0.21510527421025152,-0.24960656362430086,0.4210773001099607,0.026936838477100142,0.003759898946566702,0.25445608578781387,0.053873676954200284,0.031934307375699154,0.333611807093181,0.44489473678974845,0.35164466847328335,0.18770970958419614,0.04489473078974846,0.007920332946566704,0.4379810033704629,0.9538736529542002,0.89482210241985,0.3148947949820302,0.0,0.0051067725493276215,-0.03442797147423539
0.112,-0.21413389571691793,-0.2488532396469211,0.37498075967185673,0.02751966574874372,0.004146133409271833,0.29976411194649966,0.05503933148576215,0.0326876313530789,0.30246231499098575,0.44586611528308207,0.35239021804565673,0.23373016460782017,0.0458661092479062,0.008305652676539451,0.3596665945098338,0.9550393081072027,0.8955849890456568,0.41181839570381645,0.0,0.005098104,-0.084067674697963
0.114,-0.21314846642375104,-0.2480745651071645,0.2049000884964238,0.028110921548825562,0.004909451892835495,0.36743818341520185,0.05622184212841302,0.03346723544041702,0.32740875266517155,0.4468515443609157,0.3527949874587223,0.20003222209601162,0.04685153557624896,0.00906986244041702,0.3801135163776216,0.9562218709899846,0.8963637009174446,0.45465871312910655,0.0,0.005098104,-0.043050632184992124
0.116,-0.21216049888372093,-0.24730647914117088,0.32276540929617265,0.028703702248062013,0.006051682240610468,0.4683676770759509,0.057407405465116274,0.03386027140586622,0.288159187838202,0.44783949810077517,0.35317856540586623,0.40016705198986524,0.04783950305426357,0.009837041811732443,0.37177592368117324,0.9574074255426357,0.8975059312406105,0.490778498121736,0.0,0.005098104,-0.015157361343746269
0.118,-0.21116617772690427,-0.2465388941315036,0.3913750876192124,0.02930029356705209,0.0064539534342482096,0.3448764320912888,0.05860058616605078,0.03499407933114558,0.389142454175179,0.448833818289069,0.3539378258968974,0.23965301769319808,0.048833820336988916,0.010605535896897375,0.2522964205603819,0.9586006105590654,0.8986582293311456,0.5131124161828162,0.0,0.00472355656575179,-0.12332332949140812
0.12,-0.21016645201776346,-0.24577110181054013,0.42124945244795514,0.029900129182999523,0.007587516703946584,0.39800067745224754,0.059800259365999045,0.03576979102897341,0.47265566302170026,0.4498335449822365,0.35433010751448674,0.2849533773461309,0.04983354998223653,0.011372418028973411,0.38814687147096694,0.9598002461915832,0.8998085415434601,0.5404555267196852,0.0,0.004714727,0.03662819280279003
0.122,-0.20916050150059592,-0.24462825046511627,0.4263881488472272,0.03050369913158522,0.0083634306163387,0.5361604282178891,0.06100739924719905,0.03653783922671437,0.5318359891252236,0.4508394957230036,0.35508937922671435,0.3562144673853309,0.05083950048343266,0.01214046622671437,0.29890847389218844,0.9610073756624553,0.9005853662267144,0.649082859037567,0.0,0.0043399456918306505,0.019552450023852117
0.124,-0.20814880084005247,-0.2434787555178699,0.6009137945113175,0.031110721442032443,0.009505240547176556,0.42811552257386226,0.06222144289992843,0.037678738482130096,0.40732476075756485,0.4518512101758111,0.35585571632142005,0.33546049415165596,0.05185120017581107,0.012906803321420062,0.39071107179104125,0.9622214452013358,0.9017271975471766,0.5680753118895641,0.0,0.00433135,-0.15684404587097928
0.126,-0.20713061225599336,-0.24270173034383202,0.47970430909711287,0.03172163128542606,0.010657110648293965,0.5111602420721785,0.06344326355459293,0.03845576365616798,0.47776387707874013,0.4528693997277475,0.3562481699698163,0.3722301590682415,0.05286938972774745,0.014049837625984253,0.4794479927769029,0.9634432846684073,0.9028781359094488,0.6228004161312336,0.0,0.003955594291338582,0.02400747708267717
0.128,-0.20611130674390826,-0.24157920560273974,0.5120123567608008,0.032333216893932155,0.011419112801896733,0.4463844662848612,0.06466643378786431,0.039577372262381456,0.4536492308071654,0.453888703909699,0.35699395997646644,0.2631825523417633,0.05388869417247969,0.014811838841587637,0.500471524345627,0.9646664613459149,0.9040091923972603,0.539690010936073,0.0,0.00394702,-0.0963230485486477
0.13,-0.2050795713792857,-0.240786076767256,0.5000788713729717,0.032952253295,0.01257163782005328,0.405339556076774,0.06590450657607143,0.04037139320368128,0.5864552701869703,0.45492041102464287,0.35777187223274404,0.3136757741053524,0.05492042277392857,0.01559064320368128,0.4893592859953984,0.9659044979939286,0.9051769718200532,0.6385395887461855,0.0,0.0035732993836279973,-0.1698971606413175
0.132,-0.20404538464077437,-0.23929059098341762,0.581936265298483,0.03357277400800669,0.013338258627896038,0.5022015593535223,0.06714554702856118,0.04149808920263437,0.4219810653658709,0.4559546261835564,0.35852973038868635,0.4354705879368458,0.05595462037177342,0.016347607627896037,0.5741909444474891,0.9671455681163958,0.9063124064418441,0.6012565389837705,0.0,0.003563643,-0.016062429654945337
0.134,-0.20300129491022442,-0.23848518460884272,0.6431711486943706,0.034199227226932666,0.014488990654747524,0.5747555779792219,0.06839845445386533,0.04266249108673593,0.6139903003771443,0.4569987022992519,0.3593060103911573,0.3881856562744624,0.05699871102992519,0.017498339654747525,0.4363066934373037,0.9683984822294264,0.9078512603503262,0.6389314951273255,0.0,0.0031900833300314083,-0.133326418898043
0.136,-0.20195781726718562,-0.2373484831976261,0.6121143819909792,0.03482531203077844,0.015635533831928783,0.5755836581448072,0.06965062407269461,0.04343696446979228,0.5125930622505638,0.4580421937439521,0.3600706654697923,0.4193951297609495,0.05804218477736527,0.018272837469792285,0.40001710123905043,0.9696506368276647,0.9090076228023739,0.6417400883596439,0.0,0.002808218667418398,-0.11583533045756678
0.138,-0.20089954088157425,-0.23619071247229553,0.5113159626094986,0.0354602770175313,0.016793304527704483,0.5106649877994723,0.07092055501932021,0.04458340452770449,0.6106436834881267,0.4591004708822898,0.36084190112137204,0.3712252811134565,0.05910046499248658,0.019044073121372032,0.36326977577044856,0.970920546601789,0.9101653935277044,0.6054468830474934,0.0,0.002796888,-0.03327342050923483
0.14,-0.19983970346049337,-0.23503677539096668,0.6343396807297168,0.03609617623715886,0.01757108591181742,0.4617749036344844,0.07219235249052557,0.045736407899629586,0.5097608024174931,0.4601602935395066,0.36161148864249015,0.3416543735418807,0.06016029466916935,0.02018888360903334,0.4833712163270403,0.972192380247408,0.9116945535755766,0.6977543478924604,0.0,0.002796888,-0.13881085416154856
0.142,-0.1987749081805869,-0.23388804302857485,0.6161805629149899,0.03673506026636569,0.018712575526372188,0.525718358028932,0.07347012153273139,0.046886052503869506,0.5218337619259436,0.4612250888194131,0.3623773169809501,0.43650020191689487,0.06122509780361174,0.020962865980950113,0.5053901142753898,0.9734701338374717,0.9128523725038695,0.7409460843755209,0.0,0.002421206454577926,-0.1262321876516252
0.144,-0.19770731200166947,-0.2327436767529328,0.6690794019613698,0.03737561633388981,0.01911099742173243,0.43229385929020026,0.07475123366777962,0.04803044024706719,0.6283240336590828,0.4622926847979966,0.36314053682533476,0.41645784476656,0.062292692910684476,0.021726085825334755,0.4139112785155824,0.9747512033063439,0.9143683526869297,0.6499667065235217,0.0,0.002040038578267567,-0.2578459787102737
0.146,-0.19663004029898506,-0.23160387779497166,0.6295395149333097,0.038021974248716416,0.019859377013101982,0.4014354301757554,0.07604394947188059,0.04916932157684136,0.5668392574938621,0.4633699410842985,0.3638998000512276,0.39526177744759206,0.06336995770101493,0.02285502624315392,0.5624054935272663,0.976043969293015,0.9155189822050283,0.6549194288359301,0.0,0.002029181,-0.27343367773878663
0.148,-0.19554536558096489,-0.23043716558689079,0.6264221946005564,0.03867278118784333,0.02063747015987423,0.3904983933293022,0.07734556137568666,0.05033599741310921,0.6416773598938204,0.4644546449855505,0.3650518594131092,0.5269166447714355,0.06445463230343922,0.023646843531019472,0.4582544932693191,0.9773455671589444,0.9170596596908938,0.6451006882543233,0.0,0.002029181,-0.017887236534768425
0.15,-0.19445470345011323,-0.2292864734799714,0.584685297844063,0.03932717412993206,0.021404606989270387,0.3489686798965188,0.0786543472598641,0.05148762054577968,0.6257556679704339,0.4655452775660985,0.3658284070133524,0.3858046811835956,0.0655452866795804,0.02478903056986171,0.4584607484969003,0.9786543382598641,0.9182206945457797,0.640676391499523,0.0,0.0016550355174058179,-0.045694143262517875
0.152,-0.19336024568248478,-0.22776162392228844,0.6119430866870084,0.039983848787289854,0.022172112465077474,0.4511259971940405,0.07996769660677239,0.05263843775923719,0.6294832895864124,0.46663973630141886,0.3665959134407628,0.49389862095327774,0.06663975218874449,0.025564862612634087,0.5314843468731824,0.9799676879608918,0.9197455670777116,0.6953623814619786,0.0,0.0012717476815256258,-0.19542079652681765
0.154,-0.1922595628318236,-0.22659947747600284,0.626071493061724,0.04064425843480334,0.023315615523997135,0.4910935895457259,0.08128851786960668,0.05379033027829513,0.6820733271941262,0.4677404186580453,0.3673638495188634,0.39528750758870584,0.06774042741311086,0.026333706787368672,0.45278377568612704,0.9812885310002384,0.9212823482834288,0.6907634169851957,0.0,0.0008868599720630373,-0.1693093338803725
0.156,-0.1911535831279361,-0.22582509395202952,0.6457394765690989,0.041307854236318116,0.02408999904797048,0.4890183712618736,0.08261570945653988,0.054939690406142126,0.6368467316244495,0.46884642740527005,0.36813039988215684,0.44949684538197837,0.06884642175938953,0.027473416547672897,0.4330389307805023,0.9826157304565398,0.9224404724061421,0.6566771376830138,0.0,0.000878096,-0.14032573530901082
0.158,-0.19004124604028605,-0.22467921599964108,0.5565597164480737,0.04197525124767581,0.024860435418042594,0.43864703230031105,0.08395050249535162,0.0557194594180426,0.4778912533455372,0.46995873643325387,0.3688999251646327,0.3941216308013879,0.0699587520740167,0.028628604000358937,0.4639744970790859,0.9839505227605483,0.923594748746949,0.6331190041371142,0.0,0.0005026544176836564,-0.2262908530378081
0.16,-0.18892358611803825,-0.22352777412304756,0.5516750753685467,0.042645851477496735,0.02600300830738047,0.41292024725992604,0.08529170297114357,0.05686296587695243,0.46379363791045664,0.4710764248981119,0.37004341187695244,0.4841023093816621,0.07107641876891106,0.029780044897341124,0.4661325243157267,0.9852916794556467,0.9247461708769523,0.5836105333789198,0.0,0.000494719,-0.07266307874341243
0.162,-0.18780427900906596,-0.22239882750525947,0.5354932166746144,0.04331743266336634,0.026395560338709677,0.31471825600070125,0.0866348663144459,0.057991911534361854,0.5409438997776999,0.47219573280663246,0.37080325519565216,0.35850472021458624,0.0721957190892282,0.030539889156030856,0.549692664951613,0.9866348724127401,0.9258751174947405,0.5351086121949509,0.0,0.0001265309417952314,-0.2643322224512623
0.164,-0.18667401445204498,-0.22160505397575758,0.4588949031878788,0.04399559684274097,0.02753303801212121,0.3912703544,0.08799119368548194,0.05916069890909091,0.5143582890727273,0.47332598273044724,0.37158273189696966,0.3562225569878788,0.07332599144367376,0.03169344890909091,0.4846498891818182,0.987991207776728,0.9266688910242424,0.4527497722060606,0.0,0.000111341,-0.08923626493939396
0.166,-0.1855353276066746,-0.22046282699427755,0.44360289382164997,0.04467880242312276,0.027936086194563663,0.2979111118006676,0.08935760483015495,0.0599370768111588,0.46476298453838816,0.4744646831519666,0.3723498148350024,0.47248098887601336,0.07446467039332538,0.03284499202956604,0.6646705971950405,0.9893576259588795,0.9278111180057225,0.5568044073400095,0.0,-0.0002628949175011922,0.0970322911583214
0.168,-0.18439448524040067,-0.21968601371201815,0.39406326214965987,0.045363307161221084,0.02831993364399093,0.27294421051247164,0.09072661333842118,0.06070565767800454,0.3657399093605442,0.4756055107755784,0.3731183966553288,0.39926370588208615,0.07560551288743143,0.03362180626530612,0.5244516040725624,0.9907266417312187,0.9289635472993197,0.559991347818594,0.0,-0.000272036,-0.1535414002040816
0.17,-0.18324738301262958,-0.21854374667640047,0.3884480218065554,0.046051574972834505,0.028703276347199047,0.2182905226750894,0.09210314996199213,0.06184701501883194,0.505428657525745,0.47675261421589415,0.3738851036943981,0.36021680716889154,0.0767526229710473,0.03476407234636472,0.4867990104713945,0.992103141076254,0.929738947694398,0.5850582370973779,0.0,-0.000272036,-0.01332251930238379
0.172,-0.18209560798043892,-0.21814325171069557,0.3078955904935684,0.046742638767652674,0.0294605855549071,0.18753325620783706,0.09348527853530535,0.0629969992801334,0.5456805367056932,0.4779044027991412,0.37502636125643163,0.3876565662065269,0.07790439703530534,0.035914079256431634,0.4666337932627442,0.9934852765353053,0.9308802052564317,0.4438193322883516,0.0,-0.0006472567015245355,-0.033753618694854694
0.174,-0.18093676466305125,-0.21700944701503222,0.31041531560486757,0.047437941943384986,0.029854285449534716,0.12876048091123837,0.094875884870441,0.06377440470579815,0.4231268530229062,0.47906323232061976,0.3758037667057981,0.4584173699012169,0.07906324120631705,0.03669055353543307,0.42441768561918397,0.9948758830010727,0.9320322059849677,0.5441447857795276,0.0,-0.000656366,-0.09098749306370796
0.176,-0.17977308666868685,-0.21623244312695566,0.33442105273701184,0.0481361452989899,0.030238407436522154,0.21021599450698675,0.0962722905979798,0.06491794628854652,0.5636417892940403,0.48022690957373737,0.37657198887304427,0.4077769441832079,0.08022691144444444,0.03745968684103666,0.36816450613877943,0.9962722961131313,0.9331845283095664,0.5286517936919861,0.0,-0.0010316844365221545,-0.15505921939746806
0.178,-0.17860724181179138,-0.2158463663033642,0.29233840617946316,0.04883565826089032,0.03061550736959325,0.28663968772629234,0.09767131650877194,0.06568112210362208,0.530292349067284,0.4813927690060867,0.3773271070662291,0.36993014479592073,0.08139276309714763,0.03858294907138671,0.4345471600257883,0.9976712927039026,0.9343167464358223,0.6222733289064588,0.0,-0.001039743,-0.11380690279650686
0.18,-0.17743063885858945,-0.21508450710678906,0.3516728197436579,0.049541616059328095,0.03137826092220344,0.2964117647929451,0.09908323114700977,0.06683106181468954,0.599090929592172,0.4825693583398856,0.3784770458398164,0.4919729751326407,0.08256935914141053,0.03974811689393573,0.4014710144513168,0.9990832230968549,0.9354819508688089,0.6485356471275671,0.0,-0.001039743,-0.0005867208915196903
0.182,-0.17625056337646217,-0.21432521608366722,0.3297110752304973,0.05024965958761041,0.031767103658496346,0.26552440526608534,0.10049932017522081,0.06796953761088853,0.6109024755786,0.4837494472323943,0.37924596991633275,0.4422044955366486,0.08374943462353783,0.04051706491633278,0.4770353871967947,1.0004993776761757,0.9366195319754891,0.5173278297570115,0.0,-0.001039743,-0.08007915315720009
0.184,-0.17506246012056823,-0.21392318698755738,0.17685738307538054,0.05096252253061955,0.032155274012442614,0.2014274945343078,0.10192504604643667,0.06913501456450834,0.5397579002683015,0.4849375218794318,0.3803966910373278,0.4789619948737618,0.08493753787943177,0.04166778701377144,0.5022455654484176,1.0019250670464368,0.9377849745645084,0.6339782974034791,0.0,-0.0014140890124426189,-0.17703000925803336
0.186,-0.17386859837592372,-0.21316558191731205,0.34003746594554984,0.05167883978092968,0.032538593017633746,0.21367403753175265,0.10335767956185936,0.07028592250446801,0.6953485717519361,0.48613138385101307,0.38117328946312407,0.5022420447850591,0.08613139962407629,0.04244438448683427,0.37466680789979745,1.0033576994758044,0.938935882504468,0.5236923331919456,0.0,-0.00142312,0.056081731920648165
0.188,-0.17267111542908137,-0.21239746035476562,0.4141498786605034,0.052397329993574486,0.032923118806990344,0.20220304105260645,0.10479466000309377,0.07181216636800668,0.7629654223440295,0.48732888082603526,0.38231593850662055,0.35819601242586185,0.08732888269847693,0.0432115976996302,0.39838925869485864,1.004794613987149,0.9400876215066205,0.6270729143706311,0.0,-0.00142312,-0.08129632686472624
0.19,-0.17146981770338984,-0.2116386220540158,0.3317440355477061,0.05311811174671759,0.0333025489729921,0.23404386821736053,0.10623622447923131,0.0729592849189763,0.7166942178186106,0.4885301940693483,0.3830836489459842,0.3945931466694186,0.08853018818297922,0.04397133502571058,0.40197450384325983,1.0062361786439484,0.9412258679189763,0.5564367212138224,0.0,-0.00142312,-0.10533306393631325
0.192,-0.17025937863632026,-0.21086236627192664,0.49741047212148637,0.053844372950483235,0.034065031020147185,0.28340257604692964,0.10768874590096647,0.07449802274822052,0.6941527746386777,0.48974061714819234,0.38423472523814695,0.47653165984775003,0.08974061936367975,0.04512151150790204,0.37671572668657255,1.0076887802237202,0.9423897852381469,0.6219306760468091,0.0,-0.0017979414877548558,-0.106048584
0.194,-0.16904374624222643,-0.21009431283848634,0.2920437649284947,0.05457374817173036,0.03445853787895428,0.24308008905252476,0.10914749634346071,0.07565958304046794,0.6661777784408499,0.49095623598540233,0.38501133516151365,0.4245734624203175,0.09095625187158794,0.0458990334803629,0.3552119085090128,1.0091474866117969,0.9439182486212249,0.6210926713909514,0.0,-0.001806498,-0.014892210471051687
0.196,-0.1678288915859347,-0.20934032833025162,0.4108745292775893,0.05530266804843918,0.03483509120035108,0.19088638520550028,0.11060533608491807,0.07715873707045055,0.709613632697952,0.49217110442602563,0.3857653196697484,0.43224180223967235,0.09217111342602559,0.04665212136220012,0.5102900490537157,1.0106052832450665,0.9450567038700994,0.6885320402729082,0.0,-0.001806498,-0.014437100533528379
0.198,-0.1665993155791796,-0.2085619490492002,0.43071154333046535,0.05604041361614596,0.0352242624753999,0.16916080519255938,0.1120808262474362,0.0783419801137906,0.6720332790099369,0.49340068164798473,0.3865436989507998,0.432594299,0.0934006902996661,0.04743139466177897,0.5343999339918808,1.0120808677784403,0.9465995965891906,0.7329599433299806,0.0,-0.001806498,-0.0472800573223461
0.2,-0.16536766405379935,-0.20779437847596383,0.4935691752527368,0.05677940220183705,0.035607117373631605,0.1539574072722513,0.11355880441918167,0.07949056712089482,0.6681148533736316,0.4946323479306931,0.3876842275092813,0.4415229788791052,0.09463233405475367,0.04819712772251309,0.45149384533793435,1.0135587517993558,0.9477571501208948,0.7297924809181342,0.0,-0.001806498,-0.08080367596430271
0.202,-0.16413030996294978,-0.20665227036862838,0.559225125899248,0.05752181670039187,0.035616606,0.14178276527384504,0.11504363436872105,0.08101740940682822,0.650159379961084,0.49586970055610974,0.38846143942091443,0.5415792480005969,0.09586969479657997,0.04934011921988779,0.46129892901026626,1.0150436683106518,0.9492839924068281,0.7040588204355974,0.0,-0.002180859210457204,-0.023524710105885166
0.204,-0.16289272103648325,-0.2058828001531106,0.42353521498300084,0.058264362688995215,0.03598827871302089,0.09474714886766615,0.11652872437799043,0.08216666798075788,0.7412192281696376,0.49710726033313396,0.3895926439807579,0.48938541914071537,0.09710726914832535,0.05010961184688938,0.3922317311062448,1.0165286937476075,0.9504332509807579,0.724690586822335,0.0,-0.002189875,-0.0029421485222523927
0.206,-0.16164078799713877,-0.2051084034544031,0.42035215862896036,0.05901553137339056,0.036000937,0.10397789397867728,0.11803106176251787,0.08370373514034454,0.5970452805487291,0.49835922278254646,0.39038059959474763,0.4442936236911216,0.098359217018598,0.05125856431839538,0.5493820305288519,1.0180310614706722,0.9519703181403445,0.6061508494007951,0.0,-0.0025653618449584387,-0.13795257363907962
0.208,-0.1603876399403626,-0.20434062362057456,0.39205910532232685,0.05976741847041985,0.03637553960686613,0.10226472630969127,0.1195348369408397,0.08486378198629156,0.6055040792660626,0.4996123570438931,0.3915220718205984,0.3806553025116224,0.09961236604389313,0.052035165379425444,0.40106122640171654,1.019534880106393,0.9531303649862916,0.6546309410035761,0.0,-0.002574205,-0.06510513350375492
0.21,-0.15912851483787932,-0.20357322210785014,0.3421492026980434,0.06052289555815326,0.03675922944607492,0.1524498469337867,0.12104579111630652,0.08639072172846575,0.5735519192103317,0.5008714809356477,0.39229915883631594,0.44335318417287045,0.10087149004888417,0.05317748331615366,0.4586793288212837,1.0210457821163066,0.9550322201745407,0.8313188676258649,0.0,-0.002574205,-0.024526746672154612
0.212,-0.15787648748635982,-0.20245656102480783,0.46203989536361517,0.06127410349741618,0.036767691,0.1478105859747263,0.12254820700156231,0.08752341553074772,0.6398838883529001,0.5021234946078597,0.39341675241963664,0.48270447527591426,0.1021235104598005,0.05393632950955043,0.5314929694523643,1.0225481984524696,0.9561751974642441,0.6685019828795714,0.0,-0.002574205,-0.05718082817645004
0.214,-0.15659684201670643,-0.201657128526777,0.5137827201192795,0.06204188927875895,0.037515776473222975,0.17501854422930865,0.12408377952792363,0.08906996133057449,0.7042761242497565,0.5034031539832936,0.3942152978573515,0.4859610597110516,0.10340314810167064,0.05471773085735151,0.5080643891499512,1.0240838363145586,0.9577218283305745,0.7035390371918209,0.0,-0.002574205,-0.07212823642502433
0.216,-0.1553206971669449,-0.20051375478162703,0.6208443008119698,0.06280758209348915,0.037535399,0.18361113924107036,0.12561516320283805,0.09060844907657388,0.7255626536141441,0.5046792985951587,0.39535957933711624,0.5307264862410703,0.1046793008330551,0.05586201233711623,0.6027787402384421,1.025615139678631,0.958884800218373,0.6402544068843627,0.0,-0.0029487887394576513,-0.0635339633426114
0.218,-0.15404022692596567,-0.19936156442004774,0.5591570327579952,0.0635758638862661,0.038285317351312645,0.2015253450424821,0.12715172778862663,0.09176945457995227,0.6967740751966587,0.5059597543154507,0.3961358993513126,0.3735809339804296,0.10595977118669528,0.05701422457995227,0.5662168624210024,1.0271517328229613,0.9600369905799523,0.6047162942978521,0.0,-0.0025826228243436755,0.002340530454892603
0.22,-0.1527545704489212,-0.19820816620341616,0.625014976644171,0.06434726030146622,0.0386778826088151,0.25916887193800764,0.128694521570509,0.09329858240539896,0.6291197518349259,0.5072454250809393,0.3972808587965838,0.4492915885586479,0.10724543443759685,0.05816762279658385,0.565345764,1.0286944690295625,0.9611903887965838,0.6727427183380315,0.0,-0.0029499346088150977,0.08905486411538462
0.222,-0.15146387615516627,-0.19705918059235442,0.6398298050381088,0.06512167517447265,0.0390608714692152,0.18638612881136118,0.13024334936503396,0.09445614941193284,0.6695852258940098,0.5085360915688237,0.39843077841193286,0.5793799612204359,0.10853612197354308,0.05931660840764559,0.6624527838432774,1.0302433841583838,0.9623393753866857,0.5068245414363464,0.0,-0.002582240530784804,0.007131580232940332
0.224,-0.15016803805197282,-0.1959082729147795,0.61621490080441,0.0658991820832042,0.0394451299443385,0.2301513811921335,0.13179836418226248,0.095606143211323,0.7099159624032181,0.5098319736943616,0.399205483140882,0.4402300592171633,0.10983196780534032,0.060467516085220496,0.5450329231309893,1.0317983254200738,0.963490282106317,0.4620167002760429,0.0,-0.002949494070441001,0.06658178940345649
0.226,-0.14886667674323362,-0.1943870773886909,0.6514284152687099,0.06667999365194682,0.04020122847849846,0.3185654479208838,0.13335998830389365,0.09675332337205987,0.5809634160757899,0.5111333197304131,0.40034457537205986,0.42526362778284627,0.11113332038307218,0.061614716372059876,0.6139074312784509,1.0333599643038938,0.9650114776113091,0.6260601677013543,0.0,-0.002957582,-0.09286055334592541
0.228,-0.14756545957004424,-0.19324475544926686,0.6347508476095014,0.06746072999066874,0.04058794397818182,0.32752474374428153,0.13492146098133748,0.09788626355073314,0.509753320161525,0.5124345659193684,0.40147751555073313,0.49965367918979475,0.11243454534872592,0.06274674093454545,0.6669604308541935,1.034921437329465,0.9661537995507331,0.5177231873960118,0.0,-0.002957582,-0.08224845237478005
0.23,-0.14624891039560048,-0.1917015601799224,0.6280600939020369,0.06825065378680142,0.04135227522793404,0.22760195859747817,0.1365013085585018,0.09905547102400582,0.5408426056122696,0.5137510722688466,0.4026457923882153,0.47152604143671195,0.11375108771010702,0.06428989782007759,0.7405577732735209,1.0365013138789536,0.9673230070240059,0.6565022398676043,0.0,-0.002957582,-0.11140470051430651
0.232,-0.14493494283596364,-0.1905580224598309,0.6205705761701902,0.06903903591869918,0.041739729513389716,0.3519467194735729,0.13807807183739837,0.10018961954016914,0.562825220688513,0.5150650826064084,0.40378083489957717,0.5485067925348838,0.11506506216403635,0.06543435289957716,0.8421261625193798,1.0380780330274988,0.9684571555401691,0.5362649946275546,0.0,-0.002957582,0.022837106109936584
0.234,-0.14360880560465117,-0.1890165365460598,0.5681646041911391,0.06983471979069766,0.0428776710663358,0.39435996859460115,0.13966943958139533,0.1013570100663358,0.6148886428736231,0.5163911766124032,0.4049482620663358,0.47716599639862,0.11639119939534884,0.06697680635746278,0.7716644394228301,1.0396694155813953,0.9696245460663359,0.6480531987844087,0.0,-0.002957582,0.11607605187204939
0.236,-0.14228058970960047,-0.18785305947401124,0.6251047306314972,0.07063164627835421,0.04328067034818975,0.2947700018942526,0.14126329255670841,0.10251120552598876,0.5731593003970605,0.5177194058269529,0.4061024565474967,0.6380662231635799,0.1177194151785331,0.06851543787417852,0.6339488574104434,1.0412632685726895,0.9707787415259888,0.6497550298141953,0.0,-0.002957582,-0.07285611429860199
0.238,-0.14094747839378485,-0.1863255142543849,0.7519128080490395,0.07143150732297474,0.0440407770266078,0.2639581091589309,0.14286301466219903,0.10366328738611144,0.6212298506873881,0.5190524890774523,0.40725360505786895,0.720845760613292,0.11905251971996204,0.06967576538611144,0.6787825903510322,1.0428629918896928,0.9723062867456151,0.5439246738340293,0.0,-0.002582118640496361,0.16354232492148912
0.24,-0.13961613575536122,-0.18479939478994784,0.7768498526804173,0.07223032252174434,0.04443000302228544,0.3153385414751067,0.14446064603210734,0.10518056408914178,0.8796567569032717,0.5203838605860788,0.40802503219155994,0.5635001945357989,0.12038386924463879,0.07119397121005215,0.6560131212759602,1.0444606366906672,0.9734580980668563,0.6879292138525367,0.0,-0.002574205,0.04823675674822191
0.242,-0.13826648887081397,-0.18363297584427407,0.7431040527816244,0.07304010850363485,0.045190314060134164,0.3472805656778869,0.14608021699094267,0.10634695913428366,0.6655574924162674,0.521733537129186,0.4095466126643508,0.6324108517658121,0.12173351612918602,0.07235945759020124,0.6060984015081456,1.0460801787256586,0.9749896516643508,0.7211108884143508,0.0,-0.002574205,0.1599905275220412
0.244,-0.13691886552997973,-0.18210890124223306,0.7542795783610284,0.07384868395422577,0.04595691747732413,0.30858742832460423,0.14769736692442484,0.10787103375776694,0.8491819674186406,0.5230811602304208,0.4103287462575884,0.6026992798812046,0.12308113935820718,0.07350889661754553,0.5304683240449947,1.0476973736432234,0.9765219467577669,0.756343501544697,0.0,-0.002574205,0.06708181832424712
0.246,-0.13556568250214593,-0.1805743106583214,0.7948191731582022,0.07466058595302813,0.04672375753242728,0.3371912257327134,0.14932117190605626,0.1094056243416786,0.7086499534176205,0.5244343287374821,0.411471144075465,0.6586336659352647,0.1244343156256557,0.07503472534167858,0.6107370231211254,1.049321221947544,0.977681890075465,0.7392589525938246,0.0,-0.002574205,-0.09470145089639963
0.248,-0.13420746603505007,-0.17903913323783396,0.6316543316956107,0.0754755191502146,0.047491801741889314,0.3743137676017414,0.15095103831640438,0.11094080176216603,0.67603064596875,0.5257925597412971,0.4129975907844704,0.6897909730593988,0.1257925397253219,0.07619507675202768,0.5917621791450381,1.0509510290767763,0.9795831637723044,0.8241774152548903,0.0,-0.002574205,-0.03277800505593988
0.25,-0.1328440554261025,-0.1778804137022291,0.6323862104565502,0.076293563840882,0.04825858721337466,0.4017300001892955,0.152587128681764,0.11247528416104423,0.8311180172837049,0.5271559565738975,0.4141572420543569,0.7650649183872928,0.12715593581525628,0.0773461770543569,0.6778176282531887,1.052587105647199,0.9811261971610442,0.7133373030390988,0.0,-0.002574205,0.004524251696984151
0.252,-0.131475960690161,-0.17635219035959887,0.6937496656454155,0.07711442645485987,0.04902743891117479,0.37274760478295127,0.15422885387775792,0.11401207464040115,0.7396373430845271,0.5285240505906976,0.4153091405730659,0.5814834333746418,0.12852404507012524,0.07887442164040115,0.6738137732378223,1.0542288889189029,0.982287574775788,0.8063934133194842,0.0,-0.002574205,0.11740413968624643
0.254,-0.13010225059854624,-0.17481732439017408,0.6038760134514668,0.07793864451596759,0.050169928382542334,0.4658339667603148,0.15587728803193518,0.1155469406098259,0.6329986604438349,0.5298977168912059,0.4164605088156451,0.5805419603007393,0.12989774064632983,0.08003283938254233,0.6931165544753161,1.0558772652563155,0.9841899904040067,0.734290793851419,0.0,-0.002574205,-0.05508466531886479
0.256,-0.12872455679868813,-0.17328446187687546,0.7064800316539652,0.07876526533357185,0.05094467978090021,0.5259334346101453,0.15753052968312461,0.11707980312312456,0.7604014500569183,0.5312754397059034,0.4176103929735651,0.543279753175756,0.13127544894561716,0.08118270495201238,0.623349049927959,1.0575305804434108,0.9853556019520123,0.8235142761222911,0.0,-0.002574205,-0.060239330110383425
0.258,-0.12734096404146808,-0.17212393488745675,0.6250833009252894,0.07959542171961391,0.052464189317102276,0.5528606380145602,0.1591908434555529,0.11861583831710229,0.7106476867765844,0.5326590024482841,0.4187617246547321,0.48267532374985084,0.13265902620340803,0.08271047731710228,0.7413715332289057,1.0591908789658009,0.9872588815421889,0.7322516517368421,0.0,-0.002574205,-0.022908306341090826
0.26,-0.12595352433527385,-0.17097349334274484,0.5620873196819156,0.08042788227206843,0.053622500657255184,0.6125487899324518,0.1608557655282167,0.12015037646533239,0.8386029825536098,0.5340464713144826,0.4199121466572552,0.6487209482912795,0.13404648055328502,0.08424408158184417,0.7513459278570408,1.0608557705889272,0.9888003555818442,0.8013973744910651,0.0,-0.002574205,-0.11025374956969264
0.262,-0.12456519795078834,-0.16984905979044845,0.5724447894093185,0.08126088263712375,0.05438021316866628,0.518453802377286,0.1625217652742475,0.12165054588806057,0.8040158384410018,0.5354347762391304,0.4210374908471753,0.5880993883285964,0.13543480004921166,0.08537751080372744,0.6580935114647641,1.062521713401099,0.9903005048880605,0.7795756011379149,0.0,-0.002574205,0.029427423104018635
0.264,-0.12316481223901624,-0.16867821203972785,0.644299020745839,0.08210111467406876,0.055534404934029884,0.5513867860191958,0.16420222934813752,0.12321140925707691,0.6483840643825781,0.5368351769794651,0.4222083809340299,0.6267893238063419,0.13683518576098377,0.08692171725707691,0.6048142396956627,1.0642022655520536,0.9918613682570769,0.7077890491534442,0.0,-0.002574205,0.03882982698870125
0.266,-0.12176032702892563,-0.16752468348298508,0.5881434892488359,0.08294380690613931,0.056688864507104475,0.5268385144255523,0.16588761381227862,0.12437406752692537,0.758598479466985,0.5382396768435654,0.4237360396926567,0.6353559925474627,0.13823967108264462,0.08808437552692537,0.6466796526321195,1.0658876638282173,0.9933990876926567,0.7660416811503283,0.0,-0.002574205,0.26972035531761196
0.268,-0.120366501931229,-0.16640467683203894,0.5374802120117075,0.08378009723235719,0.05780798893508751,0.5749425482570998,0.16756019446471437,0.12585783047965687,0.8037030596719601,0.5396334939733557,0.42486438888396894,0.6558103023283877,0.139633503068771,0.08956813847965689,0.631820380414049,1.0675602453692992,0.9948921204796568,0.7501539961836096,0.0,-0.002574205,0.04810446907163554
0.27,-0.11894488846066882,-0.16525395239273769,0.5666974027376971,0.08463306394716172,0.058959570291925466,0.5565343707252747,0.16926612789432344,0.1273930191610129,0.858711560786431,0.5410550927487802,0.42601596934257047,0.6250294754223602,0.1410551163560633,0.09110332716101291,0.714981215436216,1.069266164090682,0.996427309161013,0.694750598376493,0.0,-0.002574205,0.017026344886287622
0.272,-0.11753031483231598,-0.1640865348704331,0.6345653815723445,0.08548180990520647,0.06049645275248004,0.6835098284777401,0.17096361981041294,0.12894931775248003,0.7074337103081296,0.5424696823400359,0.42718343512956686,0.5953931733435761,0.1424696763400359,0.0922902091295669,0.6768242073128479,1.070963670465709,0.99798360775248,0.7318375133474474,0.0,-0.002574205,-0.051612770751996134
0.274,-0.1161032081060353,-0.16291900540931076,0.5191851516220073,0.08633807440100191,0.06167794259068923,0.6351717345347038,0.17267614880200383,0.13050570115767837,0.7427929113659009,0.5438968035400763,0.4283500326788392,0.6450730694964933,0.14389679777087308,0.09383263215767836,0.7513106733842805,1.0726761688788167,0.9991650975906893,0.7232024714036276,0.0,-0.002574205,-0.04521601747509069
0.276,-0.11467618697789923,-0.16214305888979008,0.5180111221910783,0.08719429109862167,0.06282912666531489,0.5876367739126908,0.17438858218132128,0.13166630241102098,0.6397765326524332,0.545323802372386,0.42950212843225194,0.6760908228640268,0.14532381089472432,0.09536847096612595,0.6216024379899809,1.074388544614306,1.00069151922042,0.734323341860687,0.0,-0.0021980346779580154,0.05504993992962786
0.278,-0.11324977793431266,-0.1610210758662845,0.37733054091881146,0.08805012953397826,0.06395924913371549,0.6021097991332475,0.1761002580679565,0.1327964441731399,0.6474886530940571,0.5467502329762332,0.43100053371525504,0.8159823293902667,0.1467502121679207,0.09687501571525503,0.7257528968148105,1.0761003090679564,1.0018297811337153,0.5469534687570192,0.0,-0.002189875,0.0674805127051942
0.28,-0.11181169588475305,-0.16022843238603074,0.5336518639418957,0.08891298604294917,0.06512645366965258,0.5998006178883912,0.17782597110045334,0.13433727997663722,0.6252939512905218,0.548188307896922,0.43218285266965256,0.5510431240478151,0.14818830211524697,0.09805733466965258,0.6275315686178429,1.0778260218821283,1.0033706169766372,0.7569669385208813,0.0,-0.002189875,0.05749198083997095
0.282,-0.1103703678,-0.1590904042036355,0.5230526141638351,0.08977778104615385,0.0662742517963645,0.5664512873773316,0.1795555620923077,0.13549389774349532,0.6840136803446596,0.5496296211999999,0.43370318738695496,0.6225683083949151,0.1496296302,0.09957766938695498,0.6026140467598907,1.0795555978615385,1.004900697386955,0.6511423468549364,0.0,-0.002189875,0.07353052191695378
0.284,-0.10892513879055343,-0.15793326444521696,0.5733069673291776,0.09064491372566794,0.06705590634140493,0.44347936231790935,0.18128982746708014,0.13665101055478304,0.6726208365756414,0.5510748500992366,0.434871167554783,0.6874706537477824,0.15107485909923662,0.10111927068280988,0.7614818175660513,1.0812898486875,1.0064432307254856,0.740326653109566,0.0,-0.002189875,0.048662221323903146
0.286,-0.10747504299463648,-0.15678229909617447,0.543198426031343,0.09151497128486294,0.06857253922393039,0.6285139979259922,0.1830299435533969,0.13780197492694554,0.627593766041473,0.5525249393646007,0.4363957152572995,0.9095583812407342,0.15252494811966627,0.1026535512239304,0.8591475519059706,1.083029978079857,1.0076030199038255,0.8522141854528662,0.0,-0.0018153616798951256,0.14197674772625432
0.288,-0.10602146865387366,-0.15600505297766096,0.5290134040026281,0.0923871208011919,0.06935864902233903,0.5550709444257556,0.1847742416023838,0.13895547147568987,0.6755319690354796,0.5539785355730631,0.43755805249671487,0.6832373390512484,0.15397852932991657,0.10456747844021025,0.8972249575124835,1.0847742471160906,1.0091318329868595,0.8500305629829172,0.0,-0.001806498,0.020210456177398153
0.29,-0.10456358843783525,-0.154861865108382,0.5347008323216884,0.09326184851174157,0.07050183689161797,0.5208579307237391,0.18652369702348315,0.14010580677655896,0.643715353188983,0.5554364292107522,0.43908469849075954,0.8187044237474663,0.15543640868995112,0.10611026451162514,0.9667208577828783,1.086523673023483,1.0106665394907595,0.6276109421392632,0.0,-0.001806498,0.09523771326541075
0.292,-0.10310129080844575,-0.1540876245633115,0.5378141467161406,0.09413922559038124,0.07127701086801667,0.4521741680745682,0.188278451165044,0.14200722697593807,0.7839541112714711,0.5568987048457478,0.44061809430470517,0.7336113997444907,0.15689871406580647,0.10801877250148897,0.8756169159234068,1.0882784281081526,1.012199935304705,0.8527960001915426,0.0,-0.001806498,-0.04046087411494938
0.294,-0.10165785425055718,-0.1529841116865723,0.5883115501136807,0.09500529224797653,0.07201761662766079,0.49251978835484983,0.19001058349630498,0.14349670519963179,0.8222196192400184,0.5583421197571847,0.44173815931342764,0.7806610820566102,0.15834214275225805,0.10950913012725808,0.8634907971549879,1.0900106194751906,1.013682027127258,0.7350957334145667,0.0,-0.0014444702418593947,0.09916185066448048
0.296,-0.10019345221141297,-0.15184201642021086,0.5469871320709632,0.09588393227927393,0.07277927586032461,0.4421721564131027,0.1917678645534464,0.14501913029925365,0.7962832206073925,0.5598065297477756,0.4432392872992536,0.6077813835969672,0.1598065537426741,0.11139064101871816,0.9143430423860918,1.0917678408595326,1.0152045052992538,0.6792683641525886,0.0,-0.00142312,0.030409206607984837
0.298,-0.09870879040438722,-0.15068569216011035,0.6259030324935236,0.09677472495660466,0.07391125583988967,0.47558253501235304,0.19354944891511683,0.1469237488078676,0.695509977687335,0.5612911985813066,0.44441995583988964,0.8042496910486927,0.1612912075956128,0.1133187062414248,0.8876518494215639,1.0935493959427753,1.0171082262414248,0.8840728172929959,0.0,-0.00142312,0.012242900029503477
0.3,-0.09722872815643258,-0.14953426353612304,0.5748903684144014,0.09766276151090975,0.07470147458893657,0.40385682555436336,0.19532552401991177,0.14848109833881734,0.7532352613210538,0.5627712458435674,0.44557138446387695,0.630221306033381,0.1627712698435674,0.11487600033881737,0.8829126607722938,1.0953255000342195,1.0186664191778732,0.9055508817409395,0.0,-0.00142312,-0.04462431811373391
0.302,-0.09574403518207818,-0.14802144088409253,0.6980123938602433,0.09855358229099143,0.07546854747436203,0.42968916499308374,0.19710716358317446,0.15001608811590747,0.8474718298490341,0.5642559388632031,0.4474455488530885,0.8114707522761746,0.16425596282745472,0.11677233185308848,0.7763075603982829,1.0971071546356053,1.0205628058530885,0.8571822499074648,0.0,-0.00142312,-0.0250543639212974
0.304,-0.09425615306223918,-0.14684882197688273,0.7977311902044805,0.09944631176237033,0.07659704102311725,0.5055445479661582,0.19889262352474066,0.1519110565374166,0.9294552854466158,0.5657438589370455,0.44864020302311725,0.7455974792685891,0.16574385293704544,0.11832816078026692,0.8761968157421354,1.0988926585247407,1.0221186347802669,0.8726005134408961,0.0,-0.00142312,-0.07396403462678743
0.306,-0.09276297669176925,-0.14533638463386156,0.6740751325129274,0.10034221718030413,0.0773856923794829,0.4332826250350292,0.20068443436060826,0.15346700006255212,0.8427762512185154,0.5672370343014724,0.44979074737281066,0.5511651124912427,0.16723702830147236,0.12022289675229358,0.9200928781501251,1.1006844693615736,1.0236523760625522,0.8266047349249375,0.0,-0.00142312,0.09392172810258552
0.308,-0.09124752953603442,-0.14375478002437223,0.7432057539124816,0.10125148066511294,0.07817690277695716,0.3962069895513294,0.20250296133022588,0.15504854897562778,0.7528391283954948,0.568752474769093,0.4513499139756278,0.6536481635354505,0.16875246857009682,0.12182682797562777,0.8422899443707533,1.1025029977282181,1.025606684074963,0.8035037180206794,0.0,-0.00142312,-0.01861763832237813
0.31,-0.08974264213015494,-0.14221344111140363,0.6619376953252364,0.1021544121942789,0.07894711951741056,0.284124548073591,0.2043088243728248,0.15658988788859637,0.8345023306502334,0.5702573842719905,0.4528912528885964,0.7552724780477444,0.17025736374398093,0.12336816688859639,0.7207712180393682,1.1043088899008342,1.0271586408885964,0.7671579557141318,0.0,-0.0010486427412947231,0.15524286977910734
0.312,-0.08823751279620796,-0.14105415243383407,0.8954994368786362,0.10305749431290247,0.07934040690474486,0.3346137348135432,0.20611498765704744,0.15812466447091084,0.7798490494175012,0.5717624763287622,0.4540505415661659,0.6964887566431808,0.17176248532876223,0.12527843039866474,0.7939667329335955,1.1061150234227284,1.0290679733262995,0.6947508769394373,0.0,-0.0014142988553886504,0.14007815250417263
0.314,-0.08672779350405341,-0.1391503598888491,0.9219474322591928,0.10396332528171197,0.08009943493672397,0.25703960347731614,0.20792665153171197,0.15966127425811844,0.7982212168698662,0.5732722038289223,0.4555783082581184,0.8100030204579751,0.17327221236909873,0.12719897572648042,0.8420373687337632,1.1079266730073916,1.0302383117897564,0.7420329478543458,0.0,-0.00142312,0.047057852972182415
0.316,-0.08521420351681373,-0.1376073623690987,0.9059845760085836,0.10487147830908658,0.08049115402575106,0.22277814030472104,0.20974295563415216,0.1611959666309013,0.8362853246866953,0.5747858138919628,0.4571139341587983,0.7080225307896996,0.17478579459503935,0.12874288615879828,0.84305954,1.109743006634152,1.0321398696566524,0.838079706055794,0.0,-0.00142312,-0.0027668831587982848
0.318,-0.08369628356249255,-0.13607468420145255,0.8623711963665912,0.10578223139068271,0.08087501776378139,0.22698646248696272,0.21156446278136543,0.16310334914346944,0.8424794180684605,0.5763036981720482,0.45864663279854745,0.7191526856711513,0.17630372143750744,0.13065028914346946,0.8803472897896178,1.1115645120837603,1.0336807747985475,0.8431449989218955,0.0,-0.00142312,0.0498742936846053
0.32,-0.08217579274015747,-0.1341655747513114,0.7838216757942298,0.1066945216535433,0.08125840497162613,0.23399025052622796,0.2133890433070866,0.16464643827706246,0.8551307342439199,0.5778242332755906,0.45980635630543637,0.7090241391187411,0.17782421227559056,0.13219337827706246,0.8677847581456843,1.1133889912362205,1.0352151912770624,0.8855673981709585,0.0,-0.00142312,0.021290631072961377
0.322,-0.08064936689165778,-0.13224347565698924,1.1123579337666667,0.10761038321882047,0.08164263356666668,0.21146031035268817,0.21522076642114632,0.16618430877634408,0.9319499638494624,0.5793506598444287,0.46133554277634403,0.708782196,0.17935063909184762,0.1337312487763441,0.8091801059279571,1.1152207714314704,1.0367530607967743,0.7687643709301075,0.0,-0.00142312,0.04003053068387097
0.324,-0.07912713041598851,-0.13071002115643518,0.9127053145235837,0.1085237223480134,0.08202380195745437,0.11879723757335861,0.2170474436960268,0.16770993084356484,0.8004062652689026,0.5808728807635232,0.4628611648435648,0.6864934773548235,0.1808728745840115,0.13525687084356483,0.7916192649198863,1.1170473907730973,1.0386520197748281,0.8679462430891206,0.0,-0.00142312,0.11473151819424034
0.326,-0.07758815198247497,-0.12917632799428028,0.7467503543412775,0.10944710918514544,0.08278105927073404,0.21924235784938034,0.21889421738614687,0.1692436240057197,0.8081125494003814,0.5824118733198617,0.46402171413822685,0.7215376125471878,0.182411853033381,0.13716370787321258,0.8283084076510963,1.118894252212804,1.039822609164919,0.8112719986387036,0.0,-0.00142312,-0.08228036527073404
0.328,-0.07605113752932761,-0.12726159287483546,0.8079477096809861,0.11036931631115879,0.08317612000861553,0.31160375426097886,0.22073863260634238,0.17115835912516453,0.7744313425078377,0.5839488444706724,0.465551647116549,0.6643730398632285,0.18394886823104437,0.138714107116549,0.8665971847899964,1.1207385953092512,1.041352542116549,0.7822116630805312,0.0,-0.00142312,-0.008724459516453259
0.33,-0.07451061517670826,-0.1257181925937053,0.7036326280829757,0.1112936315067142,0.08355952956080114,0.26647590642203145,0.2225872620452763,0.1727017594062947,0.8243262739914163,0.5854893672850862,0.46708623940629473,0.6302048898183119,0.18548937604622698,0.1402486994062947,0.6975050995894134,1.122587267806417,1.043261735967096,0.7654643409785408,0.0,-0.00142312,-0.1261463244434907
0.332,-0.07297094388697525,-0.12418604626565102,0.7487895718910973,0.11221743509364909,0.08394325872613663,0.2810895497957629,0.22443487117438107,0.17423390573434896,0.7439340101756724,0.5870290668288481,0.46824343200821233,0.5788187028897882,0.18702906102260494,0.14178084573434896,0.7664672104994049,1.1244348617868676,1.044802657734349,0.8538124725762914,0.0,-0.00142312,-0.03961791690204712
0.334,-0.0714178327046484,-0.12264824415555554,0.7410291035333334,0.1131493037318236,0.08470235102222223,0.26671218837777777,0.22629860744743743,0.17577170784444446,0.6774387781333333,0.5885821565384982,0.46939699933333334,0.7178017507333334,0.1885821652953516,0.14331864784444445,0.7891790601111112,1.1262985684636473,1.0463404598444443,0.8452892306222223,0.0,-0.00142312,0.06108601926666668
0.336,-0.06986652321080243,-0.12111084144959387,0.7348460736602962,0.11408008663836891,0.08509498223053033,0.3176812825212613,0.22816017230869204,0.1773091105504061,0.8200854822152412,0.5901334806613807,0.4709258825504061,0.6686679116963689,0.19013347490103732,0.1448560505504061,0.7104243566473961,1.1281601357146775,1.0482534547809366,0.8641797427114191,0.0,-0.00142312,-0.0054411834878165255
0.338,-0.06831089151299165,-0.11957685373665394,0.7451830994055053,0.11501346354731823,0.08585464879837941,0.30592250874034793,0.23002692806221692,0.17921857199582936,0.8619274342616778,0.5916891044870084,0.47208439653086276,0.634706157541468,0.19168911348700834,0.14676551199582935,0.771547966515491,1.1300269775921334,1.0497952272633462,0.8239280307015014,0.0,-0.00142312,0.06636027694161105
0.34,-0.0667524137968042,-0.11842109317368045,0.6112865633071802,0.11594855351872167,0.08661927244531621,0.3518768995335235,0.23189710605342237,0.18075663454897767,0.8812230759022824,0.5932475819635106,0.4732313221679743,0.6563662963510462,0.19324759096351063,0.14830357454897766,0.7594578099940561,1.1318971275327927,1.0513253865489776,0.8415502248788636,0.0,-0.00142312,-0.0036253226905611086
0.342,-0.06518950446425167,-0.11726980746157517,0.6200035479799522,0.11688629884961868,0.08738771395656325,0.34018705265966587,0.23377259769923736,0.18266831609260142,0.8524299067002387,0.5948104770255005,0.4743835181360382,0.571874717880191,0.19481048579694948,0.14983954731551313,0.7606278468696898,1.133772647474857,1.0532361354949882,0.8664563390988067,0.0,-0.00142312,-0.06351480098520286
0.344,-0.0636242042635659,-0.11611978824580207,0.6023942567390735,0.11782547462587954,0.08777936534071692,0.3654662428080267,0.23565094926774,0.18458443643563177,0.8624888457612243,0.5963758064487775,0.4759079870949149,0.672755228231035,0.19637580167251045,0.15099818875419793,0.593748970907586,1.135650926466309,1.055153166167679,0.9439171459117541,0.0,-0.00142312,-0.10955772416398714
0.346,-0.062054378866062916,-0.11459449197472882,0.673492814417213,0.11876736899463775,0.08853706221408988,0.31887274997007986,0.23753473897295044,0.1861276300252712,0.8585731547685064,0.5979456139543613,0.47706785791822626,0.6141172286732626,0.1979456231992374,0.1525234850252712,0.6672459687646919,1.137534788764895,1.057070756132316,0.845622018203004,0.0,-0.00142312,-0.0703949652660627
0.348,-0.06048226144958284,-0.11343319686396182,0.5528940950930787,0.11971064627914184,0.08930555295656326,0.325613474354654,0.23942129255828368,0.1880384774949881,0.8751792681584726,0.5995177210135876,0.4782201501360382,0.6588927894405728,0.19951774453444576,0.15405955631551313,0.7332501554863962,1.1394212690791419,1.058990606494988,1.0645781456023866,0.0,-0.00142312,-0.05749431602004773
0.35,-0.05890659629596948,-0.1126576254683997,0.45161265284402574,0.1206560422916766,0.0900725235316003,0.29428243647984736,0.2413120845676127,0.18958193090364894,0.7746992241173385,0.6010934147669926,0.47937059529740045,0.6465257545201527,0.2010934085308848,0.15559440890364895,0.7033893982210828,1.1413120322601957,1.0605340599036488,0.7801978595151443,0.0,-0.001048246234199857,0.05169810908967326
0.352,-0.05732670387124463,-0.11114071530767397,0.5463273707401096,0.1216039820386266,0.09121469089787893,0.37429211905266924,0.24320796309334763,0.19149061148677313,0.8541481728131555,0.6026733104688842,0.480896008692326,0.6790344669113442,0.20267329019313304,0.157128346692326,0.7399665278931125,1.1432079533690986,1.0624427404867731,0.9329275986322688,0.0,-0.001039743,-0.004000340853074359
0.354,-0.055743925140882,-0.10998287995608712,0.5738743798748066,0.12255364685387365,0.09161473036356063,0.39973806211079377,0.2451072937077473,0.19303119640747352,0.9179745107525884,0.6042560491671036,0.48205384404391294,0.6202261078294657,0.2042560729239571,0.15865936645424253,0.7825181192382482,1.1451072401940405,1.0639833254074735,0.75493592958134,0.0,-0.001413858363560633,0.079533373232417
0.356,-0.05415848649910597,-0.10882996780367805,0.5461636765837115,0.12350490631970439,0.09274909717375208,0.3727564204299021,0.24700981265538205,0.19456809540888464,0.8186866337389539,0.6058415066127071,0.48358148140888463,0.7902708586325532,0.20584151538908094,0.16019624240888464,0.7402985012787199,1.147009789134581,1.0658949486440172,0.7605804826612133,0.0,-0.0010483957648674469,0.07417732134750418
0.358,-0.05256950666150179,-0.10768164093347614,0.6080480378452934,0.1244582954989273,0.0935242377045103,0.3947268990255861,0.2489165919818832,0.19647516672426515,0.8556686058191122,0.6074304931148987,0.4843643447271213,0.5589630593651078,0.2074304883225268,0.16172826740747354,0.8405529075475426,1.1489165975187128,1.0674356264074736,0.8400322146615495,0.0,-0.001039743,-0.03916013961906463
0.36,-0.050977764740458016,-0.10652807864010036,0.6110885831763652,0.12541334640458016,0.0942926812009798,0.4908255964535787,0.2508266928091603,0.19802224647138247,0.7867988089808818,0.6090222213067747,0.4858835934713825,0.6128319761425499,0.2090222293225191,0.16326606247138248,0.7132267354803442,1.1508266697934162,1.0689734214713824,0.7196203173112677,0.0,-0.001039743,-0.004653392546899268
0.362,-0.04938176115402872,-0.1050003532541766,0.632042061143198,0.1263709391758633,0.09543658582875894,0.589606145975537,0.25274187833546935,0.1995584007458234,0.7762646460686158,0.6106182280248011,0.48704437682875895,0.6769262077881862,0.21061823678094221,0.16517852174045347,0.9822223389713602,1.1527418548231874,1.070884946662888,0.8094982152004774,0.0,-0.001039743,-0.045647086624105014
0.364,-0.04779064794949254,-0.1038645261403222,0.7261315427931356,0.1273256112397612,0.09656349302101332,0.5134457631386878,0.25465122150316416,0.20106093702801775,0.8152884133742704,0.6122093521450747,0.4881721988185851,0.6153443730651412,0.2122093461450746,0.16705762183259398,0.8592586663133318,1.154651227857791,1.072764941630166,0.9162391076294654,0.0,-0.001039743,-0.04214977742750409
0.366,-0.04618695855459976,-0.10269936569279149,0.6011143328722787,0.12828782568864994,0.09735692112094824,0.4474491180638607,0.2565756523505376,0.20261535801112723,0.8401046970996614,0.6138130493918758,0.48971090501112724,0.6586266633860668,0.21381304339187576,0.1686278360111272,0.8893379064078374,1.156575687949104,1.0743351950111273,0.9236948087000484,0.0,-0.001039743,-0.08497048973488147
0.368,-0.044579236066420225,-0.10116899527001795,0.683796591459246,0.12925246070391128,0.09887656072998205,0.5400290986330342,0.2585049204234438,0.20415651272998203,0.7561547823030521,0.6154207674649416,0.49125205972998204,0.7523165894014363,0.21542076193357976,0.1705432823145422,0.9365468602007182,1.1585049259548057,1.076250641314542,0.7944710532355476,0.0,-0.001039743,-0.031092590976301612
0.37,-0.04297183983379039,-0.10000992215755627,0.578735323414791,0.13021689501073092,0.10003563286709538,0.571787868073955,0.2604337900373197,0.2056895119624866,0.855304575380493,0.6170281349908191,0.4924102023601286,0.6161463408885316,0.21702815827721475,0.1720853669624866,0.7858612539346195,1.1604337660373196,1.0781666520825295,0.9342092577545552,0.0,-0.001039743,-0.11458565536655949
0.372,-0.04136170277434679,-0.09848405457776718,0.6683557766960878,0.13118298394299288,0.10118643028148855,0.6600069986161736,0.2623659688539192,0.20722483042223283,0.838206152918416,0.618638322327791,0.4939360464222328,0.7139115619730438,0.2186383020492874,0.1739948255240935,0.8192522614933206,1.1623659453349169,1.0797114214222328,0.7418491614816317,0.0,-0.001039743,-0.016959023302958023
0.374,-0.03975486293588517,-0.09695064083216201,0.7390865690881477,0.132147076045933,0.10233670596664682,0.7024338439705777,0.2642941511043062,0.2091330517568791,0.9549828624061941,0.6202451072133971,0.4950955819666468,0.6851620636076236,0.22024513121339714,0.175537476167838,0.7740411013243598,1.1642941578507175,1.0812457655309113,0.9352259643972602,0.0,-0.001039743,0.0837169506546754
0.376,-0.038134149448473285,-0.09541119865550239,0.8453374073444976,0.13311950471517175,0.10386664934449762,0.7192232233277511,0.2662390094145992,0.21068108386363635,0.9424345760478469,0.6218658326617367,0.4966255253444976,0.6933262838971292,0.22186585642557252,0.17707691834449762,0.7997435606698564,1.1662390744699427,1.0831603538157897,0.8405259013779904,0.0,-0.001039743,-0.033229845846889955
0.378,-0.03651514664227836,-0.09387716019673499,0.9237637552104385,0.13409090558114872,0.10540068878145853,0.7678410011720687,0.26818181017862247,0.21221510278145853,0.7796937559904671,0.6234848422434461,0.4981595647814585,0.6577008902404671,0.22348485148832223,0.17861095778145852,0.7689902280799571,1.1681818156888704,1.0850776646776692,0.9625178123336511,0.0,-0.001039743,0.0059347815673260265
0.38,-0.03489500204007634,-0.09234056002757551,0.8537099862531933,0.1350630023120229,0.10693728799283754,0.7728631737600573,0.27012600460806296,0.21412818763041663,0.868150759317178,0.6251049804873569,0.4993206128812224,0.7361230605100871,0.22510500376812978,0.18052310908403962,0.8908631588433806,1.1701259806080628,1.0869981760840397,0.8875583696154948,0.0,-0.0006641918883848632,0.15484856890187418
0.382,-0.03327100324636992,-0.09043340182799667,0.8701243195705274,0.13603739758319447,0.10809448475848113,0.6340571815089869,0.2720747941992383,0.21604319117200335,0.8354444578332342,0.6267290118193287,0.5008449639761933,0.6422565272759195,0.22672899081932874,0.18168813175848114,0.6919316793499584,1.172074771184718,1.0885381789761934,0.9360852627887156,0.0,-0.000656366,0.19076637621628378
0.384,-0.03164763460291308,-0.08887595977022147,0.8931335501287915,0.13701141460243554,0.1092555690211844,0.653822789289119,0.27402283020487106,0.21760063421738082,0.78644446054935,0.6283523838896848,0.5020144450211844,0.6310758762271306,0.22835236333739256,0.18360740522857488,0.7582470835066202,1.1740228653094555,1.0904667914011796,0.9552935978909485,0.0,-0.00103499001119403,-0.030025495020341852
0.386,-0.030017065424231593,-0.08735581217546345,0.9053591764106742,0.1379897538238027,0.11039590418668083,0.5536158271035542,0.27597950861496306,0.21949582946239224,0.8234576728006848,0.6299829193635931,0.5035298278245365,0.6847005509349392,0.22998292860841077,0.18475725818668084,0.6606162039815799,1.1759794846149632,1.0923667514623923,0.951938085063762,0.0,-0.001039743,-0.04027003250667139
0.388,-0.02838730407296137,-0.08545026969303986,1.011383864528257,0.13896761527753934,0.11154460654193933,0.5739956458381915,0.2779352295865522,0.2214097003307555,0.8004581537935752,0.6316126688397711,0.5046868605181439,0.7246228342082094,0.23161269189556508,0.1866544703307555,0.7492919659042236,1.1779352060586552,1.0942806223307555,0.8624824546573469,0.0,-0.0006654885936942296,0.10256293557644258
0.39,-0.026754118093597814,-0.08353296392837564,0.9097215867983554,0.13994752203230787,0.1126953714565606,0.5942035389169348,0.2798950450488182,0.22332700607162437,0.8796972423216541,0.6332459110217366,0.5062117732640924,0.7508823421133357,0.23324587595379498,0.1878234804565606,0.6398208703674175,1.1798950505748902,1.0961979280716243,0.9234436600850912,0.0,-0.000656366,0.181998742475867
0.392,-0.025124596149814528,-0.08161862562815027,0.9888188915694246,0.14092524075649154,0.1138423141150737,0.5878282511942463,0.2818504815007778,0.22524041600237757,0.8507805947610556,0.6348753779112122,0.5077419495587256,0.614893759188778,0.2348754009234175,0.18934442755872563,0.8063426706966239,1.1818504575007778,1.0981104106060389,0.8810485763834998,0.0,-0.000656366,0.03538010493889682
0.394,-0.023480805114469303,-0.08006928344864284,0.8465992761712304,0.14191151898143742,0.1149967699837379,0.5247271176599306,0.2838230369628748,0.22678973255135718,0.9029501048108335,0.6365191739493098,0.5089067309837378,0.5158013168483798,0.23651919771013805,0.19125855735202676,0.7469724109613776,1.1838230129628746,1.100034841328112,0.8560049249740523,0.0,-0.000656366,0.10723929156355377
0.396,-0.021843969806020068,-0.07817465210506389,0.9036701637340274,0.1428936110714286,0.1157671032460956,0.5085513743696166,0.28578722114285715,0.2286843638949361,0.8634503807179366,0.6381560131798854,0.5104207917562706,0.6051153827373402,0.23815602239130435,0.1924195756176053,0.7202735875513488,1.1857871971569518,1.1015672617562708,0.9376118215253194,0.0,-0.000656366,0.02927658304732607
0.398,-0.02019867496854147,-0.07624343277542932,0.8862691646787559,0.14388079888643948,0.1169142135019815,0.49923567969953164,0.28776159677287894,0.23061558322457068,0.9687394194597094,0.639801307771449,0.511590952596013,0.6452956825595053,0.23980133106363202,0.19432684522457067,0.6703308534041071,1.1877615737567921,1.1034865062245707,0.9366867073234059,0.0,-0.000656366,-0.014985296765101474
0.4,-0.01855512408943477,-0.07432301618546366,0.9618245911736484,0.14486693332911996,0.11806684554457572,0.4626076816029359,0.289733865689721,0.23216140767955604,0.6761831555921949,0.6414449035013118,0.513118153679556,0.7804034440751879,0.241444883721679,0.19587266967955605,0.8167098562620838,1.1897338430906272,1.1050323306795562,0.8101664305051917,0.0,-0.000656366,-0.1472259109484425
0.402,-0.016908578156652358,-0.07278116021534065,0.8593368839685565,0.14585484741463997,0.11921781843211053,0.5453165427336827,0.29170969582927997,0.23369447878465938,0.7955741286260124,0.6430914241788269,0.5146512247846594,0.8490896326183897,0.24309141793919886,0.197779985412101,0.9125260110943306,1.191709759886743,1.106939646412101,0.8697635556898523,0.0,-0.000656366,-0.031136671553120526
0.404,-0.01526023417352415,-0.07124422479785075,0.8970799295229851,0.14684386048300538,0.12036984879211941,0.48728810498328357,0.2936877219338104,0.23523141420214924,0.8756450507404179,0.6447397888586762,0.515813296626985,0.710441805568597,0.2447397678747764,0.19932605320214924,0.8133205637020896,1.1936877284168157,1.1088605767995225,0.9984096820220896,0.0,-0.000656366,0.03294285977492538
0.406,-0.01360960604158227,-0.06970935213832578,0.7935233276644408,0.14783423651257,0.12114625546482231,0.47508894945146674,0.29566847205802455,0.23676628686167422,0.7896387899239209,0.6463904187117837,0.5173396548616742,0.6953171245051276,0.24639039895841774,0.20086092586167423,0.861757652325781,1.195668507071488,1.1107789290601,0.7977300302943,0.0,-0.000656366,0.12089142278845696
0.408,-0.01195844442690198,-0.06780437124045666,0.8566895635001784,0.14882492975983783,0.12191125276132715,0.42473080760542276,0.29764986050369663,0.23867126775954337,0.8633061609222262,0.6480415650457906,0.5184974138544417,0.6771829477748841,0.24804156050918197,0.20239183037887976,0.9209652869489832,1.197649836983067,1.1126932516400285,0.9843368396039958,0.0,-0.00028135973885123086,-0.029030621449875144
0.41,-0.010304225298966624,-0.06663206764010036,0.7255008621276138,0.14981746215227462,0.12305563135989964,0.4067408475508424,0.29963492428827654,0.24021851947138248,0.7595277847041462,0.6496957518149424,0.5200260874713825,0.6946467121383678,0.2496957758149424,0.2039297814713825,0.8388347858898315,1.1996349298163678,1.1146154745828651,0.9132776812754212,0.0,-0.0006479161589198232,0.005994211651451788
0.412,-0.008654700428947368,-0.06511095127281369,0.7002034789405893,0.15080717308971292,0.12345465868963879,0.38771191979182507,0.30161434517942587,0.24174806472718632,0.8672251132248099,0.6513452834315789,0.5215556327271863,0.8021450984196768,0.25134530743157896,0.2058330464168251,0.9068695089206273,1.201614322927512,1.116527169391635,0.9675030823640683,0.0,-0.000656366,0.027690641100285168
0.414,-0.006991876138412017,-0.06394775534229391,0.6429805366651136,0.15180487893991415,0.12421432177252091,0.305565955248865,0.3036097568959228,0.24328579754289129,0.796725477530466,0.6530080973927039,0.5230933655428912,0.6036651013298686,0.25300812090987124,0.20775497342807644,0.8058145094560335,1.2036097919302575,1.1184490964280764,0.8848713392175627,0.0,-0.000656366,-0.12084067664360812
0.416,-0.005333098671472831,-0.06242187878156671,0.7385551189868845,0.15280013465181125,0.12498122502897342,0.40598082975211636,0.30560026931970924,0.24557064740789317,1.0347424578374866,0.6546669075859151,0.5242525495434601,0.7718687507404317,0.2546669011033127,0.20929853021843328,0.843642274090974,1.2056002462688276,1.1203672537329201,0.9633999215487064,0.0,-0.000656366,0.036663211409681665
0.418,-0.0036733250901287554,-0.06126428120514347,0.5859471285879272,0.15379600208297567,0.1253729345982855,0.25799740226217405,0.3075920051344778,0.24712090744898202,1.0903978331689488,0.6563266969413448,0.525776436448982,0.5897695471801405,0.25632666094134476,0.21120537204726755,0.7879965487055602,1.2075920392060087,1.122283802127158,1.102292748761043,0.0,-0.000656366,0.14170380686617454
0.42,-0.0020112722490165692,-0.06011271625581396,0.6268295792908766,0.15479322999010608,0.12613173465366725,0.2533082347799642,0.30958645899606624,0.24903036392522362,0.8967551686640429,0.6579887515924425,0.5273115688347048,0.7267214195953489,0.25798871606806534,0.21274972483470483,0.9504889612719141,1.2095864345362974,1.1242025019252235,1.0490529575728087,0.0,-0.00028111141323792485,0.07715251300894455
0.422,-0.00034813116618911174,-0.05896148752772147,0.6532412586631692,0.15579112332234957,0.12652423496017645,0.25721815484535593,0.31158224664469913,0.25094937398438055,0.9278030709168953,0.6596518825659026,0.5284718504722785,0.7390847282409682,0.2596518765659026,0.214284378432455,0.8143852229909384,1.211582193644699,1.1261205803926315,0.9684136971589364,0.0,-0.0006473385754143318,-0.01983142246071301
0.424,0.0013190591243301178,-0.057419224264223724,0.6734383083500483,0.1567914389056806,0.12729132388813885,0.3120078084580521,0.3135828778113612,0.25250966973577627,1.0377538547328835,0.6613190557444325,0.5300141137357762,0.6549217602526519,0.2613190502624747,0.21583564673577627,0.8667658413953713,1.2135828263482196,1.1284379965708775,1.0605281732902605,0.0,-0.00027685402314368374,0.16320880236451302
0.426,0.0029834837946609463,-0.0562764370820658,0.6155492652565735,0.1577900954049577,0.12804998194528946,0.35303822364744725,0.3155801908099154,0.2544024228158236,0.8757655142853438,0.6629834593987606,0.5315323498431789,0.8431586747111189,0.2629834829089501,0.21772839981582362,0.8018865370878434,1.215580225340484,1.1303412927915342,0.9883835388270251,0.0,-0.000272036,0.18195844222803914
0.428,0.0046501497398926655,-0.05475053535114504,0.7215249446335879,0.15879009061836613,0.12919242627480917,0.40614909980152675,0.31758018123673226,0.25632066402290077,0.9094721234351145,0.664650161468217,0.5330671336488549,0.729853302557252,0.264650155468217,0.21927204364885494,0.9926692874961832,1.2175801277161598,1.1322595560229007,0.9842630630839694,0.0,-0.000272036,0.01684881923664122
0.43,0.006319355493743296,-0.0535921278875,0.6674588524516666,0.15979161241401502,0.12996701111166667,0.4584741210366667,0.31958322481158385,0.25823607522416664,0.9270295464366666,0.6663193503457275,0.5342255411125001,0.7226257322275,0.26631934482266717,0.22080456316833333,0.7276637678441666,1.2195832008115837,1.1341749672241668,0.9514490759533334,0.0,-0.000272036,0.030838013114166667
0.432,0.00798832021030043,-0.05206858873407169,0.6972920392502083,0.16079298633905578,0.1303601687521734,0.39593216113135643,0.32158597169420605,0.2597781442659283,0.92565772485078,0.6679883063229614,0.5357490802659283,0.8221678825981898,0.26798832885622315,0.2227119950181017,0.8087431648778136,1.2215859481770386,1.1357170362659283,0.9583720629967846,0.0,-0.000272036,-0.18290230252280576
0.434,0.009659124211825009,-0.05090261182694611,0.6547673615385629,0.16179546956276075,0.13112073995904192,0.32622692141556886,0.32359093914173326,0.26169498913209577,0.8951284919748503,0.6696591176819645,0.5372904911525748,0.7141733913349702,0.26965911119561325,0.22463854313209583,0.891710122002994,1.2235909456280845,1.1376338811320958,0.9233058683532934,0.0,-0.000272036,-0.08235331731628742
0.436,0.011330638448484849,-0.049001145599618684,0.8181770949046712,0.16279838024646465,0.13226357003717826,0.37408883598284076,0.32559676147676764,0.26361327539275503,0.8281553995357483,0.6713306604,0.5388245637187798,0.7850339576053385,0.2713306248848485,0.2261805587187798,0.9427153199714013,1.2255967974767676,1.1395512334003812,0.9661828327988561,0.0,-0.000272036,-0.03379843549857007
0.438,0.012997898334368284,-0.04746578850593261,0.7503321614779307,0.16379873488392643,0.13303481397199812,0.3123399766203132,0.3275974697548364,0.26514865249406744,1.0093120491039393,0.6729979170089563,0.5403509509439962,0.7286178977024206,0.27299791100895626,0.2277078754940674,0.7950904078637874,1.2275975045833531,1.1414610715301374,1.0818979949425724,0.0,-0.000272036,0.04747931134693878
0.44,0.014674300136162582,-0.045926861626210694,0.903544853241301,0.16480458218386132,0.13380473134987445,0.3963171556869544,0.3296091633825463,0.2670622463857467,0.8942190480669616,0.6746742944178123,0.5415151863618319,0.6599881901693172,0.2746742884178123,0.22962146938574673,0.8567929974586871,1.2296091102719666,1.1433854477117065,0.9125292006117423,0.0,-0.000272036,-0.09505652631077366
0.442,0.016352949382500002,-0.044372367301763714,0.8829721476574052,0.165811765345,0.13420184497946364,0.29158784133438026,0.33162353069,0.26900512267769994,0.8327998655020536,0.6763529625925,0.5430609706982363,0.7339848193387292,0.2763529560675,0.23118467369823628,0.816006616898043,1.2316235366900001,1.1457080176571637,0.9115439172916163,0.0,-0.000272036,-0.01984029636965451
0.444,0.018025681231851234,-0.04247925838531353,0.8035290308853136,0.1668154109845035,0.1349564881171617,0.4296194366551155,0.333630821969007,0.2705264675561056,0.832227707,0.6780257054861127,0.5445786105561056,0.8468024750082508,0.2780256704588151,0.2327023135561056,0.8484706182013202,1.2336308269963048,1.1472330675561055,1.0329209243770625,0.0,-0.000272036,0.07507399780940595
0.446,0.019701135492395435,-0.040563209476950565,0.815297631244193,0.1678206862243346,0.13572345986801668,0.37933870652162,0.3356413724648289,0.27243460852304946,0.902099183648243,0.6797011149610266,0.5461116403047052,0.7327105948980345,0.27970113847623573,0.23461045452304943,0.7804859634209648,1.2356413199030418,1.1495172531727218,0.9721743213402025,0.0,-0.000272036,-0.10657968827980939
0.448,0.021371777277631895,-0.03865009110084434,0.9168647035721251,0.16882306696657912,0.13648834712641217,0.40372129008978475,0.3376461349202674,0.2739735593359496,0.7678197105853253,0.681371785135832,0.5476423253359496,0.7882242532106077,0.28137177913583195,0.23614940533594958,0.898114302809252,1.237646169159704,1.1514386578991558,1.0786011286896182,0.0,0.00010213156320608874,0.07105915918658579
0.45,0.023050306229736098,-0.037108824571292554,0.9253046312669603,0.16983018434625355,0.13725482900833136,0.41220075846726967,0.3396603687065269,0.27550561642870747,0.7490137127570817,0.6830503035381715,0.5491743824287075,0.8416929321887646,0.2830502975381715,0.23768146242870744,0.8608985459165676,1.2396603447065269,1.1533534911388956,1.081254959,0.0,0.000111341,0.010110355242561292
0.452,0.024707667193706043,-0.03525300679462527,1.0164689848547435,0.1708246015221123,0.13836422468979498,0.4066864079639755,0.3416492040442246,0.27736053103822544,0.8786211107971736,0.6847076862140898,0.5506663478640103,0.7939440200464497,0.2847076801461437,0.23953637703822542,1.0086389528356308,1.2416491801121707,1.1552182160382254,0.9841777728758253,0.0,-0.0002516081742152207,-0.01327627805050388
0.454,0.026385088473403626,-0.03333744076377296,0.9710958033966135,0.17183105688224146,0.13951301293501073,0.4930145187036728,0.3436621147644829,0.27927604623622704,0.947689088040663,0.6863851163473521,0.5518364659462198,0.6223771970592654,0.2863850804824073,0.24145189223622704,0.9362209364236823,1.2436621208320102,1.157133731236227,1.037000088801097,0.0,9.044864500357738e-05,0.16296296190186024
0.456,0.028052500861983177,-0.03143244185998343,1.0097281958386792,0.1728315035203175,0.14029642143046514,0.4857177978056575,0.345663008040635,0.28118194076411407,1.0211546255524913,0.6880524730809146,0.5533397622368328,0.6900070964282163,0.2880524968463452,0.24299697323683275,0.890021560161321,1.2456630439233503,1.1590396257641142,1.06213542999136,0.0,-0.00024857690318380875,-0.04455393174446681
0.458,0.029738635699177295,-0.029509428817105263,0.9147453486236842,0.17384318141206628,0.1414271527888756,0.45931601282511964,0.34768636382317875,0.28310501218289474,1.0849018443035885,0.6897386227335162,0.5548783639858852,0.7395846900988039,0.28973864667628474,0.24453557498588516,0.8355917169023923,1.2476863997659473,1.1613236493799044,1.0658533652710527,0.0,-0.000272036,-0.13058122663157895
0.46,0.03141716254956026,-0.027593996429183528,0.9230232597112592,0.17485028973282626,0.14257589634206141,0.5202215439835753,0.34970057946565253,0.28502044457081643,0.9732266049459652,0.6914171854948895,0.5564109004567961,0.7595680663132588,0.2914171495661992,0.24642858257081648,0.8653767443553916,1.2497005555369622,1.1632615065708163,1.0459084200833135,0.0,8.843511402047128e-05,0.04286367539919067
0.462,0.033090190720703586,-0.026038842460476188,0.8995822724033333,0.17585410922747802,0.14372526356071427,0.5648474335116667,0.35170821845495603,0.2869355165183333,1.0552852083552382,0.6930901678081769,0.5579431485395239,0.6919016153609524,0.2930901916940813,0.2479837365395238,0.851715995827619,1.2517082543408604,1.1651765785183332,0.9747254867588095,0.0,0.000111341,-0.033214387347380955
0.464,0.0347882781302526,-0.024121330467414916,0.9371501973443157,0.17687297497282414,0.14488968818356263,0.6172678650564808,0.35374594995558484,0.28887558085264303,0.8981079825850833,0.6947882632097451,0.5594944863381607,0.6468144968562636,0.29478828691164854,0.24953598101810284,0.8303862374033308,1.2537458962536814,1.167117549532585,0.949286292923244,0.0,0.000111341,0.17572222743700217
0.466,0.03647359547201337,-0.02215978276994389,0.903555388852891,0.17788415491729323,0.14644006746377167,0.6737721138994877,0.3557683108203843,0.2912110983949744,1.0351258190304953,0.696473588940685,0.5610638344637717,0.8258568283535008,0.29647358251461986,0.2511053764637716,0.756565024910222,1.2557682876725147,1.1690790972300562,0.9725492744901195,0.0,0.000111341,0.016153237594047326
0.468,0.03815339838387212,-0.02060762559435204,0.7236045056733278,0.17889203896313968,0.14760536590044276,0.7431756253942803,0.35778407792627936,0.2927726379584779,0.9753081591243269,0.6981534235898843,0.562230065324997,0.6846982509715208,0.29815338850602413,0.2526463139584779,0.8365839119434008,1.2577841134682095,1.1710050295919587,0.9785897568597582,0.0,0.000111341,0.1546193376326433
0.47,0.03983236977287893,-0.019074081655151877,0.7284059622703991,0.1798994176010486,0.14913019634484811,0.7319592243942823,0.3597988352020972,0.29468063222096486,0.8659217752132221,0.6998323438367493,0.5637549173448482,0.7617998995497319,0.2998323678367493,0.254555240061346,0.8533862591405599,1.2597988402440419,1.1729216942209648,0.9536746711917808,0.0,0.000111341,0.01633717176831448
0.472,0.041509132451809386,-0.017164067661934866,0.8598525811306215,0.18090548352203512,0.15066552254598592,0.660788782834904,0.36181096704407023,0.29659955133806515,0.9623794875711559,0.7015091106691747,0.5652902435459859,0.7741529015754504,0.3015091342033918,0.25609949354598593,0.8940093847335083,1.261810913975636,1.174840613338065,0.9220584237522367,0.0,-0.00026334679207920796,-0.2360800200838602
0.474,0.04318936958414663,-0.01560389669222423,0.7452548409312839,0.1819136164582242,0.15221700430777577,0.6352551572329115,0.36382723293382524,0.29815972230777577,0.9423542544896926,0.7031893613408713,0.5668417253077758,0.8256744538242315,0.30318935586217566,0.25803085736564196,0.8632668566589511,1.2638272384125209,1.1771596074412296,1.0263130006083183,0.0,0.00010690408716094031,-0.15287066811934902
0.476,0.04486350435765379,-0.01446030383264536,0.5588152878596533,0.182918103506557,0.15336059716735465,0.6546751977583442,0.36583620801311395,0.30005324923056964,0.8465770209800685,0.7048634828333333,0.5683602851989622,0.72031401776259,0.30486350635765375,0.2595538651989622,0.8823009796006605,1.265836184013114,1.178687052198962,0.9702337086750795,0.0,0.000111341,-0.019000866738176664
0.478,0.046539666796494995,-0.012936582072032384,0.6604646669867842,0.18392380660813065,0.1548843189279676,0.7495290831931183,0.3678476142004053,0.30196910640123825,0.9117867681052507,0.7065396744318073,0.5698924169279677,0.7909518380360758,0.3065396689074869,0.2614603817540183,0.9497902180611978,1.2678475906760849,1.180967953580069,1.0655080041859746,0.0,0.000111341,0.04954219381747828
0.48,0.048215427897460354,-0.011401269351145039,0.6555511529694656,0.1849292589384762,0.15604503427480917,0.7380204816335878,0.3698585178929295,0.30388803200000003,0.9599235040229007,0.7082154129134375,0.5714277296488549,0.8255061085801527,0.3082154368974604,0.26300468664885496,0.8276494150763359,1.2698585238929296,1.1828958480229008,1.1155371486641221,0.0,0.000111341,0.08988125640458017
0.482,0.04989069198546062,-0.010242856772310259,0.6479252076663887,0.1859344173394113,0.15757002302502085,0.5655705354553795,0.3718688356626147,0.30580500410091743,0.961013794,0.7098906777909665,0.5729614980250208,0.768155301909925,0.30989070080717435,0.26491287910091743,0.9096967043861551,1.2718688411763794,1.1851881758982485,1.005183133027523,0.0,0.000111341,-0.04631277871893244
0.484,0.05156422290901502,-0.008716318603197328,0.6283602585884037,0.18693853266611019,0.15872991726628488,0.6323246426444762,0.37387706531636056,0.3073504017945598,0.8560250535867334,0.711564197797162,0.5744970113968026,0.8771248462032928,0.31156422084557595,0.266832032152231,0.8669854508191362,1.2738770417921534,1.187116304152231,1.1128750884304464,0.0,0.000111341,0.023482187810069187
0.486,0.053238072197330795,-0.007557593411575562,0.6055584058778135,0.1879428374804576,0.15987993058842445,0.5493979664930333,0.3758856739771211,0.30925782264415863,0.9620565143590567,0.7132381015815062,0.5756557356120042,0.6070254980975349,0.3132380660838894,0.2683737846162916,0.7214275285798499,1.2758856804470924,1.1890323936441587,1.0772932348885316,0.0,0.000111341,-0.022499763139335476
0.488,0.05490964310684474,-0.006031495396469466,0.6124714710644085,0.18894578987669927,0.16103152268392176,0.4981668050582061,0.37789157975339854,0.3108020006035305,0.8376773808029581,0.714909635295731,0.5771818336035306,0.7435395329241412,0.31490963027999047,0.2702834285231393,1.048847983441794,1.2778916138404484,1.190952008471374,1.0084002403516221,0.0,0.000111341,0.013613155252624045
0.49,0.056581540769642856,-0.004870450093544923,0.6469680852714473,0.18994892919107143,0.1621836969064551,0.5354061138137454,0.37989785838214285,0.31271278329220853,0.9534353709954659,0.7165815451232143,0.5790926172700155,0.8588302933300321,0.31658153865714284,0.27182821359933185,0.8925647526996778,1.2798978363303573,1.1932465539628923,0.9799338914736905,0.0,0.000111341,0.1607170486236726
0.492,0.05824968877802985,-0.003332202186996755,0.6236754326173537,0.19094981361647761,0.16334306400624926,0.5511697511469775,0.38189962723295523,0.31426804781300327,0.8851289528335538,0.7182497147780298,0.5806478808271842,0.7666029396243239,0.3182496797632239,0.2737529101484197,0.9414881365514962,1.2818996619152239,1.1951882671484195,0.9967735297495492,0.0,0.000111341,0.10687089996370629
0.494,0.059921296737168034,-0.0021883960674767017,0.6873434770132122,0.19195277504882696,0.1641083353259408,0.5258392795215289,0.3839055501139693,0.31616081525846407,0.957944925527899,0.7199213226719067,0.5821675636518816,0.8634885325494869,0.319921286688222,0.275277098947623,0.872276694842633,1.2839054985660354,1.1970864712584641,0.9589159038188038,0.0,0.000111341,0.052458319629350006
0.496,0.06158760017458234,-0.0002897950030992969,0.7574042392168316,0.19295255745548925,0.16524883332220766,0.5585957173436643,0.38590511589558474,0.31807909345678864,0.9657460007305997,0.7215876215588306,0.5837016558894982,0.8168362126020979,0.32158758745167065,0.2771860154567886,0.9836343774495173,1.2859051523573986,1.1990047484814639,0.9270050425304565,0.0,0.000111341,0.09576377134378353
0.498,0.06325569168464383,0.0008812781652744629,0.5982509413607399,0.1939534091813626,0.16640096316527447,0.5338783248326969,0.38790681837907176,0.3199987360452267,1.1261841449639618,0.7232556737990693,0.5852375421052507,0.7664354733504772,0.3232556963250209,0.27910565804522675,0.7734731788831742,1.2879068833982816,1.2009243910452267,0.9852136058606206,0.0,0.000111341,-0.03866427844642002
0.5,0.06492230479554656,0.002424931023648648,0.6833035821469594,0.19495337541890928,0.16718692837162163,0.44866690752871624,0.3899067518032865,0.3219394408496622,0.9648223281300676,0.7249222941753989,0.5867902990236487,0.670246020695946,0.3249222881753989,0.2806675190236486,0.7894011831773649,1.2899067567673257,1.2028650968378378,0.817165861106419,0.0,0.000111341,0.06961822495777026
0.502,0.06658412169228936,0.004311779095545892,0.7304584996817487,0.19595047370289595,0.16794311581478433,0.3936843927549653,0.39190094642199974,0.32383082209554587,0.9800915662106006,0.7265841326922894,0.5883026626295687,0.8698291709112704,0.32658412669228937,0.2825543670955459,0.8639930773295335,1.2919008933944705,1.204756478095546,0.9983117561718182,0.0,0.000111341,0.03378371884804325
