zhaobohao-byte/Y1_1Pace/data/Atom3motors/raw_csv/RS06_step_10s_aligned.csv
time,des_dof_pos_left_hip_roll_joint,dof_pos_left_hip_roll_joint,dof_vel_left_hip_roll_joint,dof_tau_left_hip_roll_joint
0.0,0.699999988,-0.000885725,0.077056885,0.024719238
0.002,0.699999988,0.004256830817060022,3.5608683398612673,14.801342408273273
0.004,0.699999988,0.01586444945310436,5.713253928132101,4.911082823792602
0.006,0.699999988,0.02981515867532777,7.166527057502503,3.4061246798991656
0.008,0.699999988,0.04518181139194789,7.991112604118294,2.4697038280789814
0.01,0.699999988,0.06160123252663147,8.43597912805974,1.9681917097984645
0.012,0.699999988,0.0797273442406644,8.757396120459182,1.2736677255660267
0.014,0.699999988,0.0971746540640299,8.919950296167128,0.8764865952622694
0.016,0.699999988,0.1154040160397398,9.165633365255587,0.8050682681541099
0.018,0.699999988,0.13328907371431997,9.04976765341245,0.28907231739901657
0.02,0.699999988,0.1510423862077208,8.714150109724274,0.2681668826355922
0.022,0.699999988,0.16871491245676062,8.730081414938844,0.4232069452245581
0.024,0.699999988,0.18562248522364672,8.534218166393163,-0.1347286458917379
0.026,0.699999988,0.20242207133933865,8.332471957334125,0.021570570836434752
0.028,0.699999988,0.21881456866630605,8.145145903859959,0.15964371871306646
0.03,0.699999988,0.23466528955842472,7.919551973035137,-0.34461627377078174
0.032,0.699999988,0.2502156092117209,7.772177094301309,-0.22114909747243905
0.034,0.699999988,0.26527612742708334,7.458401081368894,0.007528945171695403
0.036,0.699999988,0.27990653484335914,7.206252695331745,-0.37374420527099467
0.038,0.699999988,0.2940805305783449,7.038167126651801,-0.596034959522299
0.04,0.699999988,0.30787344877513384,6.852315926289471,-0.22338798812242713
0.042,0.699999988,0.32087225861576824,6.504801744168131,-0.38820344220256475
0.044,0.699999988,0.3331077460417014,6.096146845297033,-0.6068284245325867
0.046,0.699999988,0.3457405437399928,6.283539369751893,-0.5911316349094843
0.048,0.699999988,0.3573411020017791,5.777324356615229,-0.23785716690594236
0.05,0.699999988,0.3687756021847149,5.752539264884284,-0.3579693460155726
0.052,0.699999988,0.3795666855504152,5.445166405772242,-0.5201921249347569
0.054,0.699999988,0.3902469102063644,5.225056486810145,-0.6687082164981457
0.056,0.699999988,0.40062136482078725,5.132470147337971,-0.3376993582254727
0.058,0.699999988,0.4101898109378585,4.7910481480745695,-0.17157460210564054
0.06,0.699999988,0.4197921494460329,4.744396917727186,-0.34117180861615437
0.062,0.699999988,0.42898312612335116,4.608832400936542,-0.47035387794010697
0.064,0.699999988,0.437777095679924,4.3647932736392026,-0.6198912045867268
0.066,0.699999988,0.4465557470257431,4.225694017989235,-0.4568782458567751
0.068,0.699999988,0.45483977556494265,4.125338286881933,-0.23579232432050082
0.07,0.699999988,0.46297169228086343,3.9974275857945667,-0.07699266347610963
0.072,0.699999988,0.47114340330170057,3.8586408794918543,-0.27793299399203236
0.074,0.699999988,0.4784147940508657,3.7544235142057314,-0.4271443266592239
0.076,0.699999988,0.48570512787675807,3.6224584662519663,-0.5788010480252682
0.078,0.699999988,0.4926085656904139,3.589518931260585,-0.5454103889406517
0.08,0.699999988,0.499489909745935,3.516676964949187,-0.36301925289227643
0.082,0.699999988,0.5060310228835091,3.2567557627545543,-0.11747102366155321
0.084,0.699999988,0.5125747140982707,3.1231584576437688,-0.05610382930685748
0.086,0.699999988,0.5187156374834864,2.9424194302621913,-0.2169321846345535
0.088,0.699999988,0.5248307271663294,2.9267888600054768,-0.2875989668440291
0.09,0.699999988,0.5302050946160523,2.7169148945028536,-0.40113127164589774
0.092,0.699999988,0.5359219364688962,2.716630623272451,-0.458952751573667
0.094,0.699999988,0.5408206561452134,2.6526846903792283,-0.46679740530978847
0.096,0.699999988,0.5465801882574481,2.6391090765000595,-0.2458780336381009
0.098,0.699999988,0.5515463666459371,2.5006147858859467,-0.17237231351378599
0.1,0.699999988,0.5566163230515759,2.56291736530659,-0.06417203976289398
0.102,0.699999988,0.5612257359610204,2.3852000442168317,0.06863953760591252
0.104,0.699999988,0.5658188047533595,2.2490334939067664,0.0248470137086455
0.106,0.699999988,0.5700287643325764,2.156321593340344,-0.05427528287201243
0.108,0.699999988,0.5742490309453916,2.068809479443305,-0.14134750392345297
0.11,0.699999988,0.5780840944634981,1.9716324373454415,-0.1910251451024885
0.112,0.699999988,0.5818810257950809,1.9499883345484104,-0.28851579738572286
0.114,0.699999988,0.585742289230401,1.9896273109958107,-0.2977152267767804
0.116,0.699999988,0.5895923928277501,1.9451520766875743,-0.3680151369398907
0.118,0.699999988,0.59341609422103,1.7862873491040772,-0.30195337696137337
0.12,0.699999988,0.5972428474715524,1.7281717416404563,-0.17289263442974226
0.122,0.699999988,0.6006760152913876,1.6637531813861244,-0.06983795857021531
0.124,0.699999988,0.6037641971916039,1.5714461133497188,-0.01394091626276761
0.126,0.699999988,0.6072159176165344,1.532557744264596,0.12247930964000467
0.128,0.699999988,0.6102207994959448,1.7009624685877012,0.20723440990436995
0.13,0.699999988,0.6129468818508366,1.4562357585443217,0.23441212440619438
0.132,0.699999988,0.6156144971565312,1.3680551687689815,0.17320847656027347
0.134,0.699999988,0.6179380904932602,1.2759884844627223,0.18274379851676012
0.136,0.699999988,0.6206164512644197,1.2540878064471872,0.12600450564989318
0.138,0.699999988,0.622908097765625,1.1441298634241586,0.18239171480264424
0.14,0.699999988,0.625228853604507,1.173214458035412,0.08960760752438297
0.142,0.699999988,0.627529205322143,1.3045513872306702,-0.031254747593870626
0.144,0.699999988,0.6297877592875645,1.1557427944216332,-0.030077653283007554
0.146,0.699999988,0.6321036098083925,1.137998972519233,-0.16530513041661643
0.148,0.699999988,0.6344215665458453,1.1673032273896846,-0.16408572746561606
0.15,0.699999988,0.6363525248491019,1.0134859370659879,-0.24706146667820358
0.152,0.699999988,0.6386647243428571,0.999681316,-0.30410930052857144
0.154,0.699999988,0.6409631621862909,1.1223152889240506,-0.31271336291019824
0.156,0.699999988,0.6432572776749732,0.9170102364397282,-0.24221907733814238
0.158,0.699999988,0.6451759289952763,0.8467139821280114,-0.17204104667926312
0.16,0.699999988,0.6470755923983816,0.9618227941165709,-0.17262378896294125
0.162,0.699999988,0.6489604933646008,0.9495426212715217,-0.051389497304075236
0.164,0.699999988,0.6505187956907167,0.8821755900904281,0.10522711987169313
0.166,0.699999988,0.6524444167168885,0.7577249951139878,0.12538520264233488
0.168,0.699999988,0.6539753703250357,0.76177086747475,0.19808092530836113
0.17,0.699999988,0.6551360029723019,0.7443888393782234,0.29517455256638014
0.172,0.699999988,0.6566606990361101,0.610933010048981,0.2650172630376594
0.174,0.699999988,0.6578111795655255,0.6063666219237308,0.25597138157378985
0.176,0.699999988,0.6589505797201424,0.6469466996912034,0.2749568625872761
0.178,0.699999988,0.6600584459153652,0.5367075609217961,0.3670255214012403
0.18,0.699999988,0.6612331736307543,0.6168043526282037,0.37949676993647513
0.182,0.699999988,0.6620245379182156,0.3096185352929608,0.3666563066320902
0.184,0.699999988,0.6631696984656488,0.5102392878473283,0.4191276606717558
0.186,0.699999988,0.6639497267573267,0.3643301539335239,0.3842872414431737
0.188,0.699999988,0.6650874458974237,0.5169704524812739,0.3962399580399571
0.19,0.699999988,0.6658553629742378,0.43341692491798633,0.4694737354554479
0.192,0.699999988,0.6666152395056075,0.4124256030654206,0.3922679752876168
0.194,0.699999988,0.667367653538907,0.4660531841205212,0.32035070956026057
0.196,0.699999988,0.668143654355577,0.4058471234886774,0.37222873730366174
0.198,0.699999988,0.6689192139726521,0.4577441222468514,0.313714085490824
0.2,0.699999988,0.6697022343275657,0.48430120070178995,0.1434545825150358
0.202,0.699999988,0.6708424492154946,0.3840846270026222,0.3225208985668653
0.204,0.699999988,0.6716100389814043,0.48564682995958997,0.3239688131981166
0.206,0.699999988,0.6723648126647358,0.3765151111906845,0.2986925167779879
0.208,0.699999988,0.6727537620779904,0.29286505934342105,0.17356007075370813
0.21,0.699999988,0.6735335837411848,0.32096673896074285,0.19461781108062998
0.212,0.699999988,0.6746587616612304,0.3122971009928049,0.1351579371463005
0.214,0.699999988,0.6750590301441961,0.3343853383768325,-0.09047482753833214
0.216,0.699999988,0.6761985581164759,0.38717038001168336,0.09917322214484979
0.218,0.699999988,0.6765926796192065,0.340765589866198,0.04601750407553914
0.22,0.699999988,0.6773591175056073,0.276137566576712,-0.02233598379778096
0.222,0.699999988,0.6781273243319432,0.42282052953961635,-0.0578770581117598
0.224,0.699999988,0.6788937533803959,0.4553418314837825,-0.06447570169592177
0.226,0.699999988,0.6796614328281214,0.39100808975899365,-0.03258377496308488
0.228,0.699999988,0.6804177413579654,0.37604704217826296,-0.12382872005326295
0.23,0.699999988,0.6811832952079525,0.36946082274789316,-0.14441900036961422
0.232,0.699999988,0.6815703902530323,0.4205011936416476,-0.20111741075081063
0.234,0.699999988,0.6823426614021932,0.32012362403123135,-0.16905124070354036
0.236,0.699999988,0.6831105120913907,0.34200792604238406,-0.28982387859867553
0.238,0.699999988,0.6838847218607534,0.3881371587513114,-0.25766176234537436
0.24,0.699999988,0.6846524861489869,0.42665798523241955,-0.35825828448152564
0.242,0.699999988,0.6854190573673663,0.3368350245927902,-0.24432546066844538
0.244,0.699999988,0.6861729936791776,0.34659847197250776,-0.34321678369734643
0.246,0.699999988,0.6865681281032396,0.2686538359305803,-0.2970912965354219
0.248,0.699999988,0.6873314701595414,0.29925119025937424,-0.29427774323190825
0.25,0.699999988,0.68810041099727,0.33702156410255196,-0.3092843385843323
0.252,0.699999988,0.6888558630070105,0.2986516410741445,-0.2663656173981701
0.254,0.699999988,0.6892389463683141,0.24278298006892426,-0.21323566552770132
0.256,0.699999988,0.6896320195633115,0.21158869055640261,-0.24616743139988087
0.258,0.699999988,0.6903900470413165,0.28907986358473386,-0.12610050521708682
0.26,0.699999988,0.6907663487172035,0.13818579167285247,-0.19387211286157796
0.262,0.699999988,0.691156034623031,0.18619727652649165,-0.15120531828866346
0.264,0.699999988,0.6915397976915251,0.23703980605326788,-0.15898330921343068
0.266,0.699999988,0.691916704,0.3067707897161905,-0.10595947261714285
0.268,0.699999988,0.6919316801046748,0.06298101233484002,-0.0029282278415606044
0.27,0.699999988,0.692684412,0.1969996053338914,-0.12220982807701507
0.272,0.699999988,0.6926923284742181,0.07929405742074482,-0.10640372834590593
0.274,0.699999988,0.6930761471118656,0.1830028579485347,-0.12055119568120086
0.276,0.699999988,0.6934591084006052,0.0784077361571229,0.061567679134310986
0.278,0.699999988,0.693833427494297,0.2139857658655726,-0.11756918249639198
0.28,0.699999988,0.6938419781112969,0.11791057112085025,-0.10790466094912826
0.282,0.699999988,0.6942269677176766,0.17567472895718034,0.016465994943702288
0.284,0.699999988,0.694602251,0.07802521388694929,-0.11059028843735899
0.286,0.699999988,0.694609081464307,0.054518719332416594,-0.06745097094320221
0.288,0.699999988,0.694985628,0.1572315891395349,-0.002269000636255218
0.29,0.699999988,0.6949937577481534,0.12380905836764355,-0.08245753594186324
0.292,0.699999988,0.6953767318173155,0.09835783467565369,-0.058241008366763505
0.294,0.699999988,0.6957513707979082,0.09538303656804184,0.021007634197327117
0.296,0.699999988,0.69576088729581,0.16741116227802316,-0.027365950832517607
0.298,0.699999988,0.696136713,0.10474099973247496,0.007517228315808297
0.3,0.699999988,0.6961447692423127,-0.024426290693220942,0.1261339686891844
0.302,0.699999988,0.69652009,0.07962333443966962,0.09003541818625807
0.304,0.699999988,0.69652009,-0.031510764986169074,0.053718847945749375
0.306,0.699999988,0.6965282761485149,0.16867305539365382,-0.02625572562948825
0.308,0.699999988,0.696903467,0.09701200989904989,0.05155810699109264
0.31,0.699999988,0.696903467,-0.1018010028071395,-0.07263285717353911
0.312,0.699999988,0.6969059741121044,-0.11813909401981156,0.011060517305146171
0.314,0.699999988,0.697287798,0.12948385152124106,0.10535154461718377
0.316,0.699999988,0.697287798,0.0035636787707119936,0.0714408412688696
0.318,0.699999988,0.697287798,-0.007467680582894737,0.04808213859102871
0.32,0.699999988,0.697287798,0.04316533405690766,0.12263007064280601
0.322,0.699999988,0.6972961977818528,0.028797103551321743,0.026507296632531555
0.324,0.699999988,0.697671175,0.05344267943181548,0.011217144652003328
0.326,0.699999988,0.697671175,0.0206278910436214,0.1515753531272193
0.328,0.699999988,0.697671175,0.10567526216941747,0.11919686014708739
0.33,0.699999988,0.697671175,0.018492899802429442,0.11877717946588068
0.332,0.699999988,0.6976791752788712,-0.07104121676405027,0.14721779667085608
0.334,0.699999988,0.6980485531482322,0.13570600611371236,0.07026171553141425
0.336,0.699999988,0.697677916198445,-0.1066016241229665,0.10115990144868421
0.338,0.699999988,0.698054552,0.11589315103613884,0.07550919549595815
0.34,0.699999988,0.698054552,0.004677039668136845,0.09002870023709621
0.342,0.699999988,0.698054552,-0.029914112934370213,0.23274840222917403
0.344,0.699999988,0.698054552,0.04429727430275229,0.07288720511709319
0.346,0.699999988,0.698054552,-0.06208698766957144,0.04959297658815805
0.348,0.699999988,0.698054552,0.08289950964176974,0.1971944769200761
0.35,0.699999988,0.698047674048798,0.1406131860161464,0.04068712829673484
0.352,0.699999988,0.6976793144448951,-0.05543541354985687,0.24855027583158396
0.354,0.699999988,0.698054552,-0.040925447032888466,0.03358357653956149
0.356,0.699999988,0.698054552,0.06939494361702128,0.085541421
0.358,0.699999988,0.698054552,-0.142305904479082,0.055217465738226154
0.36,0.699999988,0.698054552,-0.11932735293053444,0.15745295430452577
0.362,0.699999988,0.698054552,0.0464812292021508,0.14770620144429675
0.364,0.699999988,0.698048690526517,0.012116207932154802,0.11192118347778308
0.366,0.699999988,0.697671175,-0.13944057731588383,0.06898408266403729
0.368,0.699999988,0.6976787720612391,-0.04250593717440611,0.1479424444808404
0.37,0.699999988,0.698054552,-0.0661432485007153,0.04628363973676681
0.372,0.699999988,0.698054552,0.08359838563478673,-0.021738688908043244
0.374,0.699999988,0.698054552,-0.03702807368668501,0.06542779601842326
0.376,0.699999988,0.698054552,-0.014616524093082934,0.07144023873066604
0.378,0.699999988,0.698054552,0.12275137817578444,0.20152540282316578
0.38,0.699999988,0.698054552,0.051546511352019,0.193894425260095
0.382,0.699999988,0.698054552,0.14566782236494252,0.030911737477729885
0.384,0.699999988,0.698054552,-0.04485768888754924,0.1406846716641996
0.386,0.699999988,0.698054552,-0.035302942537052455,0.1193352988967527
0.388,0.699999988,0.698054552,0.0600265876195122,0.2227449186
0.39,0.699999988,0.6980613374336283,0.12352192310619468,0.1258750513097345
0.392,0.699999988,0.6984301885035972,0.07508517607681597,0.12994772699350196
0.394,0.699999988,0.6980569987086331,-0.019976123673706186,0.11818017746182409
0.396,0.699999988,0.6980620156547959,-0.017547607,-0.012251298972934473
0.398,0.699999988,0.6984320004896908,-0.01948254336597938,0.1713055289484536
0.4,0.699999988,0.6980625961525989,-0.14040023804291846,0.06067444625321888
0.402,0.699999988,0.6984298838882795,-0.03516480414653631,0.04724520666233456
0.404,0.699999988,0.698054552,-0.07361785544985743,0.07463923059648289
0.406,0.699999988,0.698054552,-0.05539377949820789,0.14818339196057348
0.408,0.699999988,0.698054552,-0.0401097530657361,0.169800047215581
0.41,0.699999988,0.698054552,-0.09715301886138614,0.12040966545780292
0.412,0.699999988,0.698054552,-0.035825813693641614,0.17718957898073218
0.414,0.699999988,0.6980620951916289,0.1243291083390174,0.15073770718745527
0.416,0.699999988,0.6984302934652356,0.1196726718208706,0.08024166437412045
0.418,0.699999988,0.698054552,-0.03498632725310263,0.1083275552954654
0.42,0.699999988,0.698054552,0.0060482406124880836,0.06278867502526216
0.422,0.699999988,0.6980625665328424,-0.027101715820168668,0.14614683761420597
0.424,0.699999988,0.6984312280492039,0.16567961713540047,0.1726352257039387
0.426,0.699999988,0.6980627223295082,-0.0013507784819672133,0.14835158215245903
0.428,0.699999988,0.698437929,-0.098402520826678,0.0740577059455031
0.43,0.699999988,0.698437929,-0.09065125977491999,0.04802791166469124
0.432,0.699999988,0.6984319064089219,0.055478845354359034,0.10934848253387697
0.434,0.699999988,0.698054552,0.04002111254662379,0.11271906257222818
0.436,0.699999988,0.698054552,-0.0495453722662849,0.16448408905666906
0.438,0.699999988,0.6980627021761283,-0.11462376958978622,0.01887573800617577
0.44,0.699999988,0.698437929,0.12153724006504066,0.006770766533237686
0.442,0.699999988,0.6984301949108609,0.04755942229181327,0.22755203505160684
0.444,0.699999988,0.698054552,-0.051188073085966825,0.10065062442826007
0.446,0.699999988,0.6980620853101107,-0.0646034447459807,0.13049403495605572
0.448,0.699999988,0.698437929,0.09587630078173559,0.1454087732034425
0.45,0.699999988,0.698437929,-0.1166948588722619,0.1383521599097619
0.452,0.699999988,0.698437929,-0.04144578589769056,0.20646211075625223
0.454,0.699999988,0.6984288918022981,0.12751131390547263,0.01676302453991945
0.456,0.699999988,0.6980612465391699,-0.11901590839576605,0.14191219464848703
0.458,0.699999988,0.698437929,0.011462841728496197,0.11977521226003511
0.46,0.699999988,0.6984371379563054,0.08602640044022332,0.0412032637446292
0.462,0.699999988,0.6980620798663355,-0.005282818495386799,0.042274231344688905
0.464,0.699999988,0.698437929,-0.07706440173026553,-0.012186402489967559
0.466,0.699999988,0.698437929,0.04626556671150633,0.11348950378515159
0.468,0.699999988,0.698437929,0.03177592287194468,0.104994441746274
0.47,0.699999988,0.698437929,-0.012714097508132493,0.20950479624136292
0.472,0.699999988,0.698437929,0.1367533823408383,0.16930707788095806
0.474,0.699999988,0.698437929,-0.023877952842299453,0.20403313009462035
0.476,0.699999988,0.698437929,0.10239237670954211,0.06786001173307701
0.478,0.699999988,0.698437929,0.07256813760153792,0.13657878724513572
0.48,0.699999988,0.6980602122293842,-0.1053441632189413,0.2038488620943464
0.482,0.699999988,0.6984296612486596,0.04299395179947575,0.20510583385547482
0.484,0.699999988,0.6980625923183985,0.021399396845567208,0.11559060017254527
0.486,0.699999988,0.6984300492066057,0.056801871192824045,0.15329350425282168
0.488,0.699999988,0.6980611603658128,-0.03612117358534834,0.20541060473545608
0.49,0.699999988,0.6984297477311636,-0.050433135322007626,0.10924363048390558
0.492,0.699999988,0.6980626080191454,-0.018047445549381275,0.10534857461779126
0.494,0.699999988,0.698437929,0.029737623138181818,0.0741768920610909
0.496,0.699999988,0.698437929,-0.04051310853917106,0.15200120540608528
0.498,0.699999988,0.698437929,-0.04415897937886721,0.0778423963921942
0.5,0.699999988,0.698437929,-0.005854606126775695,0.045048994805777724
0.502,0.699999988,0.698429824355582,-0.03347409486935867,0.02089132690973872
0.504,0.699999988,0.6980612505449976,-0.13128484714001915,0.14754398178338918
0.506,0.699999988,0.6984297545529482,0.07695273645253126,0.07296538086253722
0.508,0.699999988,0.698054552,-0.06731967935943517,0.06630497131835687
0.51,0.699999988,0.698054552,-0.03893697858793324,-0.048779412107830544
0.512,0.699999988,0.6984345526553264,0.1687417076033297,0.0737416686249246
0.514,0.699999988,0.6980624114569726,0.010818463464123957,0.030835519366865315
0.516,0.699999988,0.698437929,-0.017482664659514598,0.21568143500422088
0.518,0.699999988,0.6984365272559415,0.0598705231023766,0.09827943373126143
0.52,0.699999988,0.698054552,-0.04880977895489891,0.08590345206854887
0.522,0.699999988,0.6980657027912743,-0.019251011080939327,0.11538242117069972
0.524,0.699999988,0.698437929,-0.024780200914387634,0.13528470392223543
0.526,0.699999988,0.698437929,-0.009633041853556484,0.15725377336541144
0.528,0.699999988,0.698437929,0.058746338,0.10055855135591818
0.53,0.699999988,0.698437929,0.058746338,0.1408800938475819
0.532,0.699999988,0.698054552,-0.154762026175,0.11457991175311004
0.534,0.699999988,0.698054552,-0.0077264107951505005,0.09307422400668897
0.536,0.699999988,0.6980607502016167,-0.17040335987874466,0.03519575401378982
0.538,0.699999988,0.698437929,0.00032575396711937094,0.13721664103002143
0.54,0.699999988,0.698437929,0.07944692557468112,0.08951897831004887
0.542,0.699999988,0.698437929,0.028020725773659213,0.17328358513483144
0.544,0.699999988,0.698437929,0.011712397824626436,0.19249775996629212
0.546,0.699999988,0.698437929,0.06878504368700646,0.0872013181012204
0.548,0.699999988,0.698437929,-0.06809073378068817,0.08433774024419574
0.55,0.699999988,0.698437929,0.07803168646834387,0.1642184003716466
0.552,0.699999988,0.698437929,0.060195324511171856,0.0520250835254338
0.554,0.699999988,0.698437929,0.10994390118673482,0.19869605741507193
0.556,0.699999988,0.698437929,0.08184649425408759,0.17064716323821458
0.558,0.699999988,0.6984293182519005,0.02286287525466482,0.15955983558569453
0.56,0.699999988,0.6980589236105736,-0.01104390468313753,0.05235175739495507
0.562,0.699999988,0.6984312493248785,0.030536116237525186,0.09426606763565248
0.564,0.699999988,0.698437929,-0.02054934204191547,0.17860818212820512
0.566,0.699999988,0.698437929,-0.008559553602739725,0.196952559
0.568,0.699999988,0.698437929,0.04205062704503643,0.10603801853995938
0.57,0.699999988,0.698437929,0.13453132235443935,0.12704487655111427
0.572,0.699999988,0.698437929,-0.0375356732698974,0.1770337702430138
0.574,0.699999988,0.698437929,-0.01780880327433523,0.07325005894717473
0.576,0.699999988,0.698437929,-0.12881477601462718,0.0632999462372458
0.578,0.699999988,0.698437929,0.06924178073738094,0.14533927265809524
0.58,0.699999988,0.6984377485235965,0.11670674994609863,0.1807201198347652
0.582,0.699999988,0.6980592443864894,0.0684992484014358,0.1622807512961045
0.584,0.699999988,0.6984333568234944,0.09956291585927252,0.19136147631484796
0.586,0.699999988,0.698437929,0.017375417048614374,0.07909615795244247
0.588,0.699999988,0.698437929,-0.02922140560216064,0.22628575050211364
0.59,0.699999988,0.698437929,0.035091759040047674,0.18453811738569725
0.592,0.699999988,0.698437929,0.0343538659156956,-0.07375373993745538
0.594,0.699999988,0.698437929,-0.030535363745965334,0.12348898340765091
0.596,0.699999988,0.698437929,-0.020690034758847443,0.19769151890877568
0.598,0.699999988,0.698437929,0.013919021942178075,0.06863421482476056
0.6,0.699999988,0.698437929,0.030003153475570032,0.08387363679478828
0.602,0.699999988,0.698437929,0.06723150946765938,0.05814139717833876
0.604,0.699999988,0.698437929,0.06941586425523809,0.12156635124571429
0.606,0.699999988,0.698437929,0.06629638124713391,0.16536882846862072
0.608,0.699999988,0.698437929,0.03301270795745184,0.17408309878158612
0.61,0.699999988,0.698437929,0.02822985801775006,0.04013224887958741
0.612,0.699999988,0.698437929,-0.0418198215421571,0.0817176444156858
0.614,0.699999988,0.6984330662547565,-0.01517324747110207,0.05768050606341989
0.616,0.699999988,0.6980608443983467,-0.06822718789732839,0.14442125015814064
0.618,0.699999988,0.698437929,-0.08384595861298048,0.2040582346914142
0.62,0.699999988,0.698437929,0.09137462177319709,0.06612987649518831
0.622,0.699999988,0.698437929,-0.005365756195209154,0.09837943921272793
0.624,0.699999988,0.698437929,-0.13376947742240763,0.2418678933661502
0.626,0.699999988,0.698437929,0.12279823664750414,0.1283053874575349
0.628,0.699999988,0.698437929,0.05153390581559095,0.14169746400586755
0.63,0.699999988,0.698437929,-0.023887950881143132,0.10197415690673203
0.632,0.699999988,0.6984296066462309,0.03832015298759542,0.12132588874570611
0.634,0.699999988,0.6980630553209584,-0.1936734291884711,0.16761842218182896
0.636,0.699999988,0.698437929,-0.15064279928318158,0.170822265975563
0.638,0.699999988,0.698437929,0.08823241540231255,0.167537769480987
0.64,0.699999988,0.698437929,-0.024205606279077772,0.0722111821761872
0.642,0.699999988,0.698437929,0.019838000786304193,0.18320474272677217
0.644,0.699999988,0.698437929,0.014595023011708482,0.12134983535794505
0.646,0.699999988,0.6984355061020905,0.03787807069761789,0.10902234929071464
0.648,0.699999988,0.698054552,-0.12432050803778966,0.06503465513654189
0.65,0.699999988,0.6980630978933127,-0.11861557647156992,0.1366856410898796
0.652,0.699999988,0.698437929,0.06351287255502064,0.1310772774986245
0.654,0.699999988,0.698437929,-0.06560824510052728,0.07191265972959651
0.656,0.699999988,0.698437929,0.1091008929528279,0.16345152350373043
0.658,0.699999988,0.698437929,-0.021930027206978397,0.19136319768336105
0.66,0.699999988,0.698437929,0.13968799622166367,0.16013707523267506
0.662,0.699999988,0.698437929,-0.04445647880102996,0.05080724086470037
0.664,0.699999988,0.698437929,0.03620627808959013,0.15400236971901826
0.666,0.699999988,0.698437929,-0.01811453301069011,0.10361794673500416
0.668,0.699999988,0.698437929,-0.053752352733373275,0.2026010727475135
0.67,0.699999988,0.698437929,0.17735734917114337,0.1626674102536249
0.672,0.699999988,0.698437929,0.020393552559289485,0.06070938302592416
0.674,0.699999988,0.698437929,0.08081095898802182,0.12818197897746678
0.676,0.699999988,0.698437929,0.018084991281264978,0.2162468108421179
0.678,0.699999988,0.698437929,0.06158632050825556,0.0781213812794927
0.68,0.699999988,0.698437929,0.09046362121920891,0.012277261172430123
0.682,0.699999988,0.698437929,0.08479187366003081,0.208031284163171
0.684,0.699999988,0.698437929,0.194770476689126,0.14526142082819807
0.686,0.699999988,0.698437929,0.004415740463027534,0.11928066464350126
0.688,0.699999988,0.698437929,0.13376972437588822,0.14749250048034107
0.69,0.699999988,0.698437929,0.18775817415660645,0.11740285544403517
0.692,0.699999988,0.698437929,0.06435819709690944,0.20308279436200288
0.694,0.699999988,0.698437929,0.15306342323289807,0.10085896610363004
0.696,0.699999988,0.698437929,-0.063323975,0.174137115
0.698,0.699999988,0.698437929,-0.013032942628578244,0.1089965879985687
0.7,0.699999988,0.698437929,-0.012507689635252225,0.09476879854160238
0.702,0.699999988,0.698437929,0.14626846163066698,0.13392892738357465
0.704,0.699999988,0.698437929,-0.08794643084800385,0.15955261965319864
0.706,0.699999988,0.698437929,0.13021990873433584,0.13331769261475115
0.708,0.699999988,0.698437929,-0.16083642260743755,0.02609040892887856
0.71,0.699999988,0.698437929,-0.016537757127832647,0.13748387752760022
0.712,0.699999988,0.6980593085384615,-0.10041078300496278,0.08905336894044664
0.714,0.699999988,0.6984366835206354,0.04301662138695703,0.2078056848248105
0.716,0.699999988,0.698437929,-0.18804105424389075,0.09728858948826066
0.718,0.699999988,0.698437929,-0.00287480476119403,0.13919964136886992
0.72,0.699999988,0.698437929,0.024932213542581107,0.11267770428220421
0.722,0.699999988,0.698437929,-0.04277678814528686,0.15650717968044078
0.724,0.699999988,0.698437929,0.042535049271553764,0.07149412544990526
0.726,0.699999988,0.698437929,0.010317321274574723,0.12767485849377783
0.728,0.699999988,0.698437929,-0.03790386670944171,0.11399392323769837
0.73,0.699999988,0.698437929,-0.06928327752671755,0.0830921431748455
0.732,0.699999988,0.698437929,0.026266495789600386,0.21659977601781416
0.734,0.699999988,0.698437929,-0.01280895589988249,0.17715021137673326
0.736,0.699999988,0.698437929,0.07022338881986034,8.016457912178956e-05
0.738,0.699999988,0.698437929,-0.060054776095277554,0.11242235814664457
0.74,0.699999988,0.698437929,0.11350116507561821,0.055437909380360764
0.742,0.699999988,0.698437929,-0.04538569635171147,0.05500629980220538
0.744,0.699999988,0.698437929,0.07810638699908107,0.13439774284011027
0.746,0.699999988,0.698437929,0.004365357021652833,0.10732289364453265
0.748,0.699999988,0.698437929,0.05407361817345112,0.20421743736218215
0.75,0.699999988,0.698437929,0.04965867888838594,0.12334304730327576
0.752,0.699999988,0.698437929,0.04916979940779768,0.254877944426765
0.754,0.699999988,0.698437929,-0.1115671180262136,0.12676989638009709
0.756,0.699999988,0.698437929,0.0660232559747047,0.0881169447962057
0.758,0.699999988,0.698437929,0.04793358869832402,0.07551612664385475
0.76,0.699999988,0.698437929,-0.028047615158286777,0.18815081253072624
0.762,0.699999988,0.698437929,0.11552733112738478,0.18950886203519374
0.764,0.699999988,0.698437929,-0.08784939939719298,0.06418983906526315
0.766,0.699999988,0.698437929,-0.09383798369239765,0.059878057901754385
0.768,0.699999988,0.698437929,0.05655768514340724,0.044735764161143526
0.77,0.699999988,0.698437929,-0.12567159991481913,0.0565654885285881
0.772,0.699999988,0.698437929,-0.071141303971715,0.09576953587647691
0.774,0.699999988,0.698437929,-0.07622058266941063,0.07999947760295872
0.776,0.699999988,0.6984296196991008,0.09591030220705557,0.14773952966981785
0.778,0.699999988,0.6980588392456767,-0.08413039054300209,0.24443023648950887
0.78,0.699999988,0.698437929,0.05379210972989124,0.04159829334014581
0.782,0.699999988,0.698437929,-0.04142359498749106,0.11823936119966642
0.784,0.699999988,0.698437929,-0.015446340469996449,0.17215401141602557
0.786,0.699999988,0.698437929,0.08126860670661451,0.1296321446778094
0.788,0.699999988,0.698437929,0.055654793681313375,0.015432614582327378
0.79,0.699999988,0.698437929,0.05179001239157417,0.20534717519214704
0.792,0.699999988,0.698437929,0.08643163939404314,0.023801974160219102
0.794,0.699999988,0.698437929,0.2339539836802465,0.1310707017726806
0.796,0.699999988,0.698437929,0.1102473437842233,0.2103714653012136
0.798,0.699999988,0.698437929,-0.029692168743017427,0.19902399548412508
0.8,0.699999988,0.698437929,0.04410248548348635,0.0268609148193633
0.802,0.699999988,0.698437929,-0.06743019823495398,0.22018276450637242
0.804,0.699999988,0.6984335197553948,-0.11465983069433247,0.06725072675397202
0.806,0.699999988,0.6980569628845084,-0.06772889088390374,0.13449649555133633
0.808,0.699999988,0.698437929,-0.037396783755401695,0.11905962611925511
0.81,0.699999988,0.698437929,0.10534212919916579,0.06034136637226277
0.812,0.699999988,0.698437929,0.003008532176225223,0.08169794377615572
0.814,0.699999988,0.698437929,0.11771604301874779,0.11796047750489329
0.816,0.699999988,0.698437929,0.012078288399878862,0.16623587626238645
0.818,0.699999988,0.698437929,-0.08608062929298163,0.13963824499646726
0.82,0.699999988,0.698433206239855,0.03983755534275362,0.035579032010869566
0.822,0.699999988,0.6980641981420224,-0.12716460035129978,0.19961256698652516
0.824,0.699999988,0.698437929,0.0017321988412262912,0.12378173135023261
0.826,0.699999988,0.698437929,0.03883240591139974,0.17178278754041515
0.828,0.699999988,0.698437929,0.035863462636205504,0.12368219753832772
0.83,0.699999988,0.698437929,0.014500951445731342,0.18950223248441792
0.832,0.699999988,0.698437929,-0.05610107629329474,0.1380497042825615
0.834,0.699999988,0.698437929,0.05769485565023697,0.1529860115563981
0.836,0.699999988,0.698437929,-0.06381975842829919,0.037372096388756555
0.838,0.699999988,0.698437929,-0.09578032126639491,0.07496354608080566
0.84,0.699999988,0.698437929,-0.015477241818225419,0.05526808025227818
0.842,0.699999988,0.698437929,0.08622670379516392,0.09942627
0.844,0.699999988,0.698437929,0.026702880999999998,0.09942627
0.846,0.699999988,0.698437929,0.031196937549157304,0.20405164458286518
0.848,0.699999988,0.698437929,-0.0009331101024291015,0.13197485915795143
0.85,0.699999988,0.698437929,0.047273221163744786,0.11539437711091234
0.852,0.699999988,0.698437929,0.02240791485144282,0.06667849327395796
0.854,0.699999988,0.698437929,0.03069790968181818,0.14077852431818183
0.856,0.699999988,0.698437929,0.014901496299787386,0.09003233503732579
0.858,0.699999988,0.698437929,0.17188361229545726,0.17631093336592346
0.86,0.699999988,0.698437929,0.04002768058063027,0.17514443834052867
0.862,0.699999988,0.698437929,-0.05010697074766247,0.17088890093327946
0.864,0.699999988,0.698437929,0.05348773025188645,0.12499329150772548
0.866,0.699999988,0.698437929,0.05390383005559602,0.16954493609820345
0.868,0.699999988,0.698437929,-0.11107431655295769,0.04662209913747954
0.87,0.699999988,0.698437929,0.022093492018938496,0.15543441324222584
0.872,0.699999988,0.6984286352895869,0.0521065597513733,0.08324638969166467
0.874,0.699999988,0.6980644309817967,-0.09074290047659575,0.2237518461141844
0.876,0.699999988,0.698437929,-0.03167490897344506,0.06461077379912664
0.878,0.699999988,0.698437929,-0.05371134305076142,0.0834362092100556
0.88,0.699999988,0.698437929,0.006641628753835176,0.0049434556721369965
0.882,0.699999988,0.698437929,-0.0018241824153625613,0.10867278379321467
0.884,0.699999988,0.698437929,0.10302784994788503,0.1894774086922178
0.886,0.699999988,0.698437929,0.1044219223114754,0.1345351722846282
0.888,0.699999988,0.698437929,-0.10694457119672132,0.02723626472107389
0.89,0.699999988,0.698437929,0.09091302313634736,0.16397530596385543
0.892,0.699999988,0.698437929,-0.04774969469787432,0.04880450349668951
0.894,0.699999988,0.698437929,-0.032880837767917295,0.14837008034347776
0.896,0.699999988,0.698437929,0.08035896722798552,0.23120108471411338
0.898,0.699999988,0.698437929,-0.06773439647487167,0.2213147734279575
0.9,0.699999988,0.698437929,0.013717866665023474,0.11237487254096244
0.902,0.699999988,0.698437929,-0.021458941126663498,0.1525610424737405
0.904,0.699999988,0.698437929,0.09223153028383863,0.2201094832824063
0.906,0.699999988,0.698437929,0.060603791761246514,0.15525146042075905
0.908,0.699999988,0.698437929,0.14407589241631505,0.10186999341701829
0.91,0.699999988,0.698437929,0.06431283701501891,0.11390183610052035
0.912,0.699999988,0.698437929,-0.08099356524373226,0.16621592523486284
0.914,0.699999988,0.698437929,0.0091970498933365,0.05642156120916973
0.916,0.699999988,0.698437929,-0.02520300401824073,0.05182849296195848
0.918,0.699999988,0.698437929,-0.0248099180923277,0.21662082804161248
0.92,0.699999988,0.698437929,0.05292646381099244,0.020135704933757353
0.922,0.699999988,0.698437929,-0.024998593327429392,0.1512264931140498
0.924,0.699999988,0.698437929,0.04372590424456903,0.25029837201121236
0.926,0.699999988,0.698437929,-0.24061053231638618,0.009682299974221268
0.928,0.699999988,0.698437929,-4.2339357328298206e-05,0.07588306314939816
0.93,0.699999988,0.698437929,-0.12995541896554166,-0.00024983030634882775
0.932,0.699999988,0.698437929,0.00517089199724979,0.0010185642499103192
0.934,0.699999988,0.698437929,-0.0038475565001784653,0.08773627099393219
0.936,0.699999988,0.698437929,-0.005280415896057347,0.25186235884050184
0.938,0.699999988,0.698437929,-0.0015535470858168763,0.07690102747935368
0.94,0.699999988,0.698437929,0.03203045228096316,0.19679106359148887
0.942,0.699999988,0.698437929,0.061693028383432366,0.09719405988989863
0.944,0.699999988,0.698437929,0.11677737889511647,0.053260827175475936
0.946,0.699999988,0.698437929,0.13494448103748374,0.04454243517855031
0.948,0.699999988,0.698437929,0.14813098465698576,0.10665234479036691
0.95,0.699999988,0.698437929,0.11273156074048817,0.13825913824515434
0.952,0.699999988,0.6984282743179239,0.0004827676803026723,0.10560305869378103
0.954,0.699999988,0.6980611873711539,-0.06903134837115384,0.08870192285384615
0.956,0.699999988,0.698437929,-0.04568960188199644,0.04172709210481284
0.958,0.699999988,0.698437929,-0.013105783153367629,0.06163272256968537
0.96,0.699999988,0.698437929,-0.019035387529996534,0.04451936089249797
0.962,0.699999988,0.698437929,-0.017555896944861864,0.1308069457178361
0.964,0.699999988,0.698437929,-0.00010409364743739795,0.21429306262461972
0.966,0.699999988,0.698437929,0.1136319483502007,0.07419994626480964
0.968,0.699999988,0.698437929,0.019565160098810506,0.160953522
0.97,0.699999988,0.698437929,0.0429791069181456,0.16070641914668596
0.972,0.699999988,0.698437929,-0.016819073566929132,0.12914656794631355
0.974,0.699999988,0.698437929,0.01731715181916796,0.02929515096257003
0.976,0.699999988,0.698437929,0.006003679328358208,0.08570778703656139
0.978,0.699999988,0.698437929,-0.03397953798507463,0.010006227758532937
0.98,0.699999988,0.698437929,0.10393456604362376,0.13944660628887295
0.982,0.699999988,0.698437929,-0.004413772714302742,0.21764742720977354
0.984,0.699999988,0.698437929,-0.031018390488788707,0.1493639819644086
0.986,0.699999988,0.698437929,-0.01686472300298436,0.17255008498901755
0.988,0.699999988,0.698437929,0.11118236211635409,0.20811493741237605
0.99,0.699999988,0.698437929,0.05738498611068703,0.20163928693869274
0.992,0.699999988,0.698437929,-0.010949502033983417,0.0977454114652575
0.994,0.699999988,0.698437929,-0.133518219,0.122497559
0.996,0.6886355379142891,0.698437929,0.003555464427129641,0.14246877733809923
0.998,0.349999994,0.698437929,-0.01697323988769543,0.06957870160842583
1.0,0.349999994,0.6984058775744125,-0.012173485629242822,-0.02788533731853783
1.002,0.349999994,0.6968275427123191,-1.1375224423525991,-6.667696305606456
1.004,0.349999994,0.6922357466988807,-2.2349561029993983,-3.746855349775304
1.006,0.349999994,0.6867806835102115,-2.889888830298221,-3.2732517402303833
1.008,0.349999994,0.6798389924105983,-3.481775634641213,-2.3536629257454265
1.01,0.349999994,0.6718584418378633,-4.018809690119191,-1.6398656787985646
1.012,0.349999994,0.6635283489990272,-4.273347358488813,-0.909025702362354
1.014,0.349999994,0.6541491578311471,-4.515770821260196,-0.4659197788037205
1.016,0.349999994,0.6453154575766077,-4.587054709866634,-0.5522913109076429
1.018,0.349999994,0.6361282347095392,-4.708041007661308,-0.5587801020471597
1.02,0.349999994,0.6265526438333334,-4.698529806224139,-0.30740205571743295
1.022,0.349999994,0.6173068647067588,-4.574928553041603,0.07759088650601978
1.024,0.349999994,0.6081087048872567,-4.478502570525021,0.39655396702149764
1.026,0.349999994,0.5992785605742387,-4.440391379411186,0.3643637136046925
1.028,0.349999994,0.5908911769380779,-4.402763323580358,0.22626809715556598
1.03,0.349999994,0.5826052271742947,-4.110607981638651,0.1895923060025752
1.032,0.349999994,0.5739311482209372,-3.9952446278647913,0.4065831821843329
1.034,0.349999994,0.5666300095231173,-3.7316077899271924,0.6086639362155624
1.036,0.349999994,0.558982739747851,-3.580462677015282,0.6935733983935053
1.038,0.349999994,0.5520698342922913,-3.4731227310220754,0.538324024521544
1.04,0.349999994,0.5452478905924515,-3.3065309860169068,0.4136557524160019
1.042,0.349999994,0.5391110800918728,-3.12611447170106,0.25794059517738516
1.044,0.349999994,0.5326709507379571,-3.140010453091727,0.056390684416025565
1.046,0.349999994,0.526576883621064,-3.0052024295070576,0.17199233625769092
1.048,0.349999994,0.5207584756119618,-2.9167194516921056,0.24645558816267943
1.05,0.349999994,0.5153690041586347,-2.675793486492008,0.4041250076157914
1.052,0.349999994,0.5099679449517596,-2.6845929790209744,0.4913088754073643
1.054,0.349999994,0.5050924142718447,-2.7380183285368935,0.3859626659029126
1.056,0.349999994,0.49964040141101335,-2.5156722939489096,0.16468296910434993
1.058,0.349999994,0.4949884012789116,-2.36527292830839,0.12562526437641722
1.06,0.349999994,0.49038095475521826,-2.24434885543833,-0.028388412163187857
1.062,0.349999994,0.48580968041746525,-2.2590666142918066,-0.14649770872724005
1.064,0.349999994,0.48157382433243967,-2.1960337338042897,-0.17858749659249332
1.066,0.349999994,0.4774488863387234,-2.078187333434043,-0.07095905688425531
1.068,0.349999994,0.4735399341263555,-1.9676105402045025,0.06051117716784536
1.07,0.349999994,0.4697397331141865,-1.9644728497147137,0.1259069866113108
1.072,0.349999994,0.46551522693079583,-1.8605825958304498,0.27004129747750866
1.074,0.349999994,0.4620518213145786,-1.848003476779473,0.23507515644713314
1.076,0.349999994,0.45822464102264193,-1.8158464100286251,0.3077270765851713
1.078,0.349999994,0.45482557976554217,-1.6415323009120482,0.286675236546747
1.08,0.349999994,0.45133737234098753,-1.7173061043088638,0.17527077877263533
1.082,0.349999994,0.4478964805142168,-1.7092823724754218,0.17624590686
1.084,0.349999994,0.4447961229248493,-1.5681577136926623,0.09140714527082595
1.086,0.349999994,0.4417538236877914,-1.5166509447596557,-0.011644740500418511
1.088,0.349999994,0.4386829211737167,-1.3693159696817967,-0.15630600240470532
1.09,0.349999994,0.4360059909352018,-1.43603068384046,-0.20120566997209247
1.092,0.349999994,0.4333100569920847,-1.2061799917343732,-0.24585260677080664
1.094,0.349999994,0.43068765520148994,-1.2791900377911767,-0.2608718169372599
1.096,0.349999994,0.42834553640819006,-1.1485606592725646,-0.2755928915469198
1.098,0.349999994,0.426040586975048,-1.1727910033198177,-0.13672450074040307
1.1,0.349999994,0.42372528829664957,-1.181938911943007,-0.0587084770040539
1.102,0.349999994,0.42143049575951186,-1.1852488110375687,-0.053468242752572386
1.104,0.349999994,0.41949661796152027,-1.061301435223893,0.0430351254374852
1.106,0.349999994,0.4172098575043062,-1.0639593996066985,0.16061854394258374
1.108,0.349999994,0.41490202615976746,-1.1277748031448838,0.20192843808744185
1.11,0.349999994,0.4126575368346511,-1.0980057979723257,0.16549572969116277
1.112,0.349999994,0.41070581437292386,-1.119370140898435,0.2887362406156052
1.114,0.349999994,0.40877759737969066,-1.0088336969725453,0.31540343436470447
1.116,0.349999994,0.40647136345454543,-1.0689765840159091,0.2833012672159091
1.118,0.349999994,0.404547196634378,-0.8552623142459639,0.19783440659069326
1.12,0.349999994,0.40263656989110796,-0.9154812174013315,0.2202984260299572
1.122,0.349999994,0.40073021903160544,-0.7966134887988746,0.05661220815311864
1.124,0.349999994,0.3991892639887882,-0.757739176239981,0.12064204365827767
1.126,0.349999994,0.3976467626541642,-0.7650649996597554,0.03138730640058241
1.128,0.349999994,0.3957727089126383,-0.8276887761939429,-0.11783620703319744
1.13,0.349999994,0.39461841044298507,-0.7438874316973134,-0.17522892618256716
1.132,0.349999994,0.3930594073277692,-0.601903258841779,-0.18707326427196852
1.134,0.349999994,0.3919089767209302,-0.670051725461777,-0.22948881745760286
1.136,0.349999994,0.39075747988372095,-0.569763261045319,-0.3022011461068575
1.138,0.349999994,0.3896058634365392,-0.561377496690025,-0.331194473227029
1.14,0.349999994,0.38845506721909645,-0.5217709989010609,-0.32799534344164977
1.142,0.349999994,0.3873134228960994,-0.6213993381577837,-0.2830454614027176
1.144,0.349999994,0.38655894586011114,-0.5301596745992994,-0.44516837618990096
1.146,0.349999994,0.3857757391465311,-0.5032957890186603,-0.35211043744820575
1.148,0.349999994,0.3846284286545802,-0.44355063435687025,-0.4825066140066794
1.15,0.349999994,0.38386120336341956,-0.4570398365519256,-0.516573525288661
1.152,0.349999994,0.38309341033221955,-0.456538137376611,-0.39741064874749404
1.154,0.349999994,0.3823258559140681,-0.3649924250936682,-0.46040551794096646
1.156,0.349999994,0.38155940213129624,-0.481422424,-0.4387119846155407
1.158,0.349999994,0.3807922787130415,-0.48110766557460466,-0.4278452087597983
1.16,0.349999994,0.38005421976140275,-0.46643817429326156,-0.3729189657539537
1.162,0.349999994,0.3792860259129811,-0.3415556180882142,-0.39351286431424815
1.164,0.349999994,0.37850678118201625,-0.36999620947416195,-0.2939969888424301
1.166,0.349999994,0.3777395568613861,-0.4905201776616963,-0.2840051149744722
1.168,0.349999994,0.37696349119480055,-0.3019692545320475,-0.3484977896657482
1.17,0.349999994,0.37656851540809083,-0.3335925550645848,-0.23039194984599007
1.172,0.349999994,0.3758075409901655,-0.4541534467745263,-0.2379287062290717
1.174,0.349999994,0.37503532720014265,-0.2981308842380556,-0.18059403131542667
1.176,0.349999994,0.37427116779753317,-0.29368373685873866,-0.131654260459623
1.178,0.349999994,0.37352186192087505,-0.4366605739218059,-0.20135365347847337
1.18,0.349999994,0.37312692548578313,-0.15590414974650602,-0.11492149270120482
1.182,0.349999994,0.3723596590373206,-0.24657205804114832,-0.12629081669186604
1.184,0.349999994,0.3719653165781157,-0.3870308458745396,-0.1904246391602709
1.186,0.349999994,0.37120133727034305,-0.3345762136218241,0.06753028693958553
1.188,0.349999994,0.3704487718626287,-0.24999963367752878,-0.08231647718267716
1.19,0.349999994,0.3700516516108987,-0.3805753920884321,0.07899705594263862
1.192,0.349999994,0.3692825297226047,-0.2993730116091726,0.04855205071992064
1.194,0.349999994,0.36853214551741764,-0.347175011852574,0.13236947349292594
1.196,0.349999994,0.3681497712868862,-0.39435733805980266,0.10497168868553086
1.198,0.349999994,0.36737414024010995,-0.39960591820102787,0.16529217678953032
1.2,0.349999994,0.3669815788417661,-0.34872632297028644,0.1071489010225537
1.202,0.349999994,0.36622278140438247,-0.28092663232270915,0.2073192439741036
1.204,0.349999994,0.3658429723066118,-0.2543420340704771,0.11979396727851781
1.206,0.349999994,0.3650722081346452,-0.30817575952081094,0.23296309163005366
1.208,0.349999994,0.36468099864790865,-0.27069816415682163,0.1063613157737388
1.21,0.349999994,0.3639306430132821,-0.336319312870325,0.1750882828185949
1.212,0.349999994,0.3631588123944678,-0.2915214655441972,0.1257080521262778
1.214,0.349999994,0.3627711265081204,-0.21854925151253882,0.11702007497647479
1.216,0.349999994,0.3623870690517838,-0.3625823012158454,0.1794560663537764
1.218,0.349999994,0.36199555821295853,-0.2940804443318247,0.2273615312800143
1.22,0.349999994,0.36123598315656325,-0.2392787436281623,0.3020987331961814
1.222,0.349999994,0.36085224485641026,-0.33437857961538464,0.21920923089230768
1.224,0.349999994,0.36046061599236645,-0.09317187678435114,0.273014069
1.226,0.349999994,0.359700890943624,-0.27222020846436945,0.27145252185759494
1.228,0.349999994,0.359323952262963,-0.12503367019772998,0.199580506188411
1.23,0.349999994,0.3589396771120773,-0.27650707797971014,0.23911248870338164
1.232,0.349999994,0.3585513399008955,-0.21070673907104479,0.2605126105862687
1.234,0.349999994,0.35816735921950643,-0.1788088227266007,0.1845638446839156
1.236,0.349999994,0.3577829980430656,-0.1541579627579784,0.16166543673555583
1.238,0.349999994,0.35740149334150967,-0.053152776728403836,0.2941000336725915
1.24,0.349999994,0.35702032651870563,-0.1738674233157705,0.24002455559617467
1.242,0.349999994,0.3566336396874781,-0.09560292365380568,0.1363631829768502
1.244,0.349999994,0.356256723,-0.107574463,0.170841217
1.246,0.349999994,0.35624923073362547,-0.0714255026530854,0.1339206776835248
1.248,0.349999994,0.355873346,-0.17012619244396188,0.10021873216166004
1.25,0.349999994,0.35586384078512395,-0.057397006884297525,0.07783495663636364
1.252,0.349999994,0.3554839968187417,-0.1246206591133921,0.09430636340502355
1.254,0.349999994,0.355106592,-0.13934224135211268,0.18469007226760564
1.256,0.349999994,0.35509527062170543,-0.0780008007875969,0.09509827914573643
1.258,0.349999994,0.354722261,-0.11068821142561541,0.13224641603745985
1.26,0.349999994,0.35471206362403146,-0.16186053274962414,0.09045005717127327
1.262,0.349999994,0.3543401254196831,-0.13817491159569792,0.04355252608349716
1.264,0.349999994,0.354338884,-0.08054919162678062,0.04884742656030389
1.266,0.349999994,0.353955507,-0.15937955619584496,0.08077941225610497
1.268,0.349999994,0.353955507,0.0028431065286783045,0.13996618315876974
1.27,0.349999994,0.3539496313159083,0.030485400391944875,0.0233260681142925
1.272,0.349999994,0.35357213,-0.021174554844209006,0.14482449772694436
1.274,0.349999994,0.3535637500913857,-0.06919922756570952,0.08291955026140832
1.276,0.349999994,0.353187799,-0.12811463440873616,0.029706660162143274
1.278,0.349999994,0.353187799,-0.16091756506732674,-0.09697229375841585
1.28,0.349999994,0.353187799,0.03260881471838111,-0.008994311868585883
1.282,0.349999994,0.35318264063575205,-0.031636140009610764,0.10415076057568477
1.284,0.349999994,0.352804422,0.05550400310299514,0.048317017550491295
1.286,0.349999994,0.3527990759250768,0.11453192680406522,0.07191007462609313
1.288,0.349999994,0.352421045,-0.14794183323121385,-0.00936814686849711
1.29,0.349999994,0.352421045,0.004065930062957189,-0.014797552435903586
1.292,0.349999994,0.352421045,-0.07683485197398676,-0.012131848009406572
1.294,0.349999994,0.352421045,-0.0664303099505284,0.011412142901753571
1.296,0.349999994,0.352421045,-0.028653669985543306,0.03543634303827468
1.298,0.349999994,0.3520398736929162,0.0673485416235167,0.16897142532038834
1.3,0.349999994,0.352037668,0.008772665285424376,-0.07155297011221201
1.302,0.349999994,0.352037668,0.027807865042472867,0.002271490590136857
1.304,0.349999994,0.352037668,0.07764628738433059,0.12688864292045862
1.306,0.349999994,0.352037668,0.12483378795050444,0.03242309953483679
1.308,0.349999994,0.3520341445141044,-0.06230277676798308,-0.045906271812411845
1.31,0.349999994,0.35165523426163614,0.047515310028913973,0.038578437129760224
1.312,0.349999994,0.351653337,-0.015718564629472694,0.03127275872645951
1.314,0.349999994,0.351653337,-0.08466455315282392,0.02874356150450878
1.316,0.349999994,0.351653337,-0.0801045636056629,-0.04887714432944465
1.318,0.349999994,0.351653337,-0.04810894794592996,0.04839729712517748
1.32,0.349999994,0.351653337,-0.12786107512338593,-0.03290946468077475
1.322,0.349999994,0.3516476827454062,-0.03642076651281432,0.01699321419729207
1.324,0.349999994,0.35126996,-0.07036573651276545,-0.057092337140539254
1.326,0.349999994,0.35126996,0.052394002065748874,0.0006132051727984808
1.328,0.349999994,0.35126996,-0.0059957721851145035,0.002337739641221374
1.33,0.349999994,0.35126996,0.0270022715521327,-0.014533193723222749
1.332,0.349999994,0.35126996,-0.020775364894208958,-0.04426270288513433
1.334,0.349999994,0.35126996,-0.03200443326632343,0.02443050282939387
1.336,0.349999994,0.35126996,-0.13929771380014552,0.06308305404341498
1.338,0.349999994,0.35126996,0.014078136658466682,0.020030828633627897
1.34,0.349999994,0.35126996,-0.16106532102189955,0.0041020248583670555
1.342,0.349999994,0.35126996,-0.018727565355292464,-0.03512502015566757
1.344,0.349999994,0.3512690981728585,0.07818143546142925,-0.004904332574656885
1.346,0.349999994,0.35088862416954564,-0.09899455304022717,0.012540687834713675
1.348,0.349999994,0.35126996,-0.05148474987117956,0.012813578888132759
1.35,0.349999994,0.35126996,0.011479255190612343,-0.03323344646700024
1.352,0.349999994,0.35126218822680655,0.21973986599523015,-0.017830315305509183
1.354,0.349999994,0.350886583,-0.18329749363349168,0.10062289206223278
1.356,0.349999994,0.350886583,-0.08197614123620917,0.0008829680439152806
1.358,0.349999994,0.350886583,-0.01451677194749795,0.020525172397281143
1.36,0.349999994,0.350886583,-0.08904110186985896,0.030175941506459643
1.362,0.349999994,0.350886583,-0.022284396950100746,0.019252117209671682
1.364,0.349999994,0.350886583,-0.0553435156141324,-0.15944949243132764
1.366,0.349999994,0.350886583,0.024075415043009463,-0.06393267711537079
1.368,0.349999994,0.3508944985294188,-0.04069721891478697,0.09226437386120062
1.37,0.349999994,0.3512616928656398,0.16074531236611375,-0.03568473939478673
1.372,0.349999994,0.350886583,0.0115399166003116,0.11203013179566154
1.374,0.349999994,0.350886583,0.016200825284895522,-0.06029500212513433
1.376,0.349999994,0.350886583,-0.04317653748052706,0.020706077462569965
1.378,0.349999994,0.350886583,0.10603763533532648,-0.05985709424324324
1.38,0.349999994,0.350886583,0.05979484809490909,0.01694770992351515
1.382,0.349999994,0.350886583,-0.07480354998739146,-0.006369835219578923
1.384,0.349999994,0.350886583,-0.03801331226338432,-0.021719923770315487
1.386,0.349999994,0.350886583,0.007562311309707242,0.020211289181818182
1.388,0.349999994,0.350886583,-0.18183680224154067,-0.09355231763774897
1.39,0.349999994,0.350886583,-0.14353934356356488,-0.1396964087706422
1.392,0.349999994,0.350886583,0.029754639,-0.018020398214235706
1.394,0.349999994,0.350886583,0.029754639,0.04112822264410736
1.396,0.349999994,0.350886583,-0.03206964028284024,-0.03910547775266272
1.398,0.349999994,0.350886583,0.004861485081938012,0.009295717440684005
1.4,0.349999994,0.350886583,0.08484197342669558,0.005950761831707023
1.402,0.349999994,0.350886583,0.10039974736147445,-0.005194926556242568
1.404,0.349999994,0.350886583,0.047322698632479655,-0.07228822463583054
1.406,0.349999994,0.350886583,0.08819673147638407,-0.026359896831998086
1.408,0.349999994,0.350886583,-0.10075644272428173,0.050063139633804446
1.41,0.349999994,0.350886583,0.056433478822984245,0.007354934031742352
1.412,0.349999994,0.350886583,0.03542684378092382,-0.001909459197960408
1.414,0.349999994,0.350886583,0.005404283678310803,-0.01938983719416198
1.416,0.349999994,0.350886583,-0.05843871894921128,-0.0268893270125478
1.418,0.349999994,0.350886583,0.06673817489271304,-0.025758414953477332
1.42,0.349999994,0.350886583,-0.1894518233598476,-0.024869943346153847
1.422,0.349999994,0.350886583,0.029721748193878766,-0.07549734811111111
1.424,0.349999994,0.350886583,0.028417787596252533,0.059927673297171496
1.426,0.349999994,0.350886583,0.03644088842697414,-0.09161492067854647
1.428,0.349999994,0.350886583,-0.006789148067784766,0.014641527891684145
1.43,0.349999994,0.350886583,0.06134580102265372,0.051817003878940435
1.432,0.349999994,0.350886583,-0.11253215903302731,-0.07242668818695601
1.434,0.349999994,0.350886583,0.054432966472106575,0.1676880582075651
1.436,0.349999994,0.350886583,0.06606260583339309,0.04105088043169595
1.438,0.349999994,0.350886583,0.11802646166631078,-0.05690566067224199
1.44,0.349999994,0.350886583,0.1067776395095511,0.056881529769579754
1.442,0.349999994,0.350886583,-0.004689972837765023,-0.03437271684198196
1.444,0.349999994,0.350886583,0.025489569071936377,-0.023400057676467044
1.446,0.349999994,0.350886583,0.10031377489591078,0.029150526431226766
1.448,0.349999994,0.350886583,0.02396571845906328,-0.03999823372458587
1.45,0.349999994,0.350886583,0.03710333841804942,0.015144988796227766
1.452,0.349999994,0.350886583,-0.0469885625995255,-0.07141386995587189
1.454,0.349999994,0.350886583,0.07007720856126483,0.1005699056636723
1.456,0.349999994,0.350886583,0.020719790747973296,-0.02443475655829757
1.458,0.349999994,0.350886583,0.09342807098538046,-0.01197057053965696
1.46,0.349999994,0.350886583,0.003542438103372847,-0.03212852828652009
1.462,0.349999994,0.350886583,0.01295578448913306,0.03561509659961362
1.464,0.349999994,0.350886583,0.08366866170704898,-0.0881616735744325
1.466,0.349999994,0.350886583,0.10860129068676277,0.03364548223460026
1.468,0.349999994,0.350886583,0.08342512133277652,-0.05642018864849064
1.47,0.349999994,0.350886583,-0.04460740013376252,0.050455380294706725
1.472,0.349999994,0.350886583,-0.026838078545551983,-0.02326263713433369
1.474,0.349999994,0.35087843869805463,-0.035691424376178546,0.08827827341329514
1.476,0.349999994,0.3505115936266729,-0.16534175819131852,0.027856855529617128
1.478,0.349999994,0.3508858245443966,-0.019369329025253124,-0.07724061145746537
1.48,0.349999994,0.350886583,0.05088816168409716,-0.11124633290415221
1.482,0.349999994,0.350886583,-0.041349937229633156,-0.09522252048201524
1.484,0.349999994,0.350886583,-0.013550642657398568,-0.00791553114522673
1.486,0.349999994,0.350886583,0.026029474857993805,-0.04302690563831308
1.488,0.349999994,0.350886583,-0.1340184483802649,-0.026415492832120274
1.49,0.349999994,0.350886583,-0.016033002723870815,-0.004342748624121082
1.492,0.349999994,0.350886583,0.11396520446504843,-0.02548042188201657
1.494,0.349999994,0.350886583,0.05870354596066529,-0.010504234403059367
1.496,0.349999994,0.350886583,0.009291121896032505,-0.08657431353381931
1.498,0.349999994,0.350886583,0.0534135894706514,0.06611536074946314
1.5,0.349999994,0.350886583,-0.04939070719033989,0.04923231097710197
1.502,0.349999994,0.350886583,0.026081334334921394,0.016178794666031445
1.504,0.349999994,0.350886583,-0.001989104708830549,0.024578172864916467
1.506,0.349999994,0.350886583,-0.059751214111811585,-0.07895239072808373
1.508,0.349999994,0.350886583,-0.16576062718419823,-0.003569400783543712
1.51,0.349999994,0.350886583,-0.026701953301191635,-0.09712547281930933
1.512,0.349999994,0.35087880751801476,-0.02480563562085421,0.07011786030231448
1.514,0.349999994,0.3505112578319809,-0.005167958767064439,-0.07226040985346062
1.516,0.349999994,0.350886583,0.07420702537942545,-0.0849343744360472
1.518,0.349999994,0.350886583,0.07983837179108402,-0.0261433774313374
1.52,0.349999994,0.350886583,-0.06476129123691722,0.004175181535918173
1.522,0.349999994,0.350886583,0.059288522128863534,-0.15501987911673798
1.524,0.349999994,0.350886583,0.01501055825636733,-0.03793081362094942
1.526,0.349999994,0.350886583,-0.0332269097952977,0.01692600072862323
1.528,0.349999994,0.350886583,0.08286578956167534,0.06059616258528023
1.53,0.349999994,0.350886583,-5.508511252527671e-05,-0.043552421368026645
1.532,0.349999994,0.350886583,0.035338670923252186,0.1205340113957309
1.534,0.349999994,0.350886583,-0.08525966612076775,0.00399217089401526
1.536,0.349999994,0.350886583,-0.0422904244911172,0.009230310497198045
1.538,0.349999994,0.350886583,0.009711424833095578,-0.04116268393747028
1.54,0.349999994,0.350886583,0.0034866264817204297,0.054783712376344086
1.542,0.349999994,0.350886583,0.13453170281494037,0.018138743647767127
1.544,0.349999994,0.350886583,-0.026495575319509,-0.08063010392885234
1.546,0.349999994,0.3508857936807557,0.06446658248988736,-0.027764062746154776
1.548,0.349999994,0.35051004627936777,-0.11733252331972219,0.09042434728511556
1.55,0.349999994,0.350886583,0.10011816589704481,-0.09962971039013346
1.552,0.349999994,0.350886583,0.04246655927896996,0.035054480868741064
1.554,0.349999994,0.350886583,0.12956981558804656,-0.04227321311192966
1.556,0.349999994,0.350886583,-0.049859506753768844,0.007440023329504665
1.558,0.349999994,0.350886583,-0.14300810302385494,-0.035538098671040075
1.56,0.349999994,0.350886583,-0.0868880569168801,-0.07596412762805588
1.562,0.349999994,0.350886583,0.0844819995192084,-0.0587973184749709
1.564,0.349999994,0.350886583,-0.07914396637063273,-0.05132398623352143
1.566,0.349999994,0.350886583,-0.20660756936598737,0.0055190228689071625
1.568,0.349999994,0.350886583,0.06542878523236416,0.07779739414561487
1.57,0.349999994,0.350886583,0.025534014380516237,0.04470868401248959
1.572,0.349999994,0.350886583,0.10951947544896007,0.05233634035333493
1.574,0.349999994,0.350886583,0.05240483094406597,-0.0491818400613123
1.576,0.349999994,0.350886583,-0.02514025511659141,-0.013785825517888154
1.578,0.349999994,0.350886583,-0.023658189708347807,-0.01591999993886766
1.58,0.349999994,0.350886583,0.11173644979132727,0.05087822796693819
1.582,0.349999994,0.350886583,-0.028857855308884912,0.033586914535480024
1.584,0.349999994,0.350886583,0.018641942692840096,-0.0803758717665871
1.586,0.349999994,0.350886583,-0.004263325946038493,-0.11638029187778959
1.588,0.349999994,0.350886583,-0.026655495734954262,-0.030348871557534907
1.59,0.349999994,0.350886583,-0.020857103849326496,-0.04250467464226964
1.592,0.349999994,0.350886583,0.04110424254488152,0.0007325712684720436
1.594,0.349999994,0.350886583,-0.002226835292401072,-0.045527090115793166
1.596,0.349999994,0.35088357739090575,0.009960696518755276,-0.04132792636292366
1.598,0.349999994,0.35051066309439144,-0.17316823536097853,-0.0573576791624105
1.6,0.349999994,0.350886583,0.05821758247705329,-0.03933999887197521
1.602,0.349999994,0.350886583,0.030114211424098675,0.04787117890998577
1.604,0.349999994,0.350886583,-0.09921952126686638,-0.05470250076117436
1.606,0.349999994,0.350886583,-0.05310721206454675,-0.07318331077978169
1.608,0.349999994,0.350886583,-0.07275668071936758,0.025961171114624506
1.61,0.349999994,0.350886583,0.097994861161585,-0.031658390500059315
1.612,0.349999994,0.350886583,0.0035274297356886228,0.0575058626445509
1.614,0.349999994,0.350886583,-0.014093776264456896,0.0433070527488971
1.616,0.349999994,0.35087878039740533,0.004222590944060937,-0.11924938703927637
1.618,0.349999994,0.3505104059959587,-0.048530765889694516,-0.06755037827017711
1.62,0.349999994,0.350886583,0.007983922942303087,-0.00790413318925066
1.622,0.349999994,0.350886583,0.07464225939942769,0.07797666599069988
1.624,0.349999994,0.350886583,-0.042528529104949316,-0.05794551111091235
1.626,0.349999994,0.350886583,0.005195789777170036,-0.06876004391640902
1.628,0.349999994,0.350886583,0.07003729376265709,0.030311680208856974
1.63,0.349999994,0.350886583,0.017081630390775832,-0.024058958322130855
1.632,0.349999994,0.35087822090333726,-0.1335694230657926,-0.040041172078426696
1.634,0.349999994,0.3505115065726862,0.06853548799428978,0.10789120563787771
1.636,0.349999994,0.350886583,0.026553485413508666,-0.006516343384100419
1.638,0.349999994,0.350886583,-0.05257146125834128,-0.02831728659389895
1.64,0.349999994,0.350886583,0.1475451685433643,0.053341148870741005
1.642,0.349999994,0.35087842604255315,0.02089147370212766,0.006720360021276596
1.644,0.349999994,0.35051031661804477,-0.1718278054775637,-0.011798832285987795
1.646,0.349999994,0.350886583,0.06372704289781805,0.03204419935662335
1.648,0.349999994,0.350886583,0.1494951114588151,0.015511624265109072
1.65,0.349999994,0.350886583,0.17557055849875225,-0.0043910714621509216
1.652,0.349999994,0.350886583,-0.05161426262722601,-0.07690462468674555
1.654,0.349999994,0.350886583,0.07588660198593396,-0.10360131034819407
1.656,0.349999994,0.350886583,-0.04590787734510319,-0.0430635100261243
1.658,0.349999994,0.350886583,-0.0820231014002137,0.018063835799596344
1.66,0.349999994,0.350886583,0.0986868936617999,-0.12696709531833414
1.662,0.349999994,0.350886583,-0.04932034648885179,-0.013757274580660546
1.664,0.349999994,0.3508779995921162,-0.03830642926390377,-0.013946042603667977
1.666,0.349999994,0.3505113687789937,-0.07741317154859045,0.022497012361484478
1.668,0.349999994,0.350886583,-0.022858555724339827,-0.07857298748201696
1.67,0.349999994,0.350886583,0.018338304603960395,-0.02312246551425504
1.672,0.349999994,0.350886583,0.052308626972354624,-0.0014259181749285033
1.674,0.349999994,0.350886583,-0.02865972660313688,-0.03983731902388308
1.676,0.349999994,0.350886583,0.018828723038152372,-0.026123405966526694
1.678,0.349999994,0.350886583,-0.07423245883521445,0.06929446663205417
1.68,0.349999994,0.350886583,-0.08319340873658419,-0.07798185507768615
1.682,0.349999994,0.350886583,-0.08472283783738584,-0.052000802463408845
1.684,0.349999994,0.350886583,-0.08434291526761574,-0.0451885853679866
1.686,0.349999994,0.350886583,0.01237718994969603,-0.07878378563452139
1.688,0.349999994,0.350886583,0.05147524663836628,0.006907859395213146
1.69,0.349999994,0.350886583,0.0029839828672850515,0.04381263787620407
1.692,0.349999994,0.350886583,0.1008110932070536,0.011512293602125422
1.694,0.349999994,0.350886583,-0.09501727994406167,-0.047684679509634474
1.696,0.349999994,0.350886583,0.026845408238174866,-0.000397748777711419
1.698,0.349999994,0.350886583,-0.0411413537218724,0.004802227258286801
1.7,0.349999994,0.350886583,-0.0035632146265709157,-0.1013016375583483
1.702,0.349999994,0.350886583,0.011676199987254318,-0.08170863960095295
1.704,0.349999994,0.350886583,0.08579427358312477,0.021517609524490524
1.706,0.349999994,0.350886583,-0.06979711416038072,0.024398602115050565
1.708,0.349999994,0.350886583,0.05161892621959184,-0.039321637383673474
1.71,0.349999994,0.350886583,-0.08123859323906706,0.05848538099125365
1.712,0.349999994,0.350886583,-0.03585271230171184,-0.0766398254325963
1.714,0.349999994,0.350886583,0.024026161109000237,-0.04269940384231774
1.716,0.349999994,0.350886583,-0.09965380700670178,-0.011714323837003352
1.718,0.349999994,0.350886583,-0.08270962176824034,-0.08379039830507869
1.72,0.349999994,0.350886583,-0.05933483945274463,-0.071237029450358
1.722,0.349999994,0.350886583,0.051978522204558945,-0.03739336271898373
1.724,0.349999994,0.350886583,-0.04368111438391575,-0.014491803026807085
1.726,0.349999994,0.350886583,0.027997457962659487,0.0012757799490811191
1.728,0.349999994,0.350886583,0.017830897225700765,-0.11422321785693483
1.73,0.349999994,0.350886583,0.093304679834342,0.04492028909671295
1.732,0.349999994,0.350886583,-0.0026468168867608334,0.012812341457984199
1.734,0.349999994,0.350886583,-0.021464479164239676,-0.04163225592217713
1.736,0.349999994,0.350886583,0.07998588068891538,-0.06262992714362337
1.738,0.349999994,0.350886583,0.004418468726217272,-0.0870554900565099
1.74,0.349999994,0.350886583,-0.10288219757302292,-0.07237878153306132
1.742,0.349999994,0.350886583,0.09035787947928371,0.036981647095973784
1.744,0.349999994,0.3508851436531428,-0.13320312371054863,-0.05345280355007872
1.746,0.349999994,0.35051067378812145,-0.048283272009918735,-0.0960592123209847
1.748,0.349999994,0.350886583,0.016387714493116545,0.016934408704723476
1.75,0.349999994,0.350886583,-0.03495103269245509,-0.03787993815544911
1.752,0.349999994,0.350886583,0.017736434507384467,-0.09852129784683182
1.754,0.349999994,0.350886583,0.09483990435292715,-0.10514591914391319
1.756,0.349999994,0.350886583,0.13793421138169934,-0.014480737540106951
1.758,0.349999994,0.350879788864055,-0.010675370580506004,-0.04774044377381369
1.76,0.349999994,0.3505048151374607,-0.052463495204617,0.015658111630640084
1.762,0.349999994,0.350886583,0.029348261859345123,-0.07529914845351339
1.764,0.349999994,0.350886583,0.15667168969565218,-0.07403829795652174
1.766,0.349999994,0.35087952248122456,-0.10582377142238698,0.07831549225472374
1.768,0.349999994,0.35051143689933206,-0.09246564120133587,0.009594167191316795
1.77,0.349999994,0.35087813152895614,-0.0297210012956387,0.11718479464275501
1.772,0.349999994,0.35051148883641975,-0.030536498783950615,-0.06938340969444445
1.774,0.349999994,0.350886583,-0.13293681301340995,-0.051935393633381226
1.776,0.349999994,0.350886583,-0.012350132749563394,-0.0401266566077541
1.778,0.349999994,0.350886583,0.08601282907509605,-0.14207017920037257
1.78,0.349999994,0.350510990073498,-0.12272864444965567,-0.06616621145772976
1.782,0.349999994,0.35088024163286585,0.02763453972348076,0.05507287062423589
1.784,0.349999994,0.3505115690934557,-0.09728746669626893,0.09325446487638575
1.786,0.349999994,0.350886583,-0.04647279851911397,-0.03481967309038943
1.788,0.349999994,0.350886583,-0.04062856817083036,0.003388562418272662
1.79,0.349999994,0.350886583,0.09326884683863255,-0.0699281233657662
1.792,0.349999994,0.350886583,0.06351470985416667,-0.07692718495833334
1.794,0.349999994,0.350886583,0.07240295405833333,-0.0011993404166666666
1.796,0.349999994,0.350886583,0.046479091737549036,-0.010286444405919411
1.798,0.349999994,0.350886583,-0.03275483246051528,-0.05736265405116837
1.8,0.349999994,0.350886583,-0.02837983541227756,-0.03764946301839245
1.802,0.349999994,0.350886583,0.032588517061399334,0.020221171286530226
1.804,0.349999994,0.350886583,0.020216135599121037,-0.07065211196591044
1.806,0.349999994,0.350886583,-0.12969542052105262,0.08312602818157895
1.808,0.349999994,0.350886583,0.07077602430218433,-0.08219527673718023
1.81,0.349999994,0.350886583,-0.07685664815674363,-0.04781455542162819
1.812,0.349999994,0.350886583,0.08574638065482415,-0.06569069695187738
1.814,0.349999994,0.350886583,-0.01041343846754491,0.024574902842155688
1.816,0.349999994,0.350886583,0.04615128450333969,-0.04720085052099236
1.818,0.349999994,0.350886583,-0.10574759146841478,-0.019549509592371873
1.82,0.349999994,0.350886583,0.10869793444314799,0.013682550188355758
1.822,0.349999994,0.350886583,0.020896271226811508,-0.03713141523170586
1.824,0.349999994,0.350886583,-0.037050982326690386,-0.003378997804033215
1.826,0.349999994,0.350886583,-0.021551649180069302,-0.12998524367773928
1.828,0.349999994,0.350886583,0.013452266031702683,-0.11646577452576586
1.83,0.349999994,0.350886583,0.11480392244890643,-0.03305096406991753
1.832,0.349999994,0.35087967242019813,0.08777865676507103,-0.0027362214297481195
1.834,0.349999994,0.35051067825289967,0.008383211105703694,0.0573570275726414
1.836,0.349999994,0.350886583,0.08407310073613586,0.038476218481653016
1.838,0.349999994,0.350886583,0.056764994538387945,-0.07806454904329108
1.84,0.349999994,0.350886583,0.031018137268781304,0.06212227519365609
1.842,0.349999994,0.350886583,-0.05026405864954106,0.013595924868518298
1.844,0.349999994,0.350886583,-0.0771918946597387,-0.040160769922802854
1.846,0.349999994,0.350886583,0.052503126298468164,0.006223525654380086
1.848,0.349999994,0.350886583,0.04365757714582587,0.015198016533858832
1.85,0.349999994,0.350886583,-0.014051013904688242,-0.017344123397072822
1.852,0.349999994,0.3508781110834026,0.061992167619341815,-0.030770789932755137
1.854,0.349999994,0.3505104326244333,-0.13230872959007398,-0.056433577284180386
1.856,0.349999994,0.350886583,-0.14737475476061038,-0.1050084973676681
1.858,0.349999994,0.350886583,-0.07624685275321735,-0.05429592056637274
1.86,0.349999994,0.3508792340659602,-0.03448342777211573,-0.04988249482116919
1.862,0.349999994,0.3505101347764213,0.032107582456493124,-0.04362098250760024
1.864,0.349999994,0.350886583,-0.168603347272944,0.003239592032181168
1.866,0.349999994,0.350886583,-0.030675333067731937,-0.022421882114238015
1.868,0.349999994,0.350886583,0.06333195448894699,0.03082530716353696
1.87,0.349999994,0.350886583,-0.004018560113443875,0.006276864888106883
1.872,0.349999994,0.350886583,-0.014767983587203055,-0.14884514032183357
1.874,0.349999994,0.350886583,-0.0258303259973747,-0.03699455913890215
1.876,0.349999994,0.350886583,0.0840796959413441,0.053976631005699355
1.878,0.349999994,0.350886583,0.056102759554398564,-0.013378664832675044
1.88,0.349999994,0.350886583,-0.005242753830076263,-0.05367538658806006
1.882,0.349999994,0.3508782179122451,-0.06823454988005247,-0.0695194064410397
1.884,0.349999994,0.3505116323686587,-0.0806450655779969,-0.009966206468813117
1.886,0.349999994,0.350886583,0.030255355181959563,-0.039481582737169514
1.888,0.349999994,0.350886583,-0.0226365371727836,-0.12115830569566254
1.89,0.349999994,0.35087821890951354,0.020061269031473532,-0.06252816008118742
1.892,0.349999994,0.3505115641118656,-0.06918590177698355,-0.08112645474374554
1.894,0.349999994,0.35087843869805463,0.07663785567800453,0.0005259771175557943
1.896,0.349999994,0.35051175087473185,-0.01279992369785459,-0.0003289347169249106
1.898,0.349999994,0.350886583,-0.007133010968064823,0.007195573713060057
1.9,0.349999994,0.350886583,-0.0859466616043499,-0.08535805087164251
1.902,0.349999994,0.350886583,-0.07113885529779852,0.0047326127179947355
1.904,0.349999994,0.350886583,0.07608828370458606,0.04850310118189398
1.906,0.349999994,0.3508783063734494,-0.03188402550512882,-0.06220654541090172
1.908,0.349999994,0.350503206,0.007119197016872624,0.03111679004610266
1.91,0.349999994,0.35051039431875003,-0.1129245754875,0.022130585050000002
1.912,0.349999994,0.3508834826669885,0.08575559146131563,0.0021365985998793
1.914,0.349999994,0.35051103095428504,0.029879215398305084,0.06063763374456911
1.916,0.349999994,0.350886583,0.03464509477172365,-0.010553082763532763
1.918,0.349999994,0.350886583,-0.017771891468630268,-0.11611708397677202
1.92,0.349999994,0.350886583,0.13868319536171736,-0.12526103959212878
1.922,0.349999994,0.350886583,0.02711018305696883,-0.004674601886778932
1.924,0.349999994,0.350886583,-0.021467419048612758,-0.08743353413161015
1.926,0.349999994,0.350886583,0.00805905220962733,-0.0016273463505733397
1.928,0.349999994,0.350886583,0.14645143279131786,-0.0022767525297775655
1.93,0.349999994,0.350886583,-0.03593076304116108,-0.08294756136807042
1.932,0.349999994,0.350886583,-0.03689847676300166,-0.036953170781287105
1.934,0.349999994,0.350886583,0.053216054221836465,0.005905298876930445
1.936,0.349999994,0.350886583,0.0010658588205556218,-0.00201145275819721
1.938,0.349999994,0.350886583,0.015916778120634162,-0.016544121110621052
1.94,0.349999994,0.350886583,0.07763885409858653,0.053914762201330325
1.942,0.349999994,0.350886583,0.034700446212870106,0.08072996868970869
1.944,0.349999994,0.350886583,-0.02370143890394265,0.020761797648745518
1.946,0.349999994,0.350886583,0.1198400629038026,-0.01072748394135177
1.948,0.349999994,0.350886583,-0.01012982867679886,0.021904692581334602
1.95,0.349999994,0.350886583,0.05097023130509692,-0.10059036291098349
1.952,0.349999994,0.350886583,0.198405465980689,0.015074999540350457
1.954,0.349999994,0.350886583,-0.17005377124916587,0.07230959800142993
1.956,0.349999994,0.350886583,0.1067903786750327,-0.056300063513262756
1.958,0.349999994,0.3508792033136059,0.06836864250741272,0.10301403315052605
1.96,0.349999994,0.3505116960728658,-0.06227644341814502,-0.10419333356209072
1.962,0.349999994,0.350886583,-0.015544095777963271,-0.024789851118530885
1.964,0.349999994,0.350886583,0.007932084855189632,-0.08020888153073356
1.966,0.349999994,0.3508794273632448,0.05420156290236899,-0.10505429766403446
1.968,0.349999994,0.350503206,-0.10462416358937082,-0.0536031220815062
1.97,0.349999994,0.3505115730830054,-0.10646949746547406,-0.020664713037209303
1.972,0.349999994,0.3508780929271342,0.009991064318371235,-0.0832706510221455
1.974,0.349999994,0.35051125591076115,-0.04945882144094488,-0.0014720522309711287
1.976,0.349999994,0.350886583,0.16914195903499998,-0.04250806544142857
1.978,0.349999994,0.350886583,0.1230819178929083,0.04536857761031518
1.98,0.349999994,0.350886583,0.06009590296623871,-0.017766976600570614
1.982,0.349999994,0.350886583,-0.015610571665271964,-0.0005272515966527195
1.984,0.349999994,0.350886583,0.004369313946797089,0.0533965297943457
1.986,0.349999994,0.350886583,-0.038391709572688275,-0.08791759294113441
1.988,0.349999994,0.350886583,-0.01207604383578897,-0.06568430007770912
1.99,0.349999994,0.350886583,0.1593473236702942,-0.07919129784740492
1.992,0.349999994,0.350886583,-0.00178745789,-0.05399701795571428
1.994,0.349999994,0.350886583,0.08868905797277937,0.00948161085530086
1.996,0.3133329320320703,0.350886583,0.1297221955858178,-0.08429100111616582
1.998,-0.699999988,0.3508794299307499,-0.03943393934804449,0.04861440344277001
2.0,-0.699999988,0.35040226177118344,-0.22056277845775235,-0.5338056530505302
2.002,-0.699999988,0.3455584978466675,-3.5950374166209613,-23.019246616276973
2.004,-0.699999988,0.3297369807196006,-8.347703020653274,-10.73994030192381
2.006,-0.699999988,0.3098006569595694,-10.163925479463396,-6.864251302766507
2.008,-0.699999988,0.28744447357818836,-11.237693172797735,-5.502367084141836
2.01,-0.699999988,0.2636379633996667,-11.996672559009522,-4.416572187099738
2.012,-0.699999988,0.23871815707128408,-12.648622157999524,-3.6804061350016664
2.014,-0.699999988,0.21266313453287117,-13.145582090912026,-2.118046955585943
2.016,-0.699999988,0.185736945861744,-13.42284260831385,-1.2056180670651317
2.018,-0.699999988,0.15886022653653592,-13.572541904466206,-0.3050400400449398
2.02,-0.699999988,0.13163343676676176,-13.586229082019258,-0.3926565493573466
2.022,-0.699999988,0.10485145140683638,-13.398433312465519,0.33809010675080675
2.024,-0.699999988,0.0779498815249106,-13.326699406035518,0.19907402194612633
2.026,-0.699999988,0.051867902465539815,-12.993514786010714,0.8250686183509106
2.028,-0.699999988,0.025843592944999997,-12.833901463903214,1.008811059555
2.03,-0.699999988,0.0009559642481463765,-12.399431853134777,1.5758027574795503
2.032,-0.699999988,-0.0232704609055794,-11.95537758699857,1.5700439189799715
2.034,-0.699999988,-0.046645300978180516,-11.573933146701561,1.7861334000197926
2.036,-0.699999988,-0.06888948802732564,-11.19283453839943,1.5632299064449329
2.038,-0.699999988,-0.09066313163016973,-10.766102897277074,1.8601473732629692
2.04,-0.699999988,-0.11141561526821706,-10.370247194696125,1.3902916134217056
2.042,-0.699999988,-0.13135451574327223,-9.923060503133126,1.486633077393427
2.044,-0.699999988,-0.1505034715204567,-9.48370513779448,1.4627290503453854
2.046,-0.699999988,-0.16923109346824544,-9.167403545451261,1.1518579202250927
2.048,-0.699999988,-0.186551159786549,-8.868926196590866,1.3132158646736227
2.05,-0.699999988,-0.2038003088348624,-8.506019587163827,1.0070474960170381
2.052,-0.699999988,-0.2202696452720466,-8.159295650134181,0.8264969057917756
2.054,-0.699999988,-0.23594473945202202,-7.859607767749581,1.1084805584877961
2.056,-0.699999988,-0.25133626470114395,-7.639051989654909,0.8966172858503336
2.058,-0.699999988,-0.26627433997247046,-7.413231607575379,0.5478267395545227
2.06,-0.699999988,-0.28045343175415677,-6.988612268343468,0.8007804531600949
2.062,-0.699999988,-0.29420682757318967,-6.881048356087612,0.9121712854375823
2.064,-0.699999988,-0.3076695064853397,-6.708575691549941,0.538588206540882
2.066,-0.699999988,-0.32032707065661503,-6.428642389483075,0.483310167416329
2.068,-0.699999988,-0.3329673372890263,-6.186290198894899,0.7997184940355486
2.07,-0.699999988,-0.34482026502057417,-6.021935896923564,0.8130573445142345
2.072,-0.699999988,-0.3563672289814109,-5.779692932403718,0.445239225707817
2.074,-0.699999988,-0.3678549601407275,-5.5884238936421,0.34258283182790694
2.076,-0.699999988,-0.3785907966027788,-5.304715861735186,0.5591243400782567
2.078,-0.699999988,-0.38891062955919636,-5.165647096018895,0.7673738093611576
2.08,-0.699999988,-0.39929074401144626,-5.06851759378872,0.5302249415494218
2.082,-0.699999988,-0.40924992312227126,-5.003802191000478,0.33554256619384465
2.084,-0.699999988,-0.4184624633227991,-4.711829734334086,0.23824974180812641
2.086,-0.699999988,-0.4276394981122266,-4.603996293198637,0.4496045032419027
2.088,-0.699999988,-0.4368532250572246,-4.499233866366953,0.655262139212804
2.09,-0.699999988,-0.445292332967088,-4.226734780068925,0.49931939048986407
2.092,-0.699999988,-0.45372500122351406,-4.05538726865595,0.29709345086344763
2.094,-0.699999988,-0.4617370765700599,-4.064548266156886,0.09921134656934132
2.096,-0.699999988,-0.4694351267572723,-3.821459403220315,0.15409828356080116
2.098,-0.699999988,-0.47673334474246215,-3.67812104057371,0.3911996651663687
2.1,-0.699999988,-0.4843868005660288,-3.6715384345451088,0.5649690078707952
2.102,-0.699999988,-0.491272622397175,-3.5078596009123775,0.5477486080023941
2.104,-0.699999988,-0.49818776214546107,-3.456072151058494,0.31829691877674526
2.106,-0.699999988,-0.5043297972834843,-3.3509882185262154,0.09246123571031936
2.108,-0.699999988,-0.5108394565168167,-3.1841840019914733,-0.019893788958313598
2.11,-0.699999988,-0.516936040171748,-2.994154676943967,0.001536527233902295
2.112,-0.699999988,-0.5229967588784571,-2.8664462168990785,0.138178346792819
2.114,-0.699999988,-0.5288420615960344,-2.8816072162286193,0.25296422735845675
2.116,-0.699999988,-0.5342222747980598,-2.8760396036107894,0.45574769647770025
2.118,-0.699999988,-0.5395527939119904,-2.757133658533693,0.4683746338815348
2.12,-0.699999988,-0.5449466235073968,-2.5851593623085183,0.22829426012777382
2.122,-0.699999988,-0.5499303257959038,-2.4843396187201714,0.29202277020028583
2.124,-0.699999988,-0.5545351509069961,-2.3825491844134694,-0.004125125593894762
2.126,-0.699999988,-0.5594976463878631,-2.298314020629778,-0.020689900968716923
2.128,-0.699999988,-0.5640386915148874,-2.2693950480864196,-0.18030072585378842
2.13,-0.699999988,-0.5686984043797104,-2.109366617239622,-0.003169001828209116
2.132,-0.699999988,-0.5725477226525766,-2.0130769738993113,0.03474468703918309
2.134,-0.699999988,-0.5763755667641419,-1.9944725000541708,0.04468205652864334
2.136,-0.699999988,-0.5806001709174312,-1.8701613735203146,0.24471887363302752
2.138,-0.699999988,-0.5840592465091212,-1.8778575692094908,0.258212587965065
2.14,-0.699999988,-0.5878955886359638,-1.8862925951189684,0.33295575660351795
2.142,-0.699999988,-0.5917122595109104,-1.7954683004048568,0.30960135095424685
2.144,-0.699999988,-0.5951113088300242,-1.7283417096958837,0.21129590964116224
2.146,-0.699999988,-0.5989916282542455,-1.8141447186742405,0.1432557684137766
2.148,-0.699999988,-0.6020780015865134,-1.6816284412755391,0.07386450277399859
2.15,-0.699999988,-0.6054989579835672,-1.6478615630874414,-0.09320917701331415
2.152,-0.699999988,-0.6082097669326659,-1.497233328652127,-0.1868382321403885
2.154,-0.699999988,-0.6112697333566326,-1.5431512398390093,-0.21586370819849965
2.156,-0.699999988,-0.6139443317632424,-1.3877700808762052,-0.2666054862571122
2.158,-0.699999988,-0.6162487654367074,-1.3094021733515735,-0.32768730601056834
2.16,-0.699999988,-0.6188931589156276,-1.19736476189747,-0.25550775875608284
2.162,-0.699999988,-0.6212292163614198,-1.2781144483252063,-0.270243057610135
2.164,-0.699999988,-0.6235370745017803,-1.2820734599514596,-0.011043828649299786
2.166,-0.699999988,-0.6258347853670901,-1.052387891112416,-0.03554829121788111
2.168,-0.699999988,-0.6285259854790747,-1.160443796050316,0.16498258435662333
2.17,-0.699999988,-0.6308277224449077,-1.2956499410128648,0.15012331875151877
2.172,-0.699999988,-0.6331278519900143,-1.3304430041512125,0.20428421607406086
2.174,-0.699999988,-0.6354157992394738,-1.0817925851545453,0.17731027181770337
2.176,-0.699999988,-0.6373474999869586,-1.115827712712855,0.22892701325745227
2.178,-0.699999988,-0.6395951245570564,-1.0308781176937587,0.2718489142173964
2.18,-0.699999988,-0.6415519017849488,-1.0164373935333413,0.14442994301595619
2.182,-0.699999988,-0.643475077676058,-0.9841962687886345,0.2600219876486033
2.184,-0.699999988,-0.6457710440362335,-0.9370968751189511,0.14312790999261024
2.186,-0.699999988,-0.6473148299663846,-0.8489837973081416,0.1292375351795208
2.188,-0.699999988,-0.6492228733013308,-0.9700847107446531,-0.008776791557747148
2.19,-0.699999988,-0.65075351541569,-0.7852221232052141,-0.0334397183802918
2.192,-0.699999988,-0.6522908541183645,-0.7901341047966083,-0.08947089357718667
2.194,-0.699999988,-0.653787033096643,-0.6741570275640609,-0.23507044871169702
2.196,-0.699999988,-0.6553488070171306,-0.7945483536188437,-0.24637398701498928
2.198,-0.699999988,-0.656498472862069,-0.6552185844655173,-0.2887358830172414
2.2,-0.699999988,-0.6576618696641231,-0.6485262624263742,-0.3097115262739955
2.202,-0.699999988,-0.6591789651252087,-0.7463763047429048,-0.380515160557596
2.204,-0.699999988,-0.6599562411608607,-0.44773680111449293,-0.42110281810795386
2.206,-0.699999988,-0.6610959599945219,-0.5086665501607717,-0.364925106532333
2.208,-0.699999988,-0.6618690263980884,-0.420752239278853,-0.5111452980341696
2.21,-0.699999988,-0.663015605171076,-0.4424472520194566,-0.43797064630857757
2.212,-0.699999988,-0.6637786834775977,-0.5466410195958056,-0.4458315680595806
2.214,-0.699999988,-0.6645511112365156,-0.42757128105739856,-0.4652441454293556
2.216,-0.699999988,-0.6656980749727207,-0.49597578155204597,-0.3928776979978464
2.218,-0.699999988,-0.6664752100417363,-0.45490422829382304,-0.39925061030884806
2.22,-0.699999988,-0.6676100804549662,-0.49766706332289073,-0.3935776792089712
2.222,-0.699999988,-0.6679977991410778,-0.3271236220550898,-0.37868209005125747
2.224,-0.699999988,-0.6687759205534757,-0.5051209413024919,-0.32198215148396325
2.226,-0.699999988,-0.669920222121482,-0.4706785770547441,-0.29877186116826976
2.228,-0.699999988,-0.6706840377906421,-0.4671795520854619,-0.27017713571974217
2.23,-0.699999988,-0.6714518428092451,-0.4373645845848065,-0.29448911143311035
2.232,-0.699999988,-0.6722220374028209,-0.44506462546593356,-0.14644613412670332
2.234,-0.699999988,-0.6729820573717887,-0.30951150933682203,-0.08209640883444339
2.236,-0.699999988,-0.6733723336237389,-0.33340010212178045,-0.09497522177673591
2.238,-0.699999988,-0.674142009368295,-0.40569952630363987,-0.19587451436733716
2.24,-0.699999988,-0.6752911933877697,-0.34928746906222435,-0.04501231867016331
2.242,-0.699999988,-0.6760498995273505,-0.4515556430700821,0.03574901835179831
2.244,-0.699999988,-0.6764217933952816,-0.4086305715604256,0.0378804705557997
2.246,-0.699999988,-0.6772024747314381,-0.3561768406964136,0.02911377
2.248,-0.699999988,-0.6779738783538957,-0.3468499635014915,0.03110635190669371
2.25,-0.699999988,-0.6787432238496484,-0.330812706162275,0.13370776816012875
2.252,-0.699999988,-0.679510097963306,-0.2833130000623441,0.14347590749198433
2.254,-0.699999988,-0.680267667906411,-0.5140854955393649,0.09784545916932295
2.256,-0.699999988,-0.6806613062277228,-0.2783016110608374,0.26378924900083506
2.258,-0.699999988,-0.6814282345747719,-0.33891408928691785,0.14638693150362744
2.26,-0.699999988,-0.6821828518154366,-0.31205674081543666,0.23212605833192415
2.262,-0.699999988,-0.6829533088506174,-0.3155555177855173,0.16597040506354155
2.264,-0.699999988,-0.6833473055187835,-0.34053276334418603,0.2663511263774597
2.266,-0.699999988,-0.6841057329236087,-0.2525656875980217,0.21326905241925873
2.268,-0.699999988,-0.6844975002122328,-0.3200821053945368,0.1491607031888361
2.27,-0.699999988,-0.6852562439248804,-0.3367616384464115,0.21067900926315788
2.272,-0.699999988,-0.6856494488616066,-0.2734546311950198,0.2269164725420807
2.274,-0.699999988,-0.686409271397998,-0.3205612985424214,0.27700538393708296
2.276,-0.699999988,-0.6868021889378311,-0.29768396065241964,0.2593048950813611
2.278,-0.699999988,-0.6875598330546573,-0.33075905601870176,0.15592470533602798
2.28,-0.699999988,-0.6883277562215462,-0.25119111682748746,0.19200267819255548
2.282,-0.699999988,-0.6887114055974828,-0.31706213812586087,0.2872675964414628
2.284,-0.699999988,-0.6890932308675528,-0.3303768804514598,0.28498507179824356
2.286,-0.699999988,-0.6894818255765777,-0.195779779023111,0.2306975640371213
2.288,-0.699999988,-0.6902434458933127,-0.1798728157239242,0.19984648512897843
2.29,-0.699999988,-0.6906267509301248,-0.20631379493404634,0.21748121557611408
2.292,-0.699999988,-0.6910088329262839,-0.25343716170385466,0.14147833858483755
2.294,-0.699999988,-0.6913851881367182,-0.22064578050343542,0.09962088619494584
2.296,-0.699999988,-0.6913934941960057,-0.20173916659100694,0.11235576658526669
2.298,-0.699999988,-0.6917780951229556,-0.1773885577839322,0.0354764499878238
2.3,-0.699999988,-0.692161919559521,-0.23024427772812425,0.0779251627885938
2.302,-0.699999988,-0.692537069,-0.11753557834434075,0.10003414232352237
2.304,-0.699999988,-0.692544659718273,-0.07469999886187978,0.1365878274129294
2.306,-0.699999988,-0.6929282597624553,-0.11161948395780692,0.12568667642109654
2.308,-0.699999988,-0.6933115661697755,-0.23233052585553046,0.06681148082285851
2.31,-0.699999988,-0.693687201,-0.21044016786065084,0.030212402
2.312,-0.699999988,-0.6936936616378631,0.016793630697024026,0.031730555774471134
2.314,-0.699999988,-0.694070578,-0.19930891238282647,0.1190691953391771
2.316,-0.699999988,-0.6940781810841655,0.09611106787969569,0.056384469057299096
2.318,-0.699999988,-0.694455862,-0.1698536420259462,0.046504910347893356
2.32,-0.699999988,-0.694455862,-0.1515625739712506,0.03596022035996646
2.322,-0.699999988,-0.694463631920124,-0.037538658315927516,0.050025252716022886
2.324,-0.699999988,-0.6948469858310947,-0.04646258672578153,-0.05125214113776299
2.326,-0.699999988,-0.695222616,-0.11579694007871755,0.09971896631534873
2.328,-0.699999988,-0.695222616,-0.06364452248913822,0.05276676464550012
2.33,-0.699999988,-0.6952311161933484,-0.07854893237596854,-0.021450187210990585
2.332,-0.699999988,-0.695605993,-0.07752878387695962,0.027443899766508312
2.334,-0.699999988,-0.695605993,-0.09748514514348972,0.09848882959191001
2.336,-0.699999988,-0.6956145388933127,-0.044561794208844915,0.047640183834664444
2.338,-0.699999988,-0.69598937,0.10726470640231117,-0.007899842375625446
2.34,-0.699999988,-0.695997624965144,0.024041578269569357,-0.03876215952664763
2.342,-0.699999988,-0.696372747,-0.09734150944919402,0.06894855533838806
2.344,-0.699999988,-0.696372747,-0.11705862237044994,-0.07977098291168397
2.346,-0.699999988,-0.696372747,0.0070317935098343064,0.014681199812373346
2.348,-0.699999988,-0.696372747,-0.0518293099554526,-0.04014890870978855
2.35,-0.699999988,-0.696372747,-0.0168525501690983,-0.04190544460595551
2.352,-0.699999988,-0.6963811567958988,-0.06274921618168813,-0.022580126480686694
2.354,-0.699999988,-0.696756124,-0.16817478503458558,-0.07597575147883125
2.356,-0.699999988,-0.696756124,0.05352091880223437,-0.15474238711243166
2.358,-0.699999988,-0.6967635927001314,0.02333398392948488,-0.07553458426604517
2.36,-0.699999988,-0.697131092182165,-0.06909277169098713,-0.0873454996289938
2.362,-0.699999988,-0.6967645754930887,-0.054000512500238323,0.009056520682673977
2.364,-0.699999988,-0.697139502,-0.044689668815176026,-0.053231425725261655
2.366,-0.699999988,-0.697139502,0.04009194371213389,-0.10167391071416616
2.368,-0.699999988,-0.697139502,0.09574944675250358,-0.15924584721173105
2.37,-0.699999988,-0.697139502,-0.09177292410464699,-0.13082667088866323
2.372,-0.699999988,-0.697139502,-0.19922971392173605,-0.06294978425400213
2.374,-0.699999988,-0.697139502,-0.07911632007352061,-0.09916826584877465
2.376,-0.699999988,-0.697139502,-0.02802916324731951,-0.14064797143173696
2.378,-0.699999988,-0.697139502,-0.01985079994371572,-0.0685220141376103
2.38,-0.699999988,-0.697139502,-0.05070163627402474,-0.1104813272610609
2.382,-0.699999988,-0.697146881686394,0.17154325187864658,-0.01682055670074127
2.384,-0.699999988,-0.697522879,-0.06637846176923078,-0.1730159925355993
2.386,-0.699999988,-0.6975142427362336,0.0013129101450536354,-0.1218390332430274
2.388,-0.699999988,-0.697139502,0.025245205816452686,-0.0455441552467903
2.39,-0.699999988,-0.6971470650326399,0.02554971506994261,-0.044609693664992824
2.392,-0.699999988,-0.697522879,-0.1074028016125,-0.1054880623025
2.394,-0.699999988,-0.697522879,-0.09670471433500358,-0.13047176956311143
2.396,-0.699999988,-0.697522879,0.05224144713128425,-0.1423879312101501
2.398,-0.699999988,-0.697522879,0.03704310433827574,-0.09905668116214277
2.4,-0.699999988,-0.697522879,0.15834125586280343,-0.1311026186251785
2.402,-0.699999988,-0.697522879,0.049241091977481236,-0.07992301740450375
2.404,-0.699999988,-0.697522879,-0.09774779502568677,-0.09270273124687835
2.406,-0.699999988,-0.697522879,-0.0654195049249522,-0.1332948932251434
2.408,-0.699999988,-0.697522879,0.056592241630618816,-0.015986633336115417
2.41,-0.699999988,-0.697522879,-0.04013308619230769,-0.11350834059109312
2.412,-0.699999988,-0.697522879,-0.09156090120040437,-0.009118599986560418
2.414,-0.699999988,-0.697522879,0.013889155427681245,-0.050944637005032954
2.416,-0.699999988,-0.697522879,-0.019590825298715205,-0.0989749749793005
2.418,-0.699999988,-0.697522879,-0.10112217996494575,-0.038622063298199595
2.42,-0.699999988,-0.697522879,-0.018627130505289434,-0.16798814046915486
2.422,-0.699999988,-0.697522879,-0.062294429489900806,-0.1375432594012191
2.424,-0.699999988,-0.697522879,0.14449329290902588,-0.06477342358733755
2.426,-0.699999988,-0.697522879,0.08973456342467548,-0.08881788122341312
2.428,-0.699999988,-0.697522879,0.10797390791099476,-0.15447676508376965
2.43,-0.699999988,-0.697522879,-0.015375624625104601,-0.15854381106945606
2.432,-0.699999988,-0.697522879,0.017848961278354204,-0.09303777409946333
2.434,-0.699999988,-0.697522879,0.03069974997618197,-0.1484338366347505
2.436,-0.699999988,-0.697522879,0.005046719152639087,-0.035835728881597716
2.438,-0.699999988,-0.697522879,-0.00810760061674641,-0.14139515825167465
2.44,-0.699999988,-0.697522879,0.005890380088827947,-0.09655853794873018
2.442,-0.699999988,-0.697522879,-0.0367779536881006,-0.16391001558974969
2.444,-0.699999988,-0.697522879,-0.007950488519933158,-0.14838985883838626
2.446,-0.699999988,-0.697522879,0.10084737940040675,-0.11993386319224789
2.448,-0.699999988,-0.697522879,-0.013609573938483548,-0.04614894951430615
2.45,-0.699999988,-0.697522879,-0.10559695020884492,-0.16693307576159255
2.452,-0.699999988,-0.697522879,0.045231773569051587,-0.1394236810995959
2.454,-0.699999988,-0.697522879,-0.07825732841961722,-0.11037028223133971
2.456,-0.699999988,-0.697522879,0.016920160667461263,-0.10903644673420738
2.458,-0.699999988,-0.697522879,0.051115040025732666,-0.14272691681677388
2.46,-0.699999988,-0.697522879,-0.14724904955441892,-0.06795007148352564
2.462,-0.699999988,-0.697522879,-0.07529204606575014,-0.1333800615160789
2.464,-0.699999988,-0.697522879,0.08789642591204862,-0.07465913088857108
2.466,-0.699999988,-0.6975314235122213,0.023491118849171336,-0.14286588333659234
2.468,-0.699999988,-0.6978996031677558,-0.18668631578472142,-0.07305882077129618
2.47,-0.699999988,-0.697522879,-0.23839102609734514,-0.12116913542370247
2.472,-0.699999988,-0.697522879,0.017694011449940407,-0.10769089541537545
2.474,-0.699999988,-0.6975313356689729,-0.04385595874734582,-0.037900032155791484
2.476,-0.699999988,-0.6978994710075992,-0.05662329736570886,-0.13444562522251247
2.478,-0.699999988,-0.697522879,0.10084430868290056,-0.08216464644633241
2.48,-0.699999988,-0.697522879,0.06526919258741509,-0.15513124489262306
2.482,-0.699999988,-0.697522879,-0.05067354686650775,-0.09246913501454113
2.484,-0.699999988,-0.697522879,-0.09564829451533889,-0.07491277951105826
2.486,-0.699999988,-0.6975303875236729,0.02391685544141559,-0.012256901718675276
2.488,-0.699999988,-0.6978995725495409,-0.18816231880600928,-0.1054620891639442
2.49,-0.699999988,-0.697522879,0.02734302967274678,-0.1776558054109442
2.492,-0.699999988,-0.697522879,0.11913816035273159,-0.18387467369714963
2.494,-0.699999988,-0.6975301606832536,0.025263517149043062,-0.03630955201674641
2.496,-0.699999988,-0.697899571525161,0.028325560426424992,-0.12418035571440496
2.498,-0.699999988,-0.697522879,-0.030929328625864127,-0.10187102200738975
2.5,-0.699999988,-0.697522879,0.11669564219776563,-0.11175069924625625
2.502,-0.699999988,-0.697522879,0.11318151553222529,-0.07610637483498744
2.504,-0.699999988,-0.697522879,0.01219639086375015,-0.1717980639774705
2.506,-0.699999988,-0.6975315102430887,0.039920048932316494,-0.07040309309961869
2.508,-0.699999988,-0.6978997304728203,-0.17620136266634948,-0.09784673193422148
2.51,-0.699999988,-0.6975305293760765,0.09454097428708134,-0.07639860992296651
2.512,-0.699999988,-0.6978992178422432,-0.09115414459804738,-0.07896035820085726
2.514,-0.699999988,-0.6975313488035843,0.14443263578948626,-0.09562318854169655
2.516,-0.699999988,-0.6978988851053382,-0.11309206242550415,-0.0737469330034401
2.518,-0.699999988,-0.697522879,0.03262829782516145,-0.10253317972446784
2.52,-0.699999988,-0.697522879,-0.05269847393396901,-0.14790838304290824
2.522,-0.699999988,-0.697522879,0.009743821722083185,-0.10827066906971755
2.524,-0.699999988,-0.6975313085191439,-0.06434908992675387,-0.2034905152665874
2.526,-0.699999988,-0.6979006679180093,-0.043089643967537894,-0.043900273388232484
2.528,-0.699999988,-0.697522879,-0.09685540469700227,-0.1229469573335722
2.53,-0.699999988,-0.697522879,0.048496811109309805,-0.04007547730575754
2.532,-0.699999988,-0.697522879,0.0011036340736342042,-0.03755419241472684
2.534,-0.699999988,-0.6975300667904807,0.017416588877541255,0.022866390177230328
2.536,-0.699999988,-0.6978997512877595,0.08805806763063709,-0.13092584586578382
2.538,-0.699999988,-0.697522879,-0.033296117062187276,-0.06902430356302121
2.54,-0.699999988,-0.697522879,0.010743022310582639,-0.22434755565517242
2.542,-0.699999988,-0.697522879,-0.02062905561442044,-0.11178920837483586
2.544,-0.699999988,-0.697522879,-0.023076299266626864,-0.12584292264
2.546,-0.699999988,-0.697522879,-0.06270382429073787,-0.127526658403743
2.548,-0.699999988,-0.697522879,0.16031992919013668,-0.10642944966286393
2.55,-0.699999988,-0.697522879,-0.000614219743960775,-0.07525503335254724
2.552,-0.699999988,-0.697522879,0.08277202101811248,-0.021071965642993327
2.554,-0.699999988,-0.6975313356689729,-0.004681562768102112,-0.10437262526840034
2.556,-0.699999988,-0.6978994699754186,-0.1730286297893362,-0.22461577676522979
2.558,-0.699999988,-0.697522879,0.09830397330465951,-0.12480121142986858
2.56,-0.699999988,-0.697522879,0.09183548322827512,-0.01613761840314698
2.562,-0.699999988,-0.697522879,0.06683167501002386,-0.028217637867780428
2.564,-0.699999988,-0.697522879,-0.05443634800953289,-0.13822462055195425
2.566,-0.699999988,-0.697522879,-0.0630168699172529,-0.05642934160152617
2.568,-0.699999988,-0.697522879,0.08646556112956334,-0.10019390203435934
2.57,-0.699999988,-0.6975315561539561,-0.040696892203408004,-0.13503170445984272
2.572,-0.699999988,-0.6978996459065843,-0.11501742938673638,-0.15290445713406228
2.574,-0.699999988,-0.6975302519745246,0.02875435875612965,-0.08881837211589522
2.576,-0.699999988,-0.6978995389504703,0.054806558094058815,-0.10740381658102155
2.578,-0.699999988,-0.6975310628367541,0.016216196612649163,-0.07154039894988067
2.58,-0.699999988,-0.6978998446222867,0.020861241711433547,-0.05431991943668021
2.582,-0.699999988,-0.6975246678984329,-0.1737888285078352,-0.1506067162286709
2.584,-0.699999988,-0.6979001161328321,-0.08474619248203842,-0.047813472551378446
2.586,-0.699999988,-0.697522879,-0.013032758541626792,-0.050364166551196174
2.588,-0.699999988,-0.697522879,0.1181654749776252,-0.11626599956753876
2.59,-0.699999988,-0.6975299890941882,0.05316028622480527,-0.12909691767968842
2.592,-0.699999988,-0.697908163,-0.07909566366824476,-0.07297309044525979
2.594,-0.699999988,-0.6979017709355615,0.027437019896850205,-0.15956821454123588
2.596,-0.699999988,-0.697522879,0.07009040591689325,-0.07904756209658352
2.598,-0.699999988,-0.697522879,0.037732889545235807,-0.14182069931881616
2.6,-0.699999988,-0.697522879,0.14272488043245812,-0.11391329063716288
2.602,-0.699999988,-0.697522879,-0.08529045940648558,-0.07994430349252124
2.604,-0.699999988,-0.697522879,0.08906706334169724,-0.09357148930417801
2.606,-0.699999988,-0.697530141527074,0.07993753261784128,-0.1220202682311202
2.608,-0.699999988,-0.697908163,-0.010682426059265442,-0.1518030406861436
2.61,-0.699999988,-0.6978981728039308,-0.09297635852214066,-0.05719017263000237
2.612,-0.699999988,-0.697522879,0.052255219411575564,-0.12279790181993569
2.614,-0.699999988,-0.697522879,-0.042877963843835944,-0.18980560100131533
2.616,-0.699999988,-0.6975311088133651,0.066194657524463,0.024373310799880667
2.618,-0.699999988,-0.697899529699404,-0.14752057330441,-0.18912112420762814
2.62,-0.699999988,-0.697522879,0.03901942146530418,-0.029350571118821292
2.622,-0.699999988,-0.6975302041412172,-0.026001045390768862,-0.08775065172127226
2.624,-0.699999988,-0.6978996694895139,-0.1442909271136797,-0.05274209933484271
2.626,-0.699999988,-0.697522879,-0.014159422709534634,-0.07726330073513579
2.628,-0.699999988,-0.697522879,-0.06225509468147885,-0.0715214301677924
2.63,-0.699999988,-0.697522879,0.1575797761684802,-0.18087452633456894
2.632,-0.699999988,-0.697522879,0.13880978826889154,-0.07698823249630513
2.634,-0.699999988,-0.697522879,0.10390577792284761,-0.10702809137717625
2.636,-0.699999988,-0.697522879,0.14233454474073193,-0.19786781279729088
2.638,-0.699999988,-0.697522879,0.058608417899091346,-0.08254168650167384
2.64,-0.699999988,-0.697522879,-0.025255942544284184,-0.11890262875587078
2.642,-0.699999988,-0.697522879,0.036693372111004784,-0.15441008585645932
2.644,-0.699999988,-0.697522879,-0.057872084010776884,-0.15495153830400285
2.646,-0.699999988,-0.6975301145966507,0.09246607171818182,-0.09248372527200957
2.648,-0.699999988,-0.6978996164497316,0.01988856201824687,-0.07523001207620751
2.65,-0.699999988,-0.697522879,-0.010338329932061978,-0.12239804039690108
2.652,-0.699999988,-0.6975314846067482,0.034793827720684324,-0.11798033306724486
2.654,-0.699999988,-0.6979007953126569,-0.07829097408246684,-0.113345246540098
2.656,-0.699999988,-0.697522879,-0.060663621717564516,-0.15134959702081102
2.658,-0.699999988,-0.697522879,0.056756417297078116,-0.1615070229958259
2.66,-0.699999988,-0.697522879,-0.11963835255799336,-0.024626674577798862
2.662,-0.699999988,-0.697522879,0.03884223345972189,-0.1831633128838408
2.664,-0.699999988,-0.697522879,-0.0694581023324576,-0.05040656967351326
2.666,-0.699999988,-0.697522879,-0.06625194927443968,-0.07419918586623747
2.668,-0.699999988,-0.697522879,0.1417299001980446,-0.22337975862632647
2.67,-0.699999988,-0.697522879,-0.03580794402637206,-0.1628369576097648
2.672,-0.699999988,-0.697530022423445,0.03201242800837321,-0.05157529130921052
2.674,-0.699999988,-0.697908163,-0.09313346566444074,-0.07906876291557358
2.676,-0.699999988,-0.6978996476817161,-0.1938616769367687,-0.15092013803734783
2.678,-0.699999988,-0.697522879,-0.027357660894718014,-0.14462336127363778
2.68,-0.699999988,-0.697522879,0.037198164283105024,-0.15481712541312184
2.682,-0.699999988,-0.697522879,0.12835124465935638,-0.10700225299690107
2.684,-0.699999988,-0.697522879,-0.037373657737325545,-0.005403408302039842
2.686,-0.699999988,-0.697522879,-0.10109854290684411,-0.12484515192336025
2.688,-0.699999988,-0.697522879,0.11516354397381949,-0.08323913285654513
2.69,-0.699999988,-0.6975312887056297,0.03203417470753817,-0.0981357955723998
2.692,-0.699999988,-0.6978996517054933,-0.06791963694010632,-0.09002397112604843
