zhaobohao-byte/Y1_1Pace/data/Atom3motors/raw_csv/RS06_chrip_spd10_aligned.csv
time,des_dof_pos_left_hip_roll_joint,dof_pos_left_hip_roll_joint,dof_vel_left_hip_roll_joint,dof_tau_left_hip_roll_joint
0.0,0.0009117284213396562,-0.000502348,0.051116943,0.104919434
0.002,0.0018000361646297628,-0.0008801851302866541,-0.1443846730723684,0.12007803669631109
0.004,0.0027061235692307692,-0.000885725,-0.056058687750903835,0.05683299843564714
0.006,0.0036172361900975785,-0.000885725,-0.0801057216091899,0.015935040115591728
0.008,0.004545664748449428,-0.000502348,0.09463828962268657,0.054296441327761194
0.01,0.00547425090314857,-0.000502348,0.025120577623993168,0.2541494682960703
0.012,0.0064148360372893514,-0.000502348,0.017178108559456538,0.15114402616063483
0.014,0.00736245381846374,-0.000502348,-0.06913179571253422,0.1514871444886323
0.016,0.008317023927064713,-0.00048614961449654844,0.06979288743608665,0.11692701567614854
0.018,0.00927928362106264,-0.000118971,0.04231174389069933,0.21202400679174596
0.02,0.010247992723115398,-0.000118971,0.015019969594642645,0.146671295
0.022,0.011227000263595346,-0.000118971,0.02705503444660194,0.14751637740870277
0.024,0.012211927985325699,-0.00011380021740683414,-0.006606298097511608,0.17289067313406356
0.026,0.013209957440118695,0.0002701273344198962,0.12523200400881324,0.16232538735156343
0.028,0.014212193070063694,0.000648737,0.19478332960473502,0.1874189407589232
0.03,0.015234789203981879,0.0006613652434658074,0.2004415144321518,0.3177091107321876
0.032,0.016258400473885045,0.001045182631942789,0.10618729794874851,0.27457467693349225
0.034,0.017290779417689833,0.0014284912386850882,0.1530965758980467,0.257946730043354
0.036,0.018331609707285083,0.001799822,0.14244666930656324,0.3003162736355609
0.038,0.019381327076281287,0.0018128937479732952,0.055956300115879834,0.3574086629313305
0.04,0.020439061129499822,0.0021959946379974324,0.31590273408087294,0.28978690581643135
0.042,0.021502444699570814,0.002571506594758554,0.11798087534651783,0.2984380471526329
0.044,0.022578021270182994,0.002961539483072138,0.09937747433293456,0.31126184140782387
0.046,0.02366558439761621,0.003347174463097651,0.18057721940717777,0.3370016029939191
0.048,0.02475701086103352,0.0037300915363625985,0.21551204250816303,0.25254317449480534
0.05,0.0258328499833935,0.004097230054001599,0.15852336527742894,0.32934637527799976
0.052,0.02695298967608825,0.004485509190510168,0.231174469,0.3905778651837317
0.054,0.028071891328925423,0.004867929391920877,0.23116083209354146,0.3927586473207817
0.056,0.029198430322796134,0.005252123,0.193027496,0.364200592
0.058,0.030335430601953452,0.006018923707724172,0.28001114546564326,0.4125430453587963
0.06,0.0314925499958219,0.006410574046764741,0.3481119814033011,0.402299804844277
0.062,0.032647307970054884,0.006796246858555409,0.2550240321327626,0.38670312965947184
0.064,0.03380995206425415,0.007197731027400524,0.29193331623469143,0.4071704514152966
0.066,0.034982310371180596,0.007950397982259792,0.2825703728645077,0.4135931774487439
0.068,0.03615849367264681,0.008334295350233169,0.2266990074283152,0.49929354768623696
0.07,0.037349718793037674,0.0087331304213664,0.18566718220376774,0.43864735708429714
0.072,0.0385460051363528,0.009485682788725667,0.15997717448572796,0.48851576616397946
0.074,0.039750336217649854,0.00988564025655942,0.32607243426415766,0.4938669479521548
0.076,0.04096113276836698,0.01063585857838806,0.261670547870806,0.5239582110247164
0.078,0.04218552598593229,0.011034097352562574,0.3442026303764005,0.5966675148480334
0.08,0.043415834972645104,0.011787283242089166,0.34081840865909896,0.6134742535081755
0.082,0.04465201650023787,0.012174918008059666,0.17839820251317215,0.6090745023417539
0.084,0.04589708357604791,0.012949495720545977,0.39232281044899425,0.5598474704102012
0.086,0.047158615585767075,0.013705316710520039,0.37157025209625477,0.5935405989877146
0.088,0.04842324947401049,0.014103302711492608,0.29763620650381495,0.5563711078788746
0.09,0.049696268387177354,0.014870906723596575,0.4315303245152236,0.5256624011272597
0.092,0.050975440728793314,0.015636080576514156,0.28847212456755467,0.5237530317401744
0.094,0.05226842995171674,0.016405352411876937,0.3515931708468877,0.49436591958502263
0.096,0.05356712323175966,0.01717230106088407,0.30721897934695575,0.34311138384070056
0.098,0.05487433008802189,0.01793960594621609,0.2668306816079248,0.4779336882663018
0.1,0.05618727661318839,0.018705955309722886,0.39926030833301485,0.46410256903081704
0.102,0.05751416542654424,0.01947514822533699,0.36756066384373137,0.46100138829738757
0.104,0.05884722880529075,0.02024243957699178,0.4617015710764559,0.43536590424365845
0.106,0.060187590112803425,0.021023386464460055,0.4677814408042624,0.42570926066234077
0.108,0.06153492841664677,0.022158669033620484,0.549431931502393,0.3408186987384542
0.11,0.06289507106866953,0.022943937396001906,0.5315374874437173,0.3880142867672537
0.112,0.06426166112197448,0.024092139348754024,0.5257871674053892,0.2969664118994873
0.114,0.06563667155132627,0.025228971636071813,0.5262022802679824,0.2563983282600167
0.116,0.06701706380179212,0.026008116740616784,0.4645786622648817,0.08489190619244562
0.118,0.0684116450952381,0.02716116273459209,0.5488675038424178,0.10825655846099037
0.12,0.06980977775870291,0.028307879790464837,0.595966279725149,0.10660876175983314
0.122,0.0712181714537026,0.029471595946842667,0.5997338377531217,0.02550313657010346
0.124,0.07263123369367754,0.030990695262118492,0.6222286308240574,-0.07800102292998205
0.126,0.0740598114817553,0.032146080349565426,0.596112369732349,-0.06317361030229789
0.128,0.07549377541437255,0.033307933910260996,0.8110908222252413,-0.12266331545477296
0.13,0.07693509773858774,0.03482901609561185,0.7665821403228683,-0.09742458404899514
0.132,0.0783814523507891,0.035977380663561445,0.6714905290797802,-0.13651146725641944
0.134,0.07984407855823102,0.03714334551282663,0.6070864439951079,-0.19596400420427154
0.136,0.08131068150816739,0.038679033156138264,0.7114192932330156,-0.19287214359118
0.138,0.08278585073205799,0.04021314564749911,0.6990091024762979,-0.22317801181394795
0.14,0.08426480352666826,0.04174272481844243,0.6836959597247969,-0.1497420082011467
0.142,0.08576081238666985,0.043266713072809736,0.7542316995617093,-0.17654130917307234
0.144,0.0872609804006437,0.044432209060577155,0.6101817324864058,-0.1481133025084665
0.146,0.08876864828746286,0.045953863790067724,0.6703768913747178,-0.09168375990744922
0.148,0.09028060738302451,0.04711312229866092,0.6668035598807988,0.0058031562566953614
0.15,0.09180927945909849,0.04863915693367529,0.784651486988429,0.06815723748586425
0.152,0.09334227599642432,0.04980396618244611,0.724341960216625,0.08713432507669405
0.154,0.09488272570501545,0.05132413735659929,0.5996961833588584,0.14421367602092747
0.156,0.09642733190624253,0.052471511928443224,0.489708766754577,0.1724955417905947
0.158,0.09798927266177873,0.053640167364309606,0.5171564095645007,0.29494998124880556
0.16,0.09955471071963286,0.055149545277394824,0.7001809892562396,0.32544891163418116
0.162,0.10112766824004754,0.055926742433820904,0.557203515442621,0.3468419583973124
0.164,0.10270466101698159,0.05708720438323568,0.6755923683175894,0.3552637275393997
0.166,0.10429887441951625,0.05860002374925551,0.6823949941113758,0.42055334222275165
0.168,0.10589575968785024,0.05937993355389935,0.5360552942339614,0.460884094
0.17,0.10750159217733112,0.06053040679947669,0.4382372202545195,0.4635002721945766
0.172,0.1091117391622849,0.06166688614074074,0.4287859828666667,0.5392997004191159
0.174,0.11073724228996903,0.06244818683518055,0.5448890576823978,0.5522545745110238
0.176,0.11236601918895384,0.06359901116201716,0.48660255376287553,0.5545307538412018
0.178,0.11400435148834998,0.06475001417665953,0.5906338574989294,0.4671065431895075
0.18,0.11564581552558585,0.06591094336584201,0.5319769713605832,0.4862857931070874
0.182,0.11730383401716739,0.06742323451902207,0.6774728884635659,0.42391513303589745
0.184,0.11896542071632896,0.06820348561323003,0.6133145075462455,0.46558804942514903
0.186,0.12063428309006655,0.06935429361163895,0.6662462890510689,0.44379108977458437
0.188,0.12230630554855297,0.07050122417153111,0.41915974538014356,0.4568872262145933
0.19,0.12399651735447716,0.07166818171363853,0.6735510925666428,0.4338126451030043
0.192,0.1256895270986889,0.07318970908190273,0.7110431820780878,0.41056624188721985
0.194,0.1273899191409172,0.07435399229349254,0.6465580385425672,0.3204407679435224
0.196,0.12909734581338111,0.07589104545406762,0.7017997191400072,0.25612548801326007
0.198,0.13081704280951245,0.07742850664592275,0.7610058929002146,0.06828262248927039
0.2,0.13254098850041732,0.07896312402764538,0.7680361902106768,0.11240773169923736
0.202,0.1342726408030213,0.08049682216186622,0.7237616702504166,0.045048522087598186
0.204,0.1360085657703058,0.08203000458364179,0.7592985351276418,-0.11366862192597016
0.206,0.13775896610230118,0.08358129979658793,0.8503279051330231,-0.16771412613517062
0.208,0.1395137889903445,0.08548583072817154,0.9575226299197142,-0.06387010202108398
0.21,0.14127568908997032,0.08701895174249794,0.9168646421384178,-0.19138634099620447
0.212,0.14303825110659657,0.08855816529916567,0.8521166038629321,-0.1543263697067938
0.214,0.14481995389503818,0.09047583440026247,0.8511219530194465,-0.15428557287425435
0.216,0.14660590065077472,0.09239542607199235,0.909144384989237,-0.18490587213059076
0.218,0.1483977098887436,0.09430495480621812,0.8805099471281594,-0.1740824841251928
0.22,0.150193040863076,0.0958329756126558,0.9416954059415149,-0.052574793896452546
0.222,0.1520071541020481,0.09738916004946493,0.8782144513700356,0.0028672878958382877
0.224,0.153820210730136,0.09929018114314683,0.8769678415743767,0.010292850476082548
0.226,0.15564373558953004,0.10082480185070355,0.796656335474362,0.1359496031605056
0.228,0.15746975533666904,0.1023724723481289,0.7001505598313068,0.29399197660724824
0.23,0.15930540994081996,0.10425352397293447,0.8401447199348291,0.26697784841595446
0.232,0.1611447645132701,0.1054077505418438,0.7843916918440422,0.2912928496815256
0.234,0.1630091253519819,0.10696991093924231,0.6881817405693352,0.4206014148498928
0.236,0.16486559622307143,0.10850360212108909,0.7810364073740148,0.37891433159302607
0.238,0.16673421759173984,0.11003935384089845,0.7892864105938232,0.44598726028263924
0.24,0.16859972434427598,0.11153780843890095,0.66992855240094,0.5102741135791757
0.242,0.17048235574560777,0.11271344673013421,0.6411244458966623,0.5080180385726333
0.244,0.1723625034980242,0.11423146362998443,0.718942419472159,0.5051171222299126
0.246,0.17426540859682807,0.11540060018314406,0.8012851158738793,0.5135730266411237
0.248,0.17616754910059595,0.11693892358379855,0.7416521178932177,0.4809768474953082
0.25,0.1780758288725933,0.11845548528017139,0.7639128804551297,0.486295698364199
0.252,0.17998638364462516,0.1196159530678533,0.7681522100072871,0.39222079039959384
0.254,0.18191459540527005,0.12115348166189284,0.716158461532283,0.3760655503700919
0.256,0.1838446870977354,0.12268966819009053,0.709881352219152,0.396771750916627
0.258,0.18578052819087237,0.12423533177127913,0.7474792795192582,0.2599067465572991
0.26,0.18771864878192254,0.1261483067099976,0.9417513331738818,0.19560566522016262
0.262,0.18967446794515974,0.1280600483824511,0.9728940378397711,0.11141705670290891
0.264,0.19163150705222368,0.12960660999880766,0.9345886168906642,0.1326762053690235
0.266,0.19359547162130036,0.13152560171126426,0.9727774362143536,-0.07959761810480039
0.268,0.19556057546163041,0.1334374326656702,0.8487084931285425,-0.10897503487636016
0.27,0.19754294954274473,0.13534807823709005,1.0219826192738222,-0.09579730938067978
0.272,0.19952722413628235,0.13690955145942083,0.9012632020221667,-0.025317456552377545
0.274,0.2015175657292929,0.13919680849524377,0.8679899172580261,-0.07369200423900119
0.276,0.20350884060172125,0.14111102464756448,0.9731259499083095,-0.09305180123495702
0.278,0.20551759303612735,0.1430318717856972,1.0763330030879894,-0.13316058205659023
0.28,0.2075277577727056,0.14496644290853875,1.0233854614187208,-0.12306682714969631
0.282,0.20954361009421407,0.147253443759748,0.9485594148290537,-0.10432518971302901
0.284,0.2115599925456938,0.1491661472949546,1.0401872425859637,0.014147444607006216
0.286,0.21359583508773394,0.15107662018922782,0.9537983070393232,0.2003566316770734
0.288,0.21563131430360125,0.15263612552237205,0.978053843042477,0.19728010892280157
0.29,0.21767316539947718,0.1549128556807601,0.952845811632304,0.23473650126199525
0.292,0.2197150666885089,0.15644209151222438,0.9042123234786673,0.3348491474744727
0.294,0.22177501828707677,0.15799789244371729,0.8123189991239886,0.37923334292884336
0.296,0.2238354977886266,0.15989945784356743,0.8461387700754739,0.3745301226054608
0.298,0.22590178152282453,0.16143414265541023,0.7979381572615933,0.5109506591500594
0.3,0.22796867591229536,0.16296477458629746,0.646054330402244,0.4680043570556219
0.302,0.23005179241879323,0.16451388162117955,0.7365757446886342,0.5194918783607927
0.304,0.2321365455348671,0.16642212180409913,0.7918580476413251,0.5619297738485463
0.306,0.23422648201188778,0.16795499042177842,0.8140556348640039,0.5273532074155968
0.308,0.2363172643874014,0.16949748033010753,0.8990006437182796,0.4471204693096774
0.31,0.23842439541736227,0.17140749114452658,0.8412683144527785,0.39492957380419746
0.312,0.24053268984862933,0.17295536333468417,1.0041913100212156,0.392094886375447
0.314,0.24264520847937715,0.17487258536095587,0.8188388111512306,0.3379108613592914
0.316,0.24475861063598325,0.17678573151966526,1.0449228143950986,0.24045107807375973
0.318,0.2468889690255157,0.17870890339227374,1.01260311008537,0.11314483610456659
0.32,0.24901922947694508,0.1806269415182847,1.0604924649122096,0.06214656286575342
0.322,0.2511535578924028,0.1825567371418903,1.0384762264728093,-0.033717534016860604
0.324,0.2532892050442319,0.1848380461594255,1.0409838195730698,-0.13751852027109515
0.326,0.2554415255234347,0.18676349996217184,1.0256140076019091,-0.16078099724009548
0.328,0.25759420977315534,0.18869638443531095,1.0140113664448416,-0.12494389346080532
0.33,0.25975062504918617,0.19099668546702317,1.1410277648597742,-0.16234655905466427
0.332,0.2619062454471418,0.19329130239236567,1.0229870639212635,-0.13684369331686014
0.334,0.26408030336099186,0.19558886009938034,1.1172358504010964,-0.06611852968612965
0.336,0.2662527863034927,0.19751865857512213,1.1436408242816631,0.005525691933992613
0.338,0.26843003991012837,0.19980602865302236,1.0513748752598762,-0.0036325260552118044
0.34,0.2706068631874477,0.2017213663729097,0.9451127938375538,0.16421661307692306
0.342,0.2728003205512102,0.20365578872093024,1.080694290875492,0.20049840737173524
0.344,0.27499311553479505,0.20593309070812485,1.0632860007051466,0.2976039946970455
0.346,0.2771889669400785,0.20747895679450915,0.9005631484051582,0.3412016399006418
0.348,0.2793856232754663,0.2093915110552764,0.8424077825778895,0.344585419080402
0.35,0.2815982324325227,0.21131693539227375,0.8727829230540122,0.3908041054801479
0.352,0.2838096625228789,0.21323517757159877,0.9388552476504647,0.5535823174653324
0.354,0.2860244229678953,0.21513900421069518,0.9670461934524064,0.5028506925582887
0.356,0.28823939054393305,0.21668050537124026,0.8014868817310965,0.5062049029284601
0.358,0.2904701853023007,0.21860800294893465,0.8417077973582907,0.40847416961980715
0.36,0.2926990158444206,0.22052295255199525,0.9306557104634902,0.3862756086881477
0.362,0.29493233641217015,0.22244024485002378,0.9482484593989058,0.35717446394172214
0.364,0.29716389723699627,0.2243540313133365,0.9461440600509082,0.3415798890678776
0.366,0.29941210284595204,0.22627636282124106,0.974382897173031,0.24922434168854413
0.368,0.30165851203575683,0.22820930207756462,1.0272786842602168,0.16139412706588824
0.37,0.3039076472250624,0.23050989390156917,1.1857672540235378,0.07592477430171184
0.372,0.3061561797909645,0.23279331740781453,1.1268001900001194,-0.06415738663066077
0.374,0.3084196504171633,0.2347283600703218,1.219502586545888,-0.09280317641728249
0.376,0.3106807813671158,0.23703000415648856,1.2045122832090889,-0.03135466647769561
0.378,0.31294640935596246,0.23934520833519554,1.1554716951396649,-0.1324811326480447
0.38,0.315210114108428,0.24199990974121022,1.1849496910232002,-0.22752341786606076
0.382,0.3174887555766571,0.24394952464631528,1.0961741512072503,-0.1439903485704746
0.384,0.3197652553957092,0.24662281345537948,1.2212242495971644,-0.12542054573394495
0.386,0.3220441304641626,0.24890963939210559,1.2109396833930568,0.011216935293663062
0.388,0.32432130067081194,0.2508347337919904,1.1283983163526599,0.07001284187208608
0.39,0.3266145000965435,0.2531432623233191,1.174055553606104,0.2171299656494993
0.392,0.32890361839635235,0.255431606545498,1.1245517928898974,0.28623597174468596
0.394,0.33119618729536265,0.25735264602450336,1.0540878512735816,0.35120792735303913
0.396,0.3334865911330226,0.2592672383279666,0.9459650972015504,0.38592025675074537
0.398,0.33579131847573623,0.26118596124579807,1.0482623279208487,0.38194557804327095
0.4,0.3380937105701002,0.26311678832331903,0.8953565413738674,0.4778324832479733
0.402,0.34039807689483065,0.2654048709334284,0.9064290499533999,0.3969779346785544
0.404,0.34269903783470873,0.26731888116844377,0.8944240058254463,0.39177328550940455
0.406,0.3450163121693683,0.2692465766628599,1.156493741655246,0.39524241691767786
0.408,0.34732880100178765,0.2711606455675643,1.0059640188846521,0.4002312380439705
0.41,0.34964328451058263,0.2730776763346813,0.9134356261148906,0.3286991249781161
0.412,0.35195546888169216,0.2750032551469534,1.0536876311691756,0.2543010838630825
0.414,0.3542811576496542,0.2773104808665474,1.1493597442401908,0.21605156252546215
0.416,0.356604047029559,0.27961251533222076,1.1418493194585766,0.12148275980975085
0.418,0.35892804844222537,0.2819014967251546,1.2598824327879221,-0.004318520076081788
0.42,0.3612489194841602,0.2838265258401006,1.138516363182896,-0.07954745056881063
0.422,0.36358367761079985,0.28615163553241346,1.2142926160049958,-0.0438263274343999
0.424,0.3659141850986184,0.28881807086268024,1.1831351232949658,-0.08675511739801466
0.426,0.3682439402434063,0.2910999369083871,1.1347049586387097,-0.13491521485935482
0.428,0.3705609256732293,0.2933681820269189,1.2038007064659877,-0.18995995194761733
0.43,0.3729128881561267,0.29608967996345437,1.2748909,0.008119030410686286
0.432,0.3752563003322615,0.29841652154720344,1.2673958144032775,-0.03226302700403752
0.434,0.3775927315607843,0.30070999321112696,1.073564667754993,0.11881546296291012
0.436,0.3799264345307977,0.3030053528583732,1.1195117270956938,0.23740995490622008
0.438,0.38227518267568533,0.3053140197558098,1.07900649469944,0.2935331408381599
0.44,0.38461776029849676,0.30760274770457796,1.065149809323319,0.31439276062517885
0.442,0.3869627557237982,0.3095331541543393,1.1276710834359491,0.3062403060628042
0.444,0.38929837960545516,0.31181428119616994,0.9740171856368641,0.3766704552330341
0.446,0.391652214422201,0.313740634161398,0.96523632663927,0.35517313812954787
0.448,0.3939990893927039,0.3156594997710169,0.9670381995377472,0.4136232605054775
0.45,0.39634634965985266,0.31758793348108494,0.9371897162985963,0.47142383793909115
0.452,0.3986875753645273,0.31988545041218636,1.014237069958184,0.36213983475985667
0.454,0.4010419340913318,0.32217899660536675,1.0732118791992844,0.36424107866261185
0.456,0.40339106505315736,0.32411004222815937,1.1529169655871851,0.29981426758162905
0.458,0.4057345111561086,0.326393604091954,1.1114243839851532,0.24697573457327585
0.46,0.40808188346422586,0.32870501845242367,1.1055803866377019,0.17078271970879713
0.462,0.4104394225493562,0.3310030790542377,1.1556541302062224,0.01968719096638455
0.464,0.4127891949614926,0.3329476030760429,1.1111562232097736,-0.1524600055194279
0.466,0.4151385518306595,0.3356188763158959,1.2681142083615504,-0.036295309654381165
0.468,0.41748086931643147,0.33792710200479154,1.118459391088644,-0.08612870649017729
0.47,0.41983698307879364,0.34061063425023796,1.1905274444247977,-0.11653534518967158
0.472,0.42218515364930886,0.3429214811967819,1.2203710098668652,-0.10456208124946365
0.474,0.4245320594387634,0.34559356039893047,1.2329333093568628,-0.12321995915579322
0.476,0.4268740812783887,0.347899876176752,1.2547274738909353,-0.04303667536187515
0.478,0.42922656401609444,0.35056759059500003,1.2369454333721428,0.14437907635
0.48,0.4315726005026228,0.3525081420843705,1.027620503692676,0.20846189636847776
0.482,0.43391734046042313,0.3551895088737703,1.1617009604334478,0.31472252935012446
0.484,0.4362544260329985,0.35747797541360754,1.1520665628964486,0.3150034393027622
0.486,0.4386036555670521,0.3597733270212284,1.0743587542202744,0.3582716401526535
0.488,0.44094463763157266,0.3616927432457981,0.9251230453294791,0.3792104549138157
0.49,0.4432849231043478,0.3636236912649552,0.9604789616555224,0.4330837645425672
0.492,0.44562173727913634,0.36591489487818224,1.0032693854922674,0.48712633617106826
0.494,0.4479598684451474,0.3678299372824656,1.043405501901855,0.5121457356235787
0.496,0.4502978306666667,0.36976932131876483,1.0123790096738718,0.4634864854821853
0.498,0.45262733566634983,0.37206183271409904,1.0163278565535099,0.3044749763060934
0.5,0.45495155060212866,0.3743562733969849,1.1714148402060303,0.32299358061809047
0.502,0.4572876834969003,0.37666571821880585,1.1300686597577168,0.26371542904063877
0.504,0.4596143791795208,0.37896615246483906,1.0939223385351609,0.08920597278665077
0.506,0.4619386288871294,0.38126833691490125,1.1990528001450629,0.012518299793177739
0.508,0.4642577753230659,0.38357801406175773,1.1711325835809976,-0.08880751172256532
0.51,0.4665805091089522,0.3858848554132872,1.2473060519031487,-0.15442921355176525
0.512,0.4688971062812872,0.3885711804259105,1.1603014932032238,-0.1249950941877015
0.514,0.4712102238575512,0.3912470373039542,1.2876369681507862,-0.1339571977372558
0.516,0.47351925134987477,0.3935614635661905,1.3415398366409523,-0.14189734125333334
0.518,0.47582826669853384,0.39622954715443276,1.2837901628960915,-0.010071499076263108
0.52,0.47813274348748513,0.3985435698695601,1.2316623333345655,-0.02568675262251103
0.522,0.4804335904777169,0.40121619118567164,1.2119258120193432,0.14110362039295524
0.524,0.48273031717014675,0.40352164360961673,1.0688523892568436,0.20476336880147583
0.526,0.4850264888921078,0.40581949482430824,1.1094828306272662,0.2632707780443702
0.528,0.4873171048951132,0.4081229487840286,1.0937961235241955,0.3012034936963051
0.53,0.48960277692964105,0.410410539827451,1.1487889836456329,0.3577428740513369
0.532,0.49187916008026317,0.41233455548147263,1.0764294430592876,0.486030258026536
0.534,0.4941647837523832,0.41462987808588814,1.0733192638219016,0.41294501573517833
0.536,0.4964381661175629,0.4165490287705875,1.0676023186713144,0.42384834506316293
0.538,0.4987081431257428,0.41847912467597764,1.0302349922122904,0.40060032645810056
0.54,0.5009669726097765,0.4207748352912482,1.0166129246056912,0.3705253495992348
0.542,0.5032332566318111,0.42306981873819743,1.0543146314313305,0.2940821993454935
0.544,0.5054893896397997,0.42500056122026225,1.1191577219532776,0.3271796783194279
0.546,0.5077403502792686,0.42730213106364284,1.1628937073083592,0.2046735534769651
0.548,0.5099781832513766,0.4296063007071711,1.2339639884603137,0.03688127333425117
0.55,0.5122275136541901,0.4322897539771101,1.2411485656595136,-0.03441125439437292
0.552,0.5144627934489212,0.43459126733222075,1.1949729694694242,-0.09251689210108476
0.554,0.5166920561384433,0.436906020650423,1.2682052482094601,-0.11684469592207791
0.556,0.5189100222582497,0.4395895577896119,1.3394353043749254,-0.17538214494662685
0.558,0.5211348105269432,0.44226592772183854,1.3491970961905215,-0.17901699223803286
0.56,0.5233473175665594,0.4445644818918146,1.2492243910312164,-0.15593971143905636
0.562,0.5255530464422916,0.44687809728067046,1.1691497768865906,0.02133949246611983
0.564,0.5277474705962688,0.44954472363717873,1.1577794656126719,0.0866978739456067
0.566,0.5299482403822583,0.4518523863829635,1.2153352013997853,0.20888639157265568
0.568,0.5321363024583284,0.4541555143520858,1.1220257111489869,0.29192809947151366
0.57,0.5343171432343434,0.45645780256120755,1.0281582325966248,0.2714146908141193
0.572,0.536485183684997,0.45874071983715653,1.0440718576160095,0.382881165
0.574,0.538658121828803,0.46067618629778095,1.1246617878636365,0.38317161718014797
0.576,0.5408184781803884,0.4629660873344426,1.0559269073864985,0.3941176685906822
0.578,0.5429701485868869,0.4648900753145507,0.9499238539600571,0.4618798121526391
0.58,0.545108567998086,0.467175247763869,1.0456447592864657,0.3894112253143233
0.582,0.547253865470518,0.46909891199161774,0.9810100432063226,0.3844365763879775
0.584,0.5493870639573099,0.4710252247296588,0.9997406444457171,0.296202534998807
0.586,0.5515096844357574,0.4729577330460519,0.9884729127552978,0.29471567575991475
0.588,0.5536152178850299,0.4752448706704205,1.0454750419247634,0.1698397196360369
0.59,0.5557309817173187,0.47755710179405797,1.177924490808734,0.17108202303973272
0.592,0.5578304302164127,0.47986135848420547,1.1558488810262249,0.11022663313124328
0.594,0.5599185263888625,0.4821622478352131,1.2022548604600498,-0.04440045694063873
0.596,0.5619962675181644,0.48445437250364354,1.3424273095662407,-0.013548908301875523
0.598,0.5640736994541776,0.4867610073680086,1.2544435256685667,-0.07809601037881488
0.6,0.5661342150292398,0.48906501375760114,1.1061323694099832,-0.1311552435575772
0.602,0.5681908108868977,0.49174803626739233,1.2234434519413158,-0.1957295691812589
0.604,0.5702280087261749,0.49404260072525374,1.1045582867232238,-0.08701663761134328
0.606,0.5722702453275532,0.4967225672479149,1.183974485841291,-0.03027070062045207
0.608,0.5743030842697674,0.49905566814749014,1.2122694625984263,0.08611956902956958
0.61,0.5763205038783623,0.501356842685918,1.3440905508247178,0.16307140910814022
0.612,0.5783247865834726,0.5036515415380292,1.1416150300706769,0.2395447892406123
0.614,0.580325125426208,0.505944627897707,1.0927793869831293,0.2838925825779969
0.616,0.5823088443124776,0.5078558687548717,1.1462049160083174,0.33392265765601237
0.618,0.5842845791004035,0.509780549417416,1.0116363740421201,0.37693508924704217
0.62,0.5862425992451837,0.5120553131015737,0.863609892758226,0.4551756044363376
0.622,0.5882052851530478,0.5139734369816207,0.9454394668995106,0.40914057330325815
0.624,0.5901512114441664,0.5158938338663948,1.007212093240945,0.44723880585787956
0.626,0.5920840761375371,0.5178225221643137,1.0830796347031677,0.5384976992563768
0.628,0.59400319509839,0.5197333039961901,0.9276895910422669,0.40310377814835097
0.63,0.5959152528589469,0.5216488530858333,1.0464150567589285,0.3780001184267857
0.632,0.5978137998941907,0.5235744833660021,0.9076958110543154,0.24809987800549121
0.634,0.5997029908328976,0.5258679417294916,1.0376315370167877,0.21693895082605072
0.636,0.6015741799353294,0.5277951507244775,1.0662380020571705,0.06332286734134038
0.638,0.6034467656856087,0.5301133468768366,1.1342978642904074,-0.013615974363755824
0.64,0.605297985424821,0.5324050913999048,1.1287430278377542,-0.1322275476025931
0.642,0.6071393233912474,0.5343459642063757,1.1362984194678243,-0.12685748315082668
0.644,0.6089628099443184,0.5370127835296368,1.1038633171319312,-0.09603176491778204
0.646,0.6107813470604906,0.5393199266403801,1.1854641152812353,-0.1264830693729216
0.648,0.6125813513228111,0.5416128782274081,1.033742262348732,-0.14680170761281103
0.65,0.6143688603527454,0.5439006176914225,1.079756336395895,-0.18388026452473602
0.652,0.6161396671217412,0.5458191181129707,1.0839159981548119,-0.14067238869037657
0.654,0.6179075376725083,0.5481269632127914,1.016127938163419,-0.03174103164399283
0.656,0.6196564011151234,0.5504235497807876,1.03650401210358,0.10979181627804295
0.658,0.6213910488499406,0.552355218980299,0.9804236035898409,0.22865256373747925
0.66,0.6231086043991868,0.5546363482388755,1.0737012285820573,0.21811212750382775
0.662,0.6248209702688916,0.5565614680517325,1.027085626554122,0.29954532862951017
0.664,0.6265138951609058,0.5584833522986565,1.0028010351030794,0.3735114753842587
0.666,0.6281920314251248,0.560384393151634,0.8523644090705883,0.35779847753594773
0.668,0.6298518076885403,0.5619250152285885,0.8094205541860661,0.4003492285845045
0.67,0.6315084384111614,0.563857126215291,0.8629590699391698,0.43328933039277195
0.672,0.6331432270606313,0.5657623199398452,0.9070966496664681,0.3689427103079214
0.674,0.6347614465868634,0.5672956412330398,0.9013729734641751,0.38075398518293263
0.676,0.6363630283780911,0.5688405409104264,0.7869536835786456,0.4428473854424937
0.678,0.6379547749297285,0.5707614844567052,0.9269756879083026,0.39522659095153817
0.68,0.6395266070193133,0.5726736231343426,0.8056928144050542,0.33873664338419357
0.682,0.6410836797063435,0.5745910357892361,1.019452563463942,0.25967738109088745
0.684,0.6426201573763903,0.5765028235138075,0.9969702686309624,0.11456678292588164
0.686,0.6441503240389207,0.5784262774598156,0.8882570767648821,0.027463123210204814
0.688,0.6456611336777116,0.5803527708058368,1.0620928656992257,-0.028541357902918403
0.69,0.647153105125104,0.5822710397941667,1.042008536002381,-0.1345838488247619
0.692,0.6486253957221226,0.5841863657016726,1.0149321927400239,-0.16542077016630824
0.694,0.650087626509225,0.5861215944415954,0.9930732017654321,-0.1682401807568851
0.696,0.6515273653483548,0.5884135253144729,0.8469736876669446,-0.1890626865478261
0.698,0.6529516865561377,0.5907023415218119,1.1119886151891956,-0.24108307501290785
0.7,0.654357263285168,0.5926253368635058,1.117774173880747,-0.1664291958735632
0.702,0.6557499656814496,0.5945652674721561,0.9438352729766778,-0.09929867947405997
0.704,0.6571217388882795,0.5968498429493565,1.022266849435653,-0.036785216812440416
0.706,0.65847533143535,0.5987531837486986,0.9557527248061997,0.024805287878845242
0.708,0.6598047422286534,0.6002870145856749,0.9060171127665909,0.061364521446729645
0.71,0.6611260207040707,0.6021991704917935,0.8639353982116929,0.19339997704276987
0.712,0.6624263274069393,0.6037544611290823,0.8037380114352801,0.24863031263027416
0.714,0.6637062388187968,0.6056715434370861,0.8980180924011353,0.3022541241986755
0.716,0.6649621435906642,0.6075539505592302,0.9389125890429344,0.2934667135669273
0.718,0.6662088704606487,0.6087286662416717,0.8715301964671044,0.39342094897755225
0.72,0.6674320668774293,0.6102798403561578,0.7770672724992868,0.3539316790556348
0.722,0.6686353942130114,0.6121657157083233,0.7994250200090628,0.4015686654462199
0.724,0.6698166392191863,0.6133304234393167,0.6070480652626645,0.4320889398355677
0.726,0.6709816405026229,0.6148578027327535,0.665880146343024,0.426128394038127
0.728,0.6721255870834326,0.6163799678609256,0.7562453291405058,0.43946835468654577
0.73,0.6732491250650261,0.6175432389025317,0.7123427012174017,0.4535921022450969
0.732,0.6743498989467385,0.6190737688645045,0.7292960572338739,0.3273642328940541
0.734,0.6754369177014427,0.62060597478798,0.7495020193138564,0.3807828068530885
0.736,0.6764993371683157,0.6217700511128841,0.6518390048677065,0.2910798931905215
0.738,0.6775403634831688,0.6233026796937731,0.6445879123894511,0.24388649865233958
0.74,0.6785585738121719,0.6248352485438763,0.8127611370756243,0.22203555128870392
0.742,0.6795585900083432,0.626366007042089,0.771833360880291,0.04826000358996065
0.744,0.6805359095758913,0.6279007531296451,0.6917836605629107,0.05760470945214482
0.746,0.6814918601554817,0.629438437002961,0.7349484082120099,-0.11572410897264006
0.748,0.6824228887103845,0.6309737291079327,0.7919764433752404,-0.04855412637692308
0.75,0.6833390981759656,0.6328936609479899,0.9824600783529762,-0.15594879861565072
0.752,0.684229062380589,0.6344427552218381,0.8297456586332101,-0.13909755137537252
0.754,0.6850965535492923,0.6363467160704092,0.8829510776384396,-0.14730476004376783
0.756,0.6859397089280859,0.6378773760971173,0.887790915957467,-0.28312151688740544
0.758,0.6867622035352802,0.6394080591803732,0.8573095589607466,-0.224488099
0.76,0.6875615168587786,0.6413323267784901,0.8759386339341169,-0.21616608040242166
0.762,0.6883380239141264,0.6428604362759645,0.8088744192106825,-0.19079253623442136
0.764,0.6890875805380929,0.6443894223130466,0.6912041512269079,-0.12584435950736791
0.766,0.6898205626262518,0.645930397524473,0.7760102729342623,-0.164971520729189
0.768,0.6905264859024711,0.6474522097668145,0.7291094425070135,-0.012828687989329816
0.77,0.6912093444153883,0.6486229809324694,0.6982494410108192,-0.012313605806681725
0.772,0.6918660170812911,0.650141209355752,0.7816439616939433,0.18020945393154938
0.774,0.6925015481169389,0.6513078044827586,0.6385391502068966,0.23183428017241378
0.776,0.69311102969559,0.6528300530767858,0.7632435394,0.27780803167535717
0.778,0.6936958119539942,0.6539664924209339,0.7020418765759772,0.26029971384364975
0.78,0.6942545960182883,0.654742583458787,0.5103672103855724,0.30551619822323245
0.782,0.6947912948478028,0.6558843760073529,0.5095634174353653,0.32668329816745734
0.784,0.6953010087236324,0.6566584186859632,0.5280165514674147,0.3531186679798281
0.786,0.6957858547819888,0.65781087396505,0.5022372846578698,0.35061500166904425
0.788,0.6962441070479722,0.6589482927566087,0.43833224344320076,0.37634413522576804
0.79,0.6966793912506527,0.6597139375649511,0.5294896763469557,0.49571376870886824
0.792,0.6970860287004431,0.6604727278688007,0.3868839849650782,0.5226866190164908
0.794,0.6974698640009515,0.6612522371026253,0.390211893,0.3929995989331742
0.796,0.6978252010138772,0.6620331338037081,0.35530703053361246,0.43487041444401914
0.798,0.6981560530067946,0.6631735020856258,0.4147902442319876,0.44554222423829937
0.8,0.698459154923242,0.6639536010432864,0.34877062700250416,0.4478134296801813
0.802,0.6987356161179682,0.6650773770239053,0.4382265079261538,0.4761771915271006
0.804,0.6989843407056433,0.6654800504465033,0.4655078628714883,0.3217959662211596
0.806,0.6992076703819743,0.6666102016156966,0.38917591003148855,0.3762226844868798
0.808,0.6994031922096794,0.6670065502994162,0.41585671817514597,0.3733085234487073
0.81,0.6995712868849947,0.6677843834455798,0.41756576978255705,0.3479907978129753
0.812,0.6997115383110791,0.668921550246441,0.42193987744586675,0.32120473766957774
0.814,0.6998248472585529,0.6696792186976023,0.3156689240880353,0.3152232972200883
0.816,0.699909866854179,0.6700877203310296,0.38214501850643473,0.29563841637583416
0.818,0.6999668646080952,0.6712256941638796,0.381832033874582,0.31337963828846155
0.82,0.6999955955146744,0.6719946825496201,0.4612006001090931,0.2306752386125356
0.822,0.699996022607598,0.672758278022792,0.359348297,0.08698459603133903
0.824,0.6999679432747462,0.6735228939034698,0.3597968658375555,0.22128365758542443
0.826,0.6999109754056178,0.6742950506645985,0.37867202216048207,0.08655413662283737
0.828,0.6998253937854585,0.675063398314687,0.4101012971987622,0.09385412724851226
0.83,0.6997104673834604,0.6758289152183853,0.41881911862014765,0.02483907002857823
0.832,0.6995665378324788,0.6765958101548187,0.32450963158289603,-0.009011697666269084
0.834,0.6993932626008269,0.677362540230518,0.4317804494573029,-0.10666925867778815
0.836,0.6991923442376546,0.6781107521073679,0.40400234356616577,-0.12731418306156084
0.838,0.6989580447899069,0.6785099079446043,0.2768422527028777,-0.049344815812589926
0.84,0.6986955239457531,0.6792806324733874,0.448224627964399,-0.10955677194959464
0.842,0.6984038370052257,0.6800375519679042,0.3121675731,-0.08165565400443113
0.844,0.698082459504683,0.6808000853748035,0.31980237195574895,-0.07211647078128401
0.846,0.6977271234164579,0.6812028922161969,0.3223025378858098,-0.1811437210676063
0.848,0.6973435567651687,0.6819571422140221,0.22679390113426973,-0.13365143074062613
0.85,0.6969296222898533,0.6823533493351994,0.27370459424586063,-0.19576467433138772
0.852,0.6964847139805698,0.6831205104234256,0.310833574151479,-0.18753836497459445
0.854,0.6960089695406436,0.6838743709405941,0.3197285959911726,-0.22605187358069903
0.856,0.6955023179814286,0.6842714702707517,0.32432279689205556,-0.264418744238689
0.858,0.6949649823082151,0.6850242067188133,0.4028165422796378,-0.26975285816215894
0.86,0.6943955602891537,0.6854192413904762,0.19650795302857144,-0.27088481361428574
0.862,0.6937947388338696,0.6861745622231887,0.3506641328645138,-0.27298147133353196
0.864,0.693162328016931,0.6865578196083065,0.2642985522047977,-0.2741087680952381
0.866,0.6924978735627607,0.6869532741990465,0.20233099283671035,-0.34642212036889153
0.868,0.6918015403295129,0.6877093068185083,0.3014007023890818,-0.3377255534363701
0.87,0.6910721473694358,0.6880941831016506,0.208690722516447,-0.26528071634212086
0.872,0.6903126960491082,0.688464403,0.2998993935569933,-0.29495351141559817
0.874,0.68952157275615,0.6884711248458283,0.10497843918500604,-0.2925782347454655
0.876,0.6886947210892601,0.6888598060622249,0.04806929912813802,-0.22114056182212968
0.878,0.6878356514399953,0.689232111,0.1443385675152239,-0.2789842031689552
0.88,0.6869448012321194,0.689232111,0.1940305672438061,-0.18985999049658886
0.882,0.6860194907593895,0.6892455499934422,0.0389070008835102,-0.3011751967407893
0.884,0.6850622984751461,0.689615488,0.11534955171057337,-0.2582798953542735
0.886,0.68407229076371,0.689615488,-0.08534830563298379,-0.2164644578096997
0.888,0.683048732284863,0.689615488,0.020850251815905566,-0.23347389817300584
0.89,0.6819920131112303,0.689615488,-0.01247125150760095,-0.2616548315330166
0.892,0.6809027379194471,0.689615488,0.03810558922849654,-0.19346279206314032
0.894,0.6797791110188275,0.689615488,-0.12562151026689714,-0.27826914526093693
0.896,0.6786217306818182,0.689615488,-0.021763463830373107,-0.16879350922469902
0.898,0.6774290437893231,0.689615488,-0.05413485754781779,-0.2441894339802051
0.9,0.6762036601728866,0.6896036319232239,0.08938999478471642,-0.2700693391435224
0.902,0.6749435029659864,0.689232111,-0.004669539216061186,-0.2508608815334608
0.904,0.673647833567516,0.689218746534892,-0.0724535331468075,-0.37449368912497033
0.906,0.6723208717400309,0.68884778,0.006284303826164238,-0.3241850498553146
0.908,0.6709595796529321,0.688838313331125,-0.20610084990544447,-0.31350107090725127
0.91,0.6695593869966634,0.688464403,-0.11983437906445105,-0.480659485
0.912,0.6681277018052444,0.6884527536750477,-0.12413578328836987,-0.4803256535367016
0.914,0.666660692835102,0.688081026,-0.21044352307016706,-0.47000353345059664
0.916,0.6651584934631065,0.6880691510869669,-0.08472020854658088,-0.48093172185013106
0.918,0.6636213644994032,0.6876859091335649,-0.1378529360807379,-0.49196547950539055
0.92,0.6620472469967854,0.687313318,-0.27156964802833433,-0.5682991237643154
0.922,0.6604421968406795,0.6872908751005055,-0.16471308859539202,-0.4728619947570237
0.924,0.6588046288660288,0.6865404852797143,-0.13906195037654323,-0.5417648511337448
0.926,0.6571210366260725,0.6861513712948046,-0.2893258739730696,-0.5164912527845568
0.928,0.6554083635951132,0.6857556542468429,-0.15612064116583274,-0.5378881239456754
0.93,0.6536594909457494,0.6850007104877088,-0.33884580138305487,-0.5408231352640812
0.932,0.6518745820982356,0.6846169578964737,-0.2201979208936145,-0.5314879400022635
0.934,0.6500539224422596,0.6842213721951627,-0.30911773766638867,-0.5090287684603837
0.936,0.6481980610574904,0.6834549565940594,-0.36167779714195397,-0.6061443733341286
0.938,0.6463050656790653,0.6826877220019081,-0.34042623951830653,-0.5046683791901014
0.94,0.6443768688397429,0.6819315878471944,-0.4164163852323256,-0.46716921508222564
0.942,0.6424152644404194,0.6815464945541647,-0.33962580858738567,-0.5623333399855561
0.944,0.6404155950512178,0.6807714714783648,-0.42968050820093234,-0.5177632277054746
0.946,0.6383759838732092,0.6799911141972185,-0.3275650898887424,-0.3925434955018583
0.948,0.6363005550292857,0.6788474221577698,-0.43585964385883746,-0.49028392553736655
0.95,0.6341942106235252,0.6780726352742666,-0.44475365847173864,-0.42153349335940854
0.952,0.6320496175451729,0.6769330070381134,-0.5365118145564555,-0.39367330854883276
0.954,0.629868125197831,0.6761545487677719,-0.4006862499043416,-0.42076776566698476
0.956,0.6276504991264586,0.6750041990934744,-0.5554848728206937,-0.3638714546304527
0.958,0.6253982008388212,0.6738684544663206,-0.5821051971589812,-0.2823482035263158
0.96,0.6231048850225563,0.6727031604550884,-0.5836039302816531,-0.31015735804897276
0.962,0.6207744932337941,0.6715508907595615,-0.6846495661975456,-0.15755421363827
0.964,0.6184105636748539,0.6703887133307894,-0.6910275896730265,-0.2205473582945385
0.966,0.6160085120195518,0.6688537136063424,-0.6191167400553171,-0.12043205516452074
0.968,0.6135701765952978,0.6673308331523536,-0.867354258764403,-0.018025065489998802
0.97,0.611092383192926,0.6661610877995252,-0.7218301356064095,0.05527309679940653
0.972,0.6085835316921159,0.6646222345829229,-0.7862297671193995,0.08068946455242786
0.974,0.606044331804296,0.6627401211882311,-0.7749834082446642,0.11300782447546123
0.976,0.6034558427684588,0.6611882737904671,-0.8145069572695018,0.06758822908314419
0.978,0.6008278935224753,0.6596398742693274,-0.8326598231125583,0.1079817955895567
0.98,0.5981677384466436,0.6577176267946152,-0.894710555934477,0.06321196058756255
0.982,0.5954704047286619,0.6558121135553158,-0.8863496975760519,0.09969068982044828
0.984,0.5927334394120172,0.6542561705824594,-0.857150416864633,0.10623904973021925
0.986,0.5899625555028013,0.6523389839046712,-0.9111800648428265,0.05003701713465205
0.988,0.5871554491642662,0.6504215848390342,-0.9763212683279678,-0.01050332767002012
0.99,0.584314657143181,0.6485166975376409,-0.8633807959976024,-0.04511506265427955
0.992,0.5814303077290076,0.6466009374612537,-0.9366778019146269,-0.11014564043056715
0.994,0.5785103023218885,0.6450509418557635,-0.9951270368557635,-0.23236360710418405
0.996,0.5755546868605894,0.6431456470749704,-0.9356277305893239,-0.2685500747390273
0.998,0.5725704942133891,0.6416070722996886,-0.8766241732673611,-0.4189288885721983
1.0,0.5695324376830373,0.6396940344872528,-0.8213187649592567,-0.3484685712975935
1.002,0.5664656302737243,0.6381476055576373,-0.6847182846928401,-0.588656007745704
1.004,0.563361900817976,0.6362271308072662,-0.8319741011428231,-0.5648129259279333
1.006,0.5602215655606799,0.6343236414373441,-0.9461569274150137,-0.5239857317348854
1.008,0.5570525529727468,0.6327830433552631,-0.840033448992823,-0.5994064474688995
1.01,0.5538294218309087,0.6308587119383129,-0.8942768832246748,-0.5331349645263095
1.012,0.5505768039680649,0.6289392687487515,-1.004317366064804,-0.5841377627429251
1.014,0.5472902972249168,0.6270264251232306,-0.908234918789937,-0.43185024664196503
1.016,0.5439733105000001,0.6251010040646088,-1.036451436325676,-0.3460222802382149
1.018,0.5406019877572434,0.6228034826018375,-1.0749840213846797,-0.21942592969168356
1.02,0.537202317183097,0.6208708741393687,-1.116087531700417,-0.2573518440262061
1.022,0.5337669981011063,0.6185703812312091,-1.0374268280063133,-0.21165618261465158
1.024,0.5303018936723622,0.6162583925924511,-1.3568865359861444,-0.022434837617773533
1.026,0.5267852024257142,0.613581121649804,-1.1185071876665478,0.04721453144294027
1.028,0.5232441396881259,0.6112766769053121,-1.1437429162857313,0.09091762304204383
1.03,0.5196627446524528,0.6085939911327003,-1.245463080154184,0.03235542060344214
1.032,0.5160562209659132,0.6059200874341094,-1.330217195530965,0.10137406167798849
1.034,0.5123901363307106,0.6032174273915469,-1.2932381620142466,0.04847908045589458
1.036,0.5086983116816662,0.6005419297180563,-1.475017241180564,0.0002685619790041994
1.038,0.5049660779818702,0.5978390838895815,-1.324240395991368,-0.08997850200947129
1.04,0.5012004698787156,0.5951400211403216,-1.2979632062584874,-0.22555365471006553
1.042,0.49739542384893287,0.5924563180271785,-1.3401782909030873,-0.25243813168065327
1.044,0.4935592056697259,0.5897861961191612,-1.36345351517326,-0.3967963077281935
1.046,0.48968825193860066,0.5874710961293699,-1.2234850759060643,-0.4721092215621879
1.048,0.4857876000725086,0.5847928993365237,-1.4205263130067352,-0.5608300817666312
1.05,0.48184940809233884,0.5821418297035093,-1.3152937251575556,-0.5863175907261876
1.052,0.47787231145974957,0.5798248382952812,-1.2904721748143468,-0.47610720226930414
1.054,0.47385737115916915,0.5771418030427249,-1.406611601777712,-0.46817606460135297
1.056,0.46982303715023416,0.5744574679162024,-1.4762737748292565,-0.37545326039162025
1.058,0.46570885963888886,0.571356920529559,-1.4723167100482717,-0.25189504614934444
1.06,0.4615884068168813,0.5686570662115292,-1.4159309238928062,-0.21375657557586947
1.062,0.45743240515256256,0.5655904902148908,-1.5071214311583343,-0.0782169280579883
1.064,0.45324288308869815,0.5625189454552942,-1.5195517054363137,-0.013407661358959055
1.066,0.4490177087736186,0.5594473117762987,-1.6425061329592414,0.021952920110024737
1.068,0.4447703219476695,0.5564034346508221,-1.6043606920497975,0.03123185128008101
1.07,0.4404763533678188,0.5529525594524094,-1.6524749349076813,-0.08387060351180821
1.072,0.4361478299755545,0.5495092892334723,-1.6757684559422275,-0.11684811718284693
1.074,0.4317829901613058,0.5464310701033777,-1.660388366424005,-0.15214166512231606
1.076,0.42737257029436304,0.542954475545606,-1.6386963997968564,-0.2699710667961419
1.078,0.42294203518433293,0.5398738893305903,-1.5867714077745976,-0.38508183722874184
1.08,0.4184762424442723,0.5364353863862283,-1.7496984556680961,-0.4450875502832976
1.082,0.4139778367703281,0.5333692885379164,-1.6417673635024805,-0.5684979418685329
1.084,0.4094570227070406,0.5303158816218125,-1.619253049024183,-0.5093352089740213
1.086,0.4048873667371429,0.5268627842863248,-1.604373829794872,-0.43557081078846155
1.088,0.40029407941139994,0.523795041481932,-1.6497277249873583,-0.3055894159175909
1.09,0.3956618888057007,0.5203307472081404,-1.7891488037667023,-0.28660665319034057
1.092,0.3910127299583134,0.5165198955178336,-1.9365793782166445,-0.08011094091545574
1.094,0.38629353919669007,0.5130422149440684,-1.7376326779716187,-0.010689719122788266
1.096,0.38156931296741076,0.5096026012993173,-1.751317254044197,0.04710152934327464
1.098,0.37680059866996546,0.5061210712999761,-1.822473288230548,0.020805506385204692
1.1,0.37200547567008957,0.5022701393035693,-2.0366483436653935,-0.0630609594252119
1.102,0.3671716799712719,0.4984282790820024,-2.0014967800667463,-0.12171386653087007
1.104,0.3623139413444577,0.49459298778118294,-1.897230218206654,-0.24466920036024326
1.106,0.35742622926922163,0.49075630389395203,-1.9643385916003817,-0.3925146136547775
1.108,0.3525133100045254,0.48693375654713644,-1.8775596304252886,-0.5252786585305209
1.11,0.34756716139980937,0.48350951655558205,-1.7660209640752622,-0.5908559986802242
1.112,0.3425877545431127,0.4796713287690285,-1.8644590116843112,-0.4090346607636516
1.114,0.33757369695214917,0.47582659389411347,-1.8360409298256544,-0.36111198030960556
1.116,0.33254895922687466,0.47201405228385074,-1.9684663733225027,-0.26051335467061243
1.118,0.3274444012491057,0.4681281255722474,-1.940185547,-0.14904408878827324
1.12,0.3223402140512698,0.4642713412749702,-1.9458947711507748,0.04350978782181168
1.122,0.31720634532955766,0.4600517745694693,-2.089517649686583,0.0193115013960644
1.124,0.31204408198823946,0.45584790345980253,-2.1590873437637517,0.015500027108603666
1.126,0.3068707974058403,0.4520435168721139,-2.1382085164709896,-0.13126283545806916
1.128,0.30165150650441214,0.44743499111773827,-2.1238558260938802,-0.13450088647846833
1.13,0.2964013068619456,0.44321294746166684,-2.08994964314284,-0.28318575504566595
1.132,0.2911245994411589,0.4389924633965661,-2.05005294272052,-0.36872897897293433
1.134,0.28581867510990583,0.4347723739794921,-2.1512136661974486,-0.4809753077207583
1.136,0.2804867777072851,0.43056322134502506,-2.1619233735182535,-0.4539163870508232
1.138,0.27512566880738976,0.42671175330901284,-2.0311643480565094,-0.3998933535830949
1.14,0.2697388451595656,0.42249191697515526,-2.106877792646202,-0.20633262123578594
1.142,0.26431966256064754,0.4182521733918774,-2.02998077281748,-0.14140683992613703
1.144,0.25888653845822907,0.413676949612031,-2.246335815834425,0.04677708894163192
1.146,0.2534214845267676,0.4094504224612172,-2.1277695230268496,0.012018098699284009
1.148,0.24792664500430367,0.4048411268528846,-2.2327018153153846,-0.013881443183173078
1.15,0.24239275296146964,0.4002006393872432,-2.3183220934589106,-0.1684800486837076
1.152,0.2368456824535812,0.39558891394282314,-2.305596009310542,-0.2799058139710542
1.154,0.23127773003053437,0.3909873723992831,-2.182128273877061,-0.34549628592258064
1.156,0.22568139404482596,0.3863745114104184,-2.3887272079469546,-0.4528632492887114
1.158,0.2200643083747927,0.3817893054463363,-2.2720911643062474,-0.41544058679438706
1.16,0.21445545756400144,0.3776116462071232,-2.112988741054022,-0.3257231012458468
1.162,0.20877601260960782,0.3726233354331743,-2.3032347372911697,-0.27643178480250596
1.164,0.20308663719127115,0.3680151811748302,-2.3514667349872482,-0.04780833419675843
1.166,0.19737268655765097,0.36340127710968284,-2.3333291294969967,0.0966736165066074
1.168,0.19162994845861697,0.3583907377993315,-2.5172959889214512,0.03574084496096455
1.17,0.18586201439055794,0.3537662040712666,-2.4482132188695234,-0.10617177266563209
1.172,0.1800827499163489,0.348773405861293,-2.52481226850375,-0.0666043874225503
1.174,0.17428438451884887,0.34380954322005636,-2.5567550809376467,-0.3688672155360498
1.176,0.16847565602465167,0.33926433980954657,-2.2874503539427207,-0.4349123095632458
1.178,0.16263852785809682,0.334272365748503,-2.391058413952096,-0.5401895033952095
1.18,0.1567729423172389,0.32927292004793707,-2.417061522350584,-0.3237417947672311
1.182,0.15088935509606674,0.3246467407477992,-2.292202074164168,-0.2901121459915536
1.184,0.14498586413916786,0.3192950048186092,-2.431649769716283,-0.19184212163697723
1.186,0.13904609118809638,0.3142547831088565,-2.4371973250444023,0.0788019237364526
1.188,0.13310180006506972,0.3092623685224645,-2.470845888585866,0.02685156310690025
1.19,0.12714448598589043,0.3042785900682409,-2.609603638720661,-0.031803409905548995
1.192,0.12119678504481894,0.29932808444597647,-2.524581691976465,-0.10656847240817782
1.194,0.11518582760641086,0.29397172274594074,-2.624062443641356,-0.3501516751757402
1.196,0.10917434878668575,0.2886038374951653,-2.522972647818431,-0.4427143577554017
1.198,0.10314019709746217,0.2835995990596303,-2.6274590377677995,-0.4955312077911747
1.2,0.09709531049407824,0.27823652917215186,-2.645037042524051,-0.36185988781844486
1.202,0.09101260938073669,0.273195454531849,-2.5412662901431124,-0.17517136906226932
1.204,0.08493413507728086,0.2681838568089096,-2.5472113913235397,-0.11319690315096143
1.206,0.0788382673672619,0.2624516058842143,-2.756622520728846,0.08572421729698981
1.208,0.07273978077206929,0.25748408503950587,-2.583418393707959,0.04235177605314066
1.21,0.06664554684518581,0.2522265322185025,-2.6941525439082072,-0.11227283324478042
1.212,0.06053247899628297,0.2464427206721982,-2.8271629124973545,-0.2638744565832131
1.214,0.05434825847579299,0.24103630763988557,-2.6899672125649063,-0.41844483483108835
1.216,0.04818355190723739,0.23602846622537563,-2.6553738505590267,-0.4704843577178631
1.218,0.04200712086277791,0.23028256293178256,-2.6399455263871277,-0.4172167429163553
1.22,0.03580400788094387,0.2248547673234245,-2.674561322474911,-0.2701341087507729
1.222,0.029607619845493562,0.21948450484609888,-2.76364485902835,-0.1608024942128648
1.224,0.023398024978946115,0.21374983855423388,-2.8288102099144976,0.10607059788717466
1.226,0.01719101277544946,0.20844239781813836,-2.7596293350749193,0.04483279140052575
1.228,0.01096849579527559,0.20304942252561806,-2.7625560607889645,-0.037504965205302755
1.23,0.004723859088200239,0.19729457183685403,-2.81624287809679,-0.19521056882826113
1.232,-0.001524345075730471,0.19190723639508822,-2.767749266043276,-0.3616187564661421
1.234,-0.007783748391252532,0.18616399028049505,-2.732872833022254,-0.4600716574574557
1.236,-0.014048420915053764,0.18079038728990227,-2.7120283958110747,-0.4285918202616721
1.238,-0.02033485043031172,0.1749692844152026,-2.9205728050692006,-0.2883924168938688
1.24,-0.026626012986188833,0.16921741843060328,-2.896122820574019,-0.11590914713523764
1.242,-0.03290577793284027,0.16384837692883672,-2.7761586698068768,0.08859722720162932
1.244,-0.039201512657741286,0.15769834468987193,-2.93409231038176,0.05504406092931688
1.246,-0.045488882947937716,0.15197418285653308,-2.9119450453739626,-0.14287518878942376
1.248,-0.05177497337697274,0.14624953841835148,-2.9456836306802248,-0.2526042603505204
1.25,-0.058100601893551075,0.14047418773104434,-2.8922450620095375,-0.34171934917453506
1.252,-0.06441215528510132,0.13472002177189848,-2.8443788946176856,-0.41930455752139195
1.254,-0.07072431933713065,0.12896928378851608,-2.8268607590562382,-0.32518329147329866
1.256,-0.0770112857529993,0.12326911373737373,-2.875204850326599,-0.20677788722222223
1.258,-0.08324940263597277,0.1176649685210728,-2.8603409559399746,-0.012046385704980872
1.26,-0.08958431314692114,0.11151315649032027,-2.9091280754431166,0.08403398778979446
1.262,-0.09594985421311866,0.10528515991213389,-3.0077469136138673,0.00811491707949791
1.264,-0.10227570830325426,0.09951608195814951,-2.9735599495425062,-0.14174663742601645
1.266,-0.10859953436337624,0.09376025635316561,-3.070855061191845,-0.2949778882661262
1.268,-0.11492270402883355,0.08799933864378193,-2.9075232106178883,-0.5258853396341608
1.27,-0.12124057813432837,0.08189001655410645,-2.9044761353373283,-0.41716797785301374
1.272,-0.12752460171514496,0.07621702522257016,-3.0006197502774903,-0.2860822792385885
1.274,-0.13389823047868146,0.07040068580307397,-2.863034595677954,-0.045142094525936594
1.276,-0.1402248959570596,0.06421773376746423,-2.975517257246363,0.09814930894902008
1.278,-0.1465251266082536,0.05803873655414239,-3.016907610220017,0.08356954883739451
1.28,-0.15285463070394736,0.05229013255137028,-2.997161447263431,-0.0992398724418689
1.282,-0.1591791192825828,0.046091023481811697,-3.0391503304750356,-0.23387599931633382
1.284,-0.1654734334720534,0.04034090802952029,-3.0074996102435425,-0.42301166717343175
1.286,-0.17176472207574134,0.03422315885075341,-3.0237188042053336,-0.46688900810882566
1.288,-0.17804612211270296,0.0284376642423521,-2.8929820439370313,-0.30936310845351744
1.29,-0.18433398205950965,0.022311826558691544,-2.994279323670997,-0.12548875471374585
1.292,-0.1905972964518439,0.016227642454064453,-2.987318140349447,0.013884045285473786
1.294,-0.19686569187575434,0.010041703405088523,-3.0628555216884745,0.10281529862211279
1.296,-0.2030787334457918,0.004007571440727273,-3.0500988580506667,-0.06174921828363636
1.298,-0.20936821556842608,-0.001854509819731157,-2.9978569720597696,-0.1813912299494719
1.3,-0.21561429426583187,-0.008030525880932556,-3.1382315874637805,-0.3663696490274771
1.302,-0.22184178796373796,-0.014155232300820744,-3.100440502517783,-0.44485427472998695
1.304,-0.2280405427901028,-0.020266824330305928,-2.9570751005616636,-0.3930349826610899
1.306,-0.23425886872803048,-0.026047767917425767,-2.979492759620963,-0.20925462328510588
1.308,-0.2404426800390075,-0.03215315723995201,-3.101644175954289,0.02416482933305339
1.31,-0.2466208050979534,-0.03869641653135236,-3.058902103347684,0.14490933810294807
1.312,-0.2527407415513436,-0.044723958338917215,-3.023813212846808,0.03407708776474873
1.314,-0.2589261640481698,-0.05096915227878211,-3.0401791062779497,-0.12611973027235965
1.316,-0.26506145674943354,-0.05709379858615751,-3.1201543482875893,-0.29088860816276846
1.318,-0.2711814337614352,-0.0632378189007979,-3.128762034683816,-0.39694123087721805
1.32,-0.27726417892150296,-0.06936999876851298,-2.9998850407843043,-0.38552977084029194
1.322,-0.28337152974588403,-0.0755154482184553,-3.1554441265299036,-0.23261264969726633
1.324,-0.28944296638979616,-0.08127609218701608,-3.1270492670327577,-0.11268627805181657
1.326,-0.29549141328413414,-0.08705438721415824,-3.004232021569185,0.13595147844735278
1.328,-0.301508964973747,-0.09356338771028817,-3.0561326660946655,0.053129846343296025
1.33,-0.30752511000309934,-0.10005112456201597,-3.027792312741451,-0.05204015119671154
1.332,-0.3135154352663173,-0.10581436494126008,-3.0191854872488157,-0.33439984798709144
1.334,-0.3194794650374198,-0.11191336019532555,-3.070207114717863,-0.4237450677178631
1.336,-0.32540873206231274,-0.11805420489264652,-3.1009381197266817,-0.310480105126369
1.338,-0.3313646861568276,-0.12424925941783029,-3.0822695391611172,-0.2683503449022556
1.34,-0.3372699025176442,-0.13039386551558582,-3.0208100958925117,-0.07928150696847008
1.342,-0.34314975622581795,-0.1365268720530627,-3.0294714890550805,0.1253417061305793
1.344,-0.3489951812275821,-0.14227125070244778,-3.0605353514380895,0.08190520824489553
1.346,-0.35483465992307694,-0.1484183830104962,-3.02950216996541,-0.07347238911724714
1.348,-0.3606425251728248,-0.15457413334167858,-3.0676297231664282,-0.2613465419222699
1.35,-0.3664197543754461,-0.1610661173806636,-3.1390769559640863,-0.38635017357688195
1.352,-0.3721615677501792,-0.16682139070697896,-3.086589543199331,-0.41438821226051625
1.354,-0.3778987662684788,-0.17297497575751072,-3.054737467585837,-0.27665638845922746
1.356,-0.3835949701035591,-0.179096610415054,-2.9924295446697142,-0.0803047243355099
1.358,-0.3892548405900917,-0.1848418411344638,-2.9772454355697398,0.13178438743432053
1.36,-0.39488765024319805,-0.19098902503269918,-3.005210758301427,0.20127752260939358
1.362,-0.4005017886653938,-0.197112982622994,-3.005140384214371,-0.025931674949940118
1.364,-0.40608479810314807,-0.20326401237523833,-3.042991420270972,-0.22734540021580074
1.366,-0.4116311578068277,-0.20901449439964306,-2.951869775850684,-0.32824465689113624
1.368,-0.41713390773554704,-0.2147722190172002,-2.9140547430881507,-0.41801011725131393
1.37,-0.422624469367235,-0.22092146483084815,-2.9653102091158297,-0.2892818979556245
1.372,-0.42807269078862664,-0.22704815944453713,-2.9609399814837367,-0.10441913831109258
1.374,-0.4334849410089021,-0.23281337097610597,-3.031750572520109,0.08012119328045895
1.376,-0.4388408469415561,-0.23890543031553746,-2.8920184599379937,0.14561739569679197
1.378,-0.4441965902450805,-0.2450553989838998,-3.077479207953488,-0.0037817960065593317
1.38,-0.44950525708808786,-0.250812721114135,-2.9151335186830116,-0.16604087287015945
1.382,-0.4547796168283369,-0.2566124886497269,-2.9169832554725716,-0.31472874005545
1.384,-0.4600013027292488,-0.26271427110470263,-3.029576643399186,-0.41808158143077656
1.386,-0.4652031357206391,-0.2684878743704937,-2.906733534354313,-0.32442341807483643
1.388,-0.47035816544547726,-0.27423226134583684,-2.9954668311505195,-0.17868440204611158
1.39,-0.4754708308275821,-0.2799976092591098,-2.934375873178279,-0.0326954881937092
1.392,-0.4805360782,-0.2857271640501672,-2.809174955677258,0.17434839075250835
1.394,-0.48557949657142857,-0.2914922013955561,-2.914444571822006,0.141603815184173
1.396,-0.4905638745922747,-0.29722824268550985,-2.931384864124389,-0.0789136064230173
1.398,-0.495513044167818,-0.3029855763313843,-2.8720180480843673,-0.1578083900995227
1.4,-0.500415354665313,-0.30874633946620494,-2.94228742959016,-0.3206099050630523
1.402,-0.5052861695142482,-0.31450930743235506,-2.88720931826891,-0.4153587168503937
1.404,-0.5101047521981885,-0.3202537828779936,-2.8325479920701775,-0.28171410680781606
1.406,-0.5148752192820757,-0.3256347816165199,-2.823280248609617,-0.10620766576767436
1.408,-0.5195953613667622,-0.33138092610302017,-2.7731090213935774,0.036134427580756835
1.41,-0.5242824697264713,-0.3371275633034696,-2.768238314038498,0.16340167687024715
1.412,-0.5289124698768021,-0.3424943393313856,-2.797418457436084,0.0799671319953494
1.414,-0.5334952496651616,-0.3482360676060786,-2.87230037255479,-0.04228797101329693
1.416,-0.538018941279521,-0.35359826529642086,-2.7790163894311792,-0.20198335323744895
1.418,-0.5425270121938947,-0.35938039378008346,-2.7604976622176505,-0.3249044018971973
1.42,-0.5469667073541468,-0.36475372278956775,-2.6303096622025723,-0.438413199484816
1.422,-0.5513521591133713,-0.3701180129213189,-2.7189564716383763,-0.28235878970467804
1.424,-0.5556809258210024,-0.3754808102210301,-2.7352208311244635,-0.17303598986051502
1.426,-0.5599704913758493,-0.38085219276029514,-2.7774715541278265,0.07071471748250417
1.428,-0.5642027824853397,-0.3862136442789035,-2.7623918323969012,0.1847345350455304
1.43,-0.5683815602515446,-0.3915816561125163,-2.667377748494386,0.1375363234156719
1.432,-0.572495411450347,-0.39690880750902524,-2.646161020429603,-0.0037540894151624543
1.434,-0.5765819460608664,-0.4023155262530783,-2.567909295709145,-0.17289296121888822
1.436,-0.5806034012228845,-0.407330283250417,-2.584512359557541,-0.26510768212568503
1.438,-0.5845634469671663,-0.41268335131440476,-2.594572158022381,-0.3716646253475
1.44,-0.5884615380874343,-0.4176641001738092,-2.583623541651546,-0.3318046293914289
1.442,-0.5923169503582588,-0.42265826528890216,-2.449619320298926,-0.19475326218210023
1.444,-0.5961092008573128,-0.4276637829981007,-2.5583820760498575,-0.11885827945441595
1.446,-0.5998360539871337,-0.4329998160435873,-2.40962105757989,0.16946970050716503
1.448,-0.6035077448042934,-0.4379942183961232,-2.483646679994292,0.09948402012581757
1.45,-0.6071243625905511,-0.4429707230106281,-2.5300794848021257,0.1267083008137091
1.452,-0.6106815359471051,-0.44796531082093105,-2.466988925244553,-0.014666336377068698
1.454,-0.6141734649789612,-0.4529459788595218,-2.479024269491376,-0.19770917313964553
1.456,-0.6175978482646179,-0.45791084591394765,-2.5235657237949085,-0.27850329346109715
1.458,-0.6209791476461318,-0.4625259342574471,-2.3502060577432706,-0.34358325354599834
1.46,-0.6242930134325743,-0.467159573972093,-2.3781628629023257,-0.2555534713674419
1.462,-0.627539013469497,-0.4721332252154834,-2.301840081877988,-0.22214209204495183
1.464,-0.6307147011405018,-0.47672641498207885,-2.341495514,-0.013645623536439666
1.466,-0.6338395532380952,-0.4813249469498753,-2.3367150671545316,0.054257061161895714
1.468,-0.6368891151276672,-0.4855557706661502,-2.2163583486895115,0.19251741238665077
1.47,-0.6398770915427213,-0.4905285204733341,-2.3050351818276518,0.1809703300264877
1.472,-0.6427912379190579,-0.4951159247088517,-2.351137024190311,0.09144909177057417
1.474,-0.645655607327251,-0.49972205119372537,-2.2658069688056783,0.03938939129011094
1.476,-0.6484459915905625,-0.5039579907459486,-2.195531159692803,-0.17205217445519544
1.478,-0.6511660347377556,-0.5085459643189061,-2.2066370833871582,-0.18227209001236622
1.48,-0.6538130929788378,-0.512755156371012,-2.100501105337794,-0.38038434359660656
1.482,-0.6564053773175966,-0.5169849788877757,-2.055180767682886,-0.23345739113846153
1.484,-0.6589210634907595,-0.5211933720714967,-2.0316533165009534,-0.19691816956577693
1.486,-0.661367285684492,-0.525040245489774,-2.162872972101902,-0.06060181417514863
1.488,-0.6637362076689383,-0.529249853602964,-2.2440713015538427,0.01948039952312657
1.49,-0.6660473004968546,-0.5334645484674474,-2.1050699850168617,0.1979958436440281
1.492,-0.6682724335281597,-0.5372413576737709,-2.0186058924930976,0.15697407046015985
1.494,-0.6704403425725499,-0.5415127774238094,-2.0586556300666667,0.17932149797857141
1.496,-0.6725259661004784,-0.5453572442410287,-2.1281197383427037,0.06545288946973685
1.498,-0.6745492405589604,-0.5495773496120185,-1.8384014060286158,0.025116281119112915
1.5,-0.6764932171529748,-0.5534149408897638,-1.8536108958743736,-0.18944326464387973
1.502,-0.6783632494969631,-0.5572408113558553,-1.907115174686284,-0.2220692180533604
1.504,-0.6801571103157706,-0.5606976456387729,-1.832569837609526,-0.30537278496609765
1.506,-0.6818812246918687,-0.5641672344955815,-1.7635609753725698,-0.3425397785086603
1.508,-0.6835225399811321,-0.5679418368309436,-1.6120367305418724,-0.1779745859114351
1.51,-0.6850947501298316,-0.5710556273999763,-1.6149109612131787,-0.23241962620383294
1.512,-0.6865815744236069,-0.5744830491797699,-1.7740767192574305,0.006559670365292426
1.514,-0.6880058250433849,-0.5779530298224766,-1.7767499434373657,0.06361414290956813
1.516,-0.6893459190810296,-0.5814080027588424,-1.6402615746589257,0.1097174636480886
1.518,-0.6906081068245363,-0.58484363351924,-1.6586139430194775,0.1523458247472684
1.52,-0.6917904609408249,-0.5879132074062425,-1.6378454871919397,0.16083790354915092
1.522,-0.6929001140450932,-0.5913738117407925,-1.732549449472261,0.26149942365058276
1.524,-0.6939241739015649,-0.5947470190720807,-1.7724856960732822,0.14508560435199422
1.526,-0.6948755761527811,-0.5978397155188601,-1.4822044855129923,0.09541483227912825
1.528,-0.6957465317374703,-0.6009220610124052,-1.5529705700462484,0.051343963070095144
1.53,-0.6965372730144442,-0.6040093090276217,-1.4366884191976563,-0.13267466324034438
1.532,-0.6972478840659603,-0.606702448726669,-1.4776736282002845,-0.2072503489239891
1.534,-0.6978763082280053,-0.609375438618391,-1.3072451671447067,-0.21367261772413382
1.536,-0.6984252557057142,-0.6120743293100059,-1.3610951980511545,-0.28555630561906453
1.538,-0.698891764002626,-0.6147319753357752,-1.215693321312958,-0.3278174670121292
1.54,-0.6992775227460789,-0.6170486216511031,-1.223355484281662,-0.3222256884629392
1.542,-0.6995803644252298,-0.6193091003837223,-1.1505361049105092,-0.284172053604789
1.544,-0.6998020120112064,-0.6220204160780696,-1.1964966392662646,-0.1516710424997634
1.546,-0.699940876074189,-0.6243048084981949,-1.0755588239999998,-0.09668563705776173
1.548,-0.6999969528697779,-0.626628303464883,-1.1026836035100336,-0.019870924237458194
1.55,-0.6999696597470525,-0.628933557957204,-1.154754294592606,0.06748141217831669
1.552,-0.699859153385745,-0.631229105971223,-1.0806724546776978,0.19693651275971222
1.554,-0.6996646140278601,-0.633543327051188,-1.2099592861138433,0.25978384883295896
1.556,-0.6993881322064517,-0.6358148869566752,-1.101179046582058,0.28589603632587707
1.558,-0.6990250934442853,-0.6377164659615757,-1.0024414271607056,0.1981176044371677
1.56,-0.6985780690717778,-0.6400358084040715,-1.145604115427743,0.3266097696122618
1.562,-0.6980466279444641,-0.6419414469451563,-1.1021245570822655,0.24150721094479705
1.564,-0.6974332657780707,-0.6438686395873205,-0.8737396290480861,0.20490241635933015
1.566,-0.6967281971592456,-0.6457923565753506,-0.8210304290451984,0.12066277219769812
1.568,-0.6959402553249613,-0.6477213719889758,-0.8031779072670696,0.09772219181116644
1.57,-0.695069306242915,-0.6496056323220055,-0.9196927832307048,0.13572784447588848
1.572,-0.694112408963788,-0.6507736120035169,-0.7289128857579132,-0.08454075476084408
1.574,-0.6930694828375925,-0.6522824127824877,-0.782493400976747,-0.13270760198655687
1.576,-0.6919378434214285,-0.6538288824543853,-0.7147089438502994,-0.15192517713021017
1.578,-0.6907236301903913,-0.6549622779946892,-0.6119282593785155,-0.14616355089161134
1.58,-0.6894246178362223,-0.6561170513628507,-0.4803649493440275,-0.24611622847010775
1.582,-0.6880321760079943,-0.6568871972942026,-0.5453210351113784,-0.22905237015107047
1.584,-0.6865554943041557,-0.6580357345488271,-0.4012078683744615,-0.27842229780852085
1.586,-0.6849912320783684,-0.6588053453036182,-0.4199185856387765,-0.30964958915984286
1.588,-0.6833465133328968,-0.6595723560804732,-0.3605220640199133,-0.289990821991449
1.59,-0.681613317278714,-0.6603202015893007,-0.25896790797536534,-0.30725018406315663
1.592,-0.6797863617217184,-0.6607193249229476,-0.2811645841044167,-0.45721348195175227
1.594,-0.6778755334736717,-0.6614776791441399,-0.318358689510397,-0.3664726225741966
1.596,-0.675889285664991,-0.661857748485088,-0.23615893411713978,-0.3094309042306863
1.598,-0.6737981603291667,-0.662231207,-0.13486467951250591,-0.39457871505804626
1.6,-0.6716309621481746,-0.6622389961350181,-0.08004694680938627,-0.2787087918548736
1.602,-0.6693722446755408,-0.662616491,-0.07414184622524989,-0.39244741938624467
1.604,-0.6670345604835546,-0.662616491,0.01763764544367376,-0.3119818731860799
1.606,-0.6645962814137686,-0.662616491,-0.1363943831482609,-0.40715066931678184
1.608,-0.6620881661897461,-0.662616491,-0.033826364580097086,-0.40903657537524274
1.61,-0.6594717434877934,-0.662616491,-0.10615482319211705,-0.30953784008685387
1.612,-0.6567945876935233,-0.6626086308754474,0.03875371957981388,-0.2838879383407301
1.614,-0.6540040322061633,-0.662231207,0.10373809321232547,-0.33015884372701015
1.616,-0.6511332385581616,-0.662219458423447,0.06804189254721463,-0.2782804330283882
1.618,-0.6481848920278865,-0.6618374549310386,0.07693908325649851,-0.20294085558789318
1.62,-0.6451592958724703,-0.6614556793351306,0.23671926393206327,-0.24847688234783133
1.622,-0.6420209916806363,-0.6610705515727358,0.212361262685359,-0.13973485398568747
1.624,-0.6388219236303725,-0.6606931633495459,0.19480610781489005,-0.16564078424916348
1.626,-0.6355203921789024,-0.6603034440976394,0.2177773686902718,-0.0988108642780162
1.628,-0.6321473060129683,-0.6595363633901372,0.345317550659298,-0.13173247587477224
1.63,-0.6286534978818485,-0.6587537933734425,0.23011533345959417,-0.0846426381520114
1.632,-0.6251016481635909,-0.657990654224299,0.4667768388504673,-0.007130846009345795
1.634,-0.6214651880536225,-0.6572294046777188,0.38332242904376657,-0.08058645170858451
1.636,-0.617740607962839,-0.656442011566631,0.437662026960343,0.02954866922150768
1.638,-0.6139209026108199,-0.6553029408810772,0.5421657504025262,0.009067124553265015
1.64,-0.6100266449108546,-0.6545252443013635,0.4396053075317348,0.0015410297000470145
1.642,-0.6060533703557007,-0.6533846087979798,0.5198402862847523,0.0355566081043771
1.644,-0.6020025866636298,-0.6518454990414619,0.6280634761742361,0.15892134714116238
1.646,-0.5978323499216573,-0.6506784588185255,0.6363765020647447,0.1656751506672968
1.648,-0.5936044601755852,-0.6491560308225223,0.7141413538148059,0.17799902033084158
1.65,-0.5892813027076612,-0.6476182269995266,0.7515526725621301,0.25582261055218936
1.652,-0.5849039184060592,-0.6464664322789442,0.8023460383875225,0.3028604660317936
1.654,-0.5804025385043572,-0.6449212057882128,0.9340785843545759,0.39555676516674654
1.656,-0.5758329583183279,-0.6433811563109303,0.7770091880536494,0.4154543770973942
1.658,-0.5711923264482759,-0.6418621303899191,0.7674316704179743,0.46694877754255826
1.66,-0.5664908197636342,-0.6403236663115306,0.8522494878985211,0.574143137695924
1.662,-0.5616570377664242,-0.6384008627118988,0.853314560409118,0.58201742877372
1.664,-0.5567660231933484,-0.6368523921831489,0.8404000107718672,0.6927037467101035
1.666,-0.5517976981737945,-0.6349387691511915,0.8528085785393825,0.6617135765473647
1.668,-0.546776489193765,-0.6330493452043999,0.8737112640211532,0.7250608287309319
1.67,-0.5416176761552772,-0.6311043164699486,0.9805561840517386,0.6845257823007528
1.672,-0.5364074742615933,-0.629171954923059,0.9399347855772908,0.6282122091408253
1.674,-0.531132609747855,-0.6269206234105493,1.110092163,0.532787128412737
1.676,-0.5257680538328351,-0.6245744956751943,1.110896342228691,0.46265477786969517
1.678,-0.5203090294460603,-0.6222553828943914,1.1416414301861575,0.44298661987410504
1.68,-0.5147885406582896,-0.6195672031611521,1.2279015042925494,0.2925478173365865
1.682,-0.5091971331062641,-0.6168756911703545,1.3791536671282418,0.28019780655841064
1.684,-0.5035385745256733,-0.6138125362746621,1.3988401264402726,0.11898411433648212
1.686,-0.4977678179645323,-0.6107353604215617,1.5195139083825195,0.07282414199410238
1.688,-0.49195319692173706,-0.607689979246511,1.5841771549444177,0.06708871378994224
1.69,-0.4860520077279299,-0.6042185854670568,1.6377294975221766,0.15278211111176127
1.692,-0.4801136321831933,-0.6011963908202097,1.7291966106502927,0.2470184933298391
1.694,-0.47402748585680193,-0.5973007364546977,1.6899622462348294,0.1876466762501496
1.696,-0.46790392360819344,-0.5941920494492513,1.6498204322146421,0.39231368581863557
1.698,-0.46172273177419737,-0.5903826590359864,1.7572402803354823,0.41171786117149217
1.7,-0.4554981852919314,-0.5869858569708915,1.7178438718835658,0.4839740377750152
1.702,-0.4491330203015267,-0.5834627331562947,1.7430859473607534,0.48575827789699566
1.704,-0.44272844815357104,-0.5796387130786463,1.738760625684938,0.5045152128612965
1.706,-0.43625925528159015,-0.5761907037933874,1.8287254300404872,0.45948824771542923
1.708,-0.4297671054474064,-0.5728255960471929,1.9169307401048052,0.3197933640214513
1.71,-0.4231149045311159,-0.5685157887611674,1.8602281672948182,0.23902699296307325
1.712,-0.41644208138434036,-0.5650412192544739,1.976672293646027,0.113708496
1.714,-0.40970525486906884,-0.5608195777014218,2.019372153545024,0.11053756052606635
1.716,-0.40291596556411174,-0.5566245509018091,2.0651513562301833,0.023637184624970248
1.718,-0.3960372773164678,-0.5524006308976208,2.276028854887046,0.22374245999915884
1.72,-0.38909727446304243,-0.5477614339356454,2.2298489863518056,0.3574144927361459
1.722,-0.3821027283433864,-0.543159439206741,2.393308459197959,0.447402177546404
1.724,-0.3750708216317047,-0.5385892275850788,2.256312040074841,0.4722735220251824
1.726,-0.3679366838573986,-0.5344090392952507,2.217575315154955,0.522337786168161
1.728,-0.3607505213686971,-0.5293696025616292,2.472588599896222,0.44829496506162925
1.73,-0.35351314401766026,-0.5251719098615422,2.3277287279563144,0.3629089314960611
1.732,-0.34625346792079686,-0.5201867283920577,2.3266708017459683,0.2547943471140794
1.734,-0.33885135280982476,-0.5155287861770113,2.34810347093471,0.13524961152112674
1.736,-0.33143723556945437,-0.5105364053179012,2.4566702197407406,0.06088608903703704
1.738,-0.32397502369779047,-0.5055706187245688,2.562326048970256,0.15621652529982152
1.74,-0.31647598103127983,-0.5005843721377161,2.500806434127249,0.2918417140131718
1.742,-0.3088873439213443,-0.4952839882053123,2.576528495620962,0.4147312629569275
1.744,-0.30125888955128355,-0.4898943184021113,2.580442588773752,0.4906742290117562
1.746,-0.2935654377485165,-0.48449144751553974,2.6345975117449587,0.5544949082608541
1.748,-0.2858639283843391,-0.47914530471389255,2.820885398826732,0.4282809051054206
1.75,-0.2780469171247466,-0.4737541699082613,2.604152134220221,0.33173683662716136
1.752,-0.2702103442558112,-0.46833497349643877,2.7417434991944445,0.2063007022317189
1.754,-0.26233208448363377,-0.4626053060832148,2.761037461355619,-0.02844359815173068
1.756,-0.25444132472384035,-0.4568816146245955,2.929933270390507,0.08406445081661272
1.758,-0.2464266881318328,-0.4510888475206876,2.9044761368540604,0.29678725849140486
1.76,-0.2384149840582061,-0.4449906239221341,2.959176211788032,0.3672966971160779
1.762,-0.23034914883254157,-0.43919162346642104,2.945174797298229,0.46803334625995485
1.764,-0.2222722463818073,-0.4334447798847486,2.980696046451929,0.6329413477220829
1.766,-0.2140939836132952,-0.4272960372631016,3.091701922468449,0.4004482196467023
1.768,-0.20591218184245677,-0.42117738909084407,3.0719641819510017,0.23838228914663806
1.77,-0.19768296000998337,-0.4150374540726925,3.057593409728599,0.07838805565829746
1.772,-0.1894405004021778,-0.4088823347007247,3.197490950464536,-0.010243601030058214
1.774,-0.18110989834857144,-0.4027569033149606,3.1417561632834645,0.2372868753937008
1.776,-0.17278277747216592,-0.39623973386661104,3.1700257314573848,0.3542676769388485
1.778,-0.16441167133432374,-0.39009219378583376,3.1680887809298857,0.5293802809044433
1.78,-0.15602962685314184,-0.3835486648013356,3.155413962634987,0.5836062000109706
1.782,-0.1475592779610575,-0.3766613985657817,3.344419800325277,0.4028314707255625
1.784,-0.13909878640212334,-0.3705212540156549,3.2487761604946224,0.16411356903417781
1.786,-0.13059524842011414,-0.3639733114499046,3.28527779629604,-0.006210734916269084
1.788,-0.12208900746357221,-0.35706435301253736,3.366986773785194,0.10654722439426866
1.79,-0.11350727297825312,-0.35016175241247344,3.4192932474819275,0.24254756057406096
1.792,-0.10495129156873283,-0.34368205966088516,3.3403765554844496,0.4339807315825359
1.794,-0.09633126035283604,-0.33638665173170734,3.5244429057560978,0.5594127005609756
1.796,-0.08770449404765318,-0.3298030266136878,3.41858060131525,0.40902672134541557
1.798,-0.07903766926986774,-0.32289780641473836,3.4551210619340216,0.26427716185617656
1.8,-0.07037046143955651,-0.3160121212386989,3.3595629780841905,0.09893988571298733
1.802,-0.061678863587186494,-0.30870176231465624,3.530409326770759,0.04931992179859624
1.804,-0.05299340491374374,-0.30142801627670485,3.537321400955174,0.23995355590379114
1.806,-0.04425873243478261,-0.2941401860728265,3.5253113159074845,0.3912907678825762
1.808,-0.035498835555780935,-0.2868846904337812,3.671327725952975,0.5974762048445297
1.81,-0.026737327965860598,-0.2795534951387867,3.7010958908372316,0.426482803837825
1.812,-0.018018522787835927,-0.27229842493508,3.651669942922096,0.1968550035089265
1.814,-0.009333455327680916,-0.26521060091421284,3.6294132668970556,0.014168500136795714
1.816,-0.0005268110651085143,-0.25790389308224076,3.714805053149702,0.002809698644338498
1.818,0.00827625282147539,-0.2502324972140217,3.6965141534404435,0.26753832743686656
1.82,0.01708064627667183,-0.24255927917571582,3.82467052357574,0.4136700322961863
1.822,0.025894153417739627,-0.23491344271569445,3.8155457065153855,0.5275477551495782
1.824,0.03471395472045591,-0.22759892812035912,3.7010900228216452,0.3740578948505217
1.826,0.043588721460187496,-0.2197938189470027,3.811880547080438,0.1200535498081498
1.828,0.05237465656827983,-0.21221263579150068,3.780209828567669,-0.07838178637172522
1.83,0.061235111508374615,-0.20444849456830663,4.013795803453898,0.15179598026539676
1.832,0.06996825086973181,-0.19692681540621715,3.9240405287634683,0.314432537996611
1.834,0.07882567916615017,-0.18885497165022047,3.873494823046121,0.49054285931319275
1.836,0.08763927292404912,-0.18118540569955907,3.823158821907758,0.4543009383736146
1.838,0.09644970030916844,-0.1731260742725982,3.8491109535466164,0.215837066665168
1.84,0.10520074835336712,-0.16551091354945574,3.9505744940548984,0.014125232379791769
1.842,0.11409893301422644,-0.15728304854920933,3.9775132550599483,-0.033654485490677365
1.844,0.12283904958362306,-0.14968480906265846,4.0928668175048895,0.2442521390252324
1.846,0.1316586181208165,-0.1415370858311918,4.019526668107155,0.4185488495572321
1.848,0.14038184164757025,-0.13394461878961716,3.8227831436632687,0.5078597702484295
1.85,0.14911983475321583,-0.12555475806030572,4.0032253008692384,0.29593513664282306
1.852,0.15784335981614403,-0.1174846733557463,4.0381613077835,0.04425625135097759
1.854,0.1665584501801716,-0.1094280869109817,3.980106702748752,-0.05494077111231281
1.856,0.17525248545443559,-0.10139634164024244,3.896442693250297,0.1608249063124554
1.858,0.18404242056442743,-0.09309029036797888,4.0899561348053295,0.42391876556649066
1.86,0.19271590819673304,-0.08498249696626535,4.132227779526881,0.531949611089522
1.862,0.2013463143501848,-0.07692670347340806,4.1460911308170765,0.2853187198583353
1.864,0.209950529343516,-0.06885416311351995,3.9445629349313878,0.058468139069207864
1.866,0.21850431415361624,-0.060435689724919486,4.237646765098772,-0.0283507603862579
1.868,0.2270761286054041,-0.052361389328386555,4.106512630513238,0.14435285790525942
1.87,0.23558305086293208,-0.04396699464881946,4.208739155381469,0.34610105034915334
1.872,0.24407089428625953,-0.035895490781913626,4.0669476911104745,0.48566362860009543
1.874,0.25253019514236524,-0.027463913751454006,4.228833631505875,0.3047428456141246
1.876,0.2609214316684236,-0.019429433566010564,4.094192773011522,0.0783317808106097
1.878,0.26934708154691783,-0.010934493901944412,4.128687173249433,-0.06317701305749732
1.88,0.27769822892047213,-0.0025030001627130765,4.220748217729884,0.14627723269972584
1.882,0.28600873612477695,0.005565387481618085,4.275590202195835,0.34187842318643663
1.884,0.2942624586866277,0.013975020103546775,4.1024857676100925,0.5231221231990002
1.886,0.3024957553501848,0.022031646252593916,4.223687433897317,0.26411914198497316
1.888,0.3106828297025384,0.030461790756950245,4.023280731619496,0.03365157915093664
1.89,0.3188203911705693,0.03853780386591315,3.9527154060011895,-0.13976068966698396
1.892,0.3268927532317627,0.046961481794321164,4.203488595704963,0.11746562609782868
1.894,0.3349643066843739,0.0554083459062201,4.253801882763637,0.29803569150382775
1.896,0.34297104453355587,0.06386029185983313,4.093130223645531,0.46955568746054827
1.898,0.3509160995691686,0.07191452126380296,4.1654067316776535,0.23066244262446453
1.9,0.3587942201151595,0.07997046529304991,4.061264409505135,0.009899634159302605
1.902,0.36664829071841887,0.08842395649316696,4.147034260723708,-0.11850252997742126
1.904,0.3744233195302109,0.09683772672831267,4.157786675762631,0.051650009931839845
1.906,0.3821466259147646,0.10525949731723563,4.169987614121565,0.2939925021606994
1.908,0.3897960051458109,0.11331092067805111,4.136910674665392,0.4826438321430619
1.91,0.39742364744877756,0.1217521653324982,4.072423579015509,0.2970052153761632
1.912,0.40497341898102174,0.1298273788892212,4.090926721533318,0.0273165829510707
1.914,0.4124656902479181,0.13828171590254643,4.150681200606378,-0.17221789529283674
1.916,0.41987032625594173,0.1463239020982452,4.020410693443357,0.055736700806016476
1.918,0.42723693347847347,0.1544050104341603,4.073507250336593,0.27823219109267655
1.92,0.43452508969689396,0.16283345898076007,4.079064228122328,0.43642280084346796
1.922,0.44172838624759303,0.17085872293582124,4.145975948889945,0.2509255976665082
1.924,0.44885601662123387,0.1788919750874088,4.124647240800072,0.019470564622982182
1.926,0.4559502937181688,0.186971829411323,4.05707332676317,-0.17476251316197855
1.928,0.46295125847965146,0.1950136471835905,4.069163523272695,0.0030964960757086475
1.93,0.4698840305437678,0.20273827868434824,4.033789797378211,0.2104941883652474
1.932,0.47671868183793475,0.21114640036612478,3.9984740479710736,0.41018716645087255
1.934,0.48350710286518056,0.21920925425971857,4.075978543622943,0.27260125164512283
1.936,0.49019933778757896,0.2268984211940672,3.984321185402788,-0.0008427690600428866
1.938,0.4968089130159088,0.23493273109918236,3.9649416942413795,-0.1765480150785638
1.94,0.5033143323718623,0.2425734177319871,3.8453769281035965,-0.14452485901421913
1.942,0.5097767252293108,0.2506342935641332,3.962997009731416,0.13496032278296147
1.944,0.5161400591001073,0.25831361507102846,3.815135728872959,0.30653474227565247
1.946,0.5224134292961287,0.2659974622601432,3.8445615658797134,0.3156015617579952
1.948,0.5285964807809365,0.27404872103823175,3.757409696223178,0.1140912456078853
1.95,0.5347066384046512,0.28173800375065616,3.7131730392177285,-0.06232533753173467
1.952,0.5407163702576263,0.2893999612776653,3.7501351052162,-0.17562467338653961
1.954,0.5466299435821534,0.2966976167309294,3.75510456912555,0.018528702156372725
1.956,0.5524427656249105,0.30435694915461464,3.730893393977878,0.23391970073049478
1.958,0.5581753844262217,0.3119981746748181,3.7102450686056305,0.3628765452132888
1.96,0.5638078604351974,0.3192920607205672,3.6670104248605817,0.2516055244974976
1.962,0.569343658637206,0.32657682844332225,3.6938177593361456,0.010066279642823195
1.964,0.5747649562035217,0.3338561727518003,3.614377425036966,-0.1617177653518963
1.966,0.5801279807424008,0.34156485019556665,3.5800439594504825,-0.17715949141222737
1.968,0.5853645844241774,0.3488514277938439,3.7287433026478167,0.06665380636793128
1.97,0.5904997945326514,0.356130410401808,3.768751191323183,0.24939313616521946
1.972,0.5955211137727273,0.3630196712365758,3.6207728389760687,0.34301276726955593
1.974,0.600452439515556,0.3699299070995238,3.504714473935238,0.17664867039999999
1.976,0.6052740756021454,0.3771963418726145,3.345702652162452,-0.010473826876669846
1.978,0.609987107654861,0.38410448278094894,3.3953942738084195,-0.2385351061065525
1.98,0.6145815900076537,0.39099380213472806,3.3791378470191273,-0.18709416717740587
1.982,0.6190930353182144,0.39790644373665945,3.3363207804393396,0.03337106733405121
1.984,0.6234848515589603,0.4044643356802908,3.4656915070781698,0.1940385763443756
1.986,0.6277606536943023,0.4113530316655558,3.4533365726991194,0.3629568170437991
1.988,0.6319148468911719,0.417864208229097,3.394340278698997,0.20807334534280936
1.99,0.635971819532333,0.4243974945115892,3.268396147654107,0.018462789697848567
1.992,0.6399023099395782,0.43090056667067655,3.281387661997975,-0.12014955135373988
1.994,0.6437187675666746,0.4374024504179743,3.1539716353063483,-0.23575524405777462
1.996,0.6474103873203826,0.443536752989456,3.2622523587021326,-0.10522298621375509
1.998,0.6510032630577083,0.450075653557777,3.2313901677314054,0.06306274345055338
2.0,0.6544686593265719,0.45620417094716803,3.1502453472931937,0.18286029182008567
2.002,0.6578157585243757,0.4623315017755248,2.9757340482084924,0.27284961416913167
2.004,0.6610318825417165,0.4684593866663079,2.9606338298062433,0.19299350371080015
2.006,0.6641417333513772,0.474232733028053,2.9902516243717323,-0.0644809126744658
2.008,0.6671209115722461,0.4799944437854077,2.8759079911101573,-0.13383347980829757
2.01,0.6699758204402135,0.4857466034631641,2.919486867375797,-0.25531661118394333
2.012,0.672694645074136,0.4914481482962786,2.7920186624885726,-0.2183601024664353
2.014,0.675307550211135,0.49722247611547177,2.8074766736859122,-0.030294060493856616
2.016,0.6777870344111615,0.5029686919833035,2.8698166501723312,0.13819341382564104
2.018,0.6801392694524291,0.5083399776049383,2.7895710358888888,0.18381509991073122
2.02,0.6823567332917715,0.513690698899002,2.813407092582662,0.2721462054431886
2.022,0.6844617089725635,0.5190925745722977,2.6091402054198283,0.12176750009377237
2.024,0.6864286799251401,0.5240827731427039,2.3496260380654506,-0.09836889467703862
2.026,0.688264153737736,0.5290694833804206,2.441483464423191,-0.10540708985885708
2.028,0.6899637912201648,0.5340269523797498,2.4567565834184633,-0.2565081411342466
2.03,0.6915403855738643,0.5386398910411139,2.310539831945142,-0.19203076741831004
2.032,0.6929819590428979,0.5436388557838545,2.387838625654619,-0.13491378850731184
2.034,0.6942898238201096,0.5486008031078466,2.4355177977015408,-0.05070486306950913
2.036,0.6954644169706092,0.5532121025208457,2.202864922291124,0.09052696718659659
2.038,0.6965074677883629,0.5578107421521765,2.3302091049868814,0.17825584214358975
2.04,0.6974136983796021,0.56203203299869,2.2293548089704656,0.19704158804334881
2.042,0.6981844113397192,0.5662479309517857,2.0527180264467857,0.13334827028142857
2.044,0.6988188951842577,0.5704609569439419,2.0032859607589857,0.039240622021542486
2.046,0.6993186595,0.5746624094139089,2.01499166869976,-0.07658959089304557
2.048,0.6996822462138516,0.578519677312649,1.922847151689495,-0.14796921512827535
2.05,0.6999075392681477,0.5823371344367275,1.7639889707121836,-0.20662793608769864
2.052,0.6999956216243884,0.5857582968947368,1.823532304868421,-0.22499224992105263
2.054,0.6999460008278074,0.5896231300059489,1.8531803101927424,-0.3144072329696609
2.056,0.6997591189282394,0.593438526160708,1.810736367882546,-0.20710087296096588
2.058,0.6994331715693116,0.5968410151946667,1.8640277980349091,-0.10571364484484848
2.06,0.698967021629409,0.6007145219088743,1.7743753131441335,-0.08412720255985706
2.062,0.6983632228604845,0.6037808705985289,1.7360758958099418,-0.013892198102384623
2.064,0.6976230665406149,0.6068352643373077,1.509406310160725,0.15376204203803506
2.066,0.6967370152005484,0.6098953628448607,1.5979888450523534,0.13297373987367916
2.068,0.6957139520883933,0.6125996652429251,1.3005722944206897,0.19185410777562426
2.07,0.6945506807310845,0.6152764084555189,1.2502996137602966,0.10029051495469522
2.072,0.6932525937743516,0.6179214551135601,1.2907064485392907,0.09403872101149977
2.074,0.691806171037121,0.6202339905490668,1.1548700969403973,0.15729110467971102
2.076,0.690220790211908,0.622546296814868,1.1737866624250028,0.0494095233783913
2.078,0.6884955207051816,0.6244819989223116,1.0682009679715776,0.09360887618569398
2.08,0.6866330326550161,0.626757863554955,0.9660134530324325,-0.011331863639639641
2.082,0.6846274650953231,0.6287041195129571,0.9931263496361378,-0.19339094489232045
2.084,0.6824864451656332,0.6309668844951654,0.9236534026258804,-0.2977870118226095
2.086,0.6802013660394659,0.6325265558474212,0.8674128722310172,-0.31921947453533905
2.088,0.6777765286169379,0.6348077086527893,1.007076793787677,-0.3540421259450458
2.09,0.6752213205101968,0.636348257766823,0.8437223045018758,-0.28544251136447835
2.092,0.6725158077471032,0.6382311473239062,0.8636996611382645,-0.5170277624636209
2.094,0.6696659799495408,0.6397865831713395,0.6915221762336449,-0.4417487174844237
2.096,0.6666808817893607,0.6413164530873348,0.725458571496366,-0.46310976439938045
2.098,0.6635568137650208,0.642466069400881,0.5794282146563877,-0.39426907751101326
2.1,0.6603015157941177,0.6436167985983459,0.5411422122750809,-0.336200533494786
2.102,0.6568916905759093,0.6447605996129032,0.49772471738351254,-0.28317189379928315
2.104,0.6533517701683357,0.6455291307563918,0.47756966518924726,-0.2900991874382318
2.106,0.6496765951966086,0.646297854412743,0.30398002221105647,-0.27779192478859216
2.108,0.6458823549725046,0.6470432936552556,0.4050809416082449,-0.2865973335870299
2.11,0.6419216426213441,0.647418261,0.3263558422482405,-0.2548973085375164
2.112,0.6378292639160705,0.6474310933873122,0.07548528038731218,-0.23822280639232052
2.114,0.6336093617870121,0.647802591,0.15770128738996672,-0.21676964294501205
2.116,0.6293231391546875,0.647802591,0.015175515103891646,-0.2104222668416944
2.118,0.6247954293532848,0.6474123150276784,-0.06660116047697447,-0.1082502555514197
2.12,0.6201686343581395,0.647034883,-0.17638336756884015,-0.2502455620898796
2.122,0.6154072983514957,0.6470224983748218,-0.09458316992209026,-0.267554828728266
2.124,0.6105326491009881,0.6462632357479083,-0.23303061279992726,-0.2054152286216806
2.126,0.6054575892341727,0.6458728656888477,-0.2593800554887549,-0.41599680542754464
2.128,0.600363459505253,0.6454995748609134,-0.2847302756026271,-0.4214619768475325
2.13,0.5950088460298507,0.644710514515079,-0.4168438123417903,-0.5365956197204403
2.132,0.5895822776986889,0.6439399856049559,-0.31073807653133195,-0.49823761
2.134,0.5840348118002149,0.6431598182140977,-0.5329940634725946,-0.5001450974071326
2.136,0.5783526754853328,0.6420044783003815,-0.48600820815370854,-0.5575666638049129
2.138,0.5725469010758226,0.64083865398236,-0.6462371653396901,-0.6145282204512514
2.14,0.5666168559132708,0.6393190628415888,-0.6845389579618159,-0.6174936352227214
2.142,0.5605809110305672,0.6381670278165709,-0.6505108686381704,-0.8039641542346743
2.144,0.5543907540404197,0.6366132286118993,-0.6946370237835937,-0.7774768933216883
2.146,0.5480861189861691,0.6346951138151461,-0.7776106534925462,-0.7824571435605248
2.148,0.5416592164044677,0.6327757077938242,-0.9620666862855107,-0.772640235824228
2.15,0.5351307987863636,0.6308528805993299,-1.052706924034945,-0.7610844602478458
2.152,0.5284409034683771,0.6285428663186222,-1.1709055644492286,-0.6276678870606386
2.154,0.521646212165653,0.6262332791571668,-1.214643571394467,-0.5869142825715478
2.156,0.5147385184321105,0.6239177588910341,-1.384360253543764,-0.493843079
2.158,0.5077224040708849,0.621248553935399,-1.1828566165714798,-0.4905842441156837
2.16,0.5005994570257941,0.6185405767535714,-1.3586100132639285,-0.38231759030321427
2.162,0.49333559648521697,0.6154767633544848,-1.4008723616208254,-0.18011093552158874
2.164,0.4859696651543592,0.6123938489718209,-1.5667637169355908,-0.09677607505919962
2.166,0.4785008229225653,0.6089635058840043,-1.7967919512493131,-0.054854638899892484
2.168,0.47093875164712234,0.6054919078444524,-1.746789465867412,-0.15451372905132826
2.17,0.4631997052543745,0.6016400188066968,-1.8580484283440988,-0.2678822450907148
2.172,0.45540727431250744,0.5981885737088788,-1.7856611587914784,-0.25653287318424184
2.174,0.4474960129106165,0.5943451804907983,-1.7805798068087955,-0.47942063453142925
2.176,0.4394927661127164,0.5901291866698416,-1.9891973440282178,-0.4823617838427194
2.178,0.4313630785235995,0.5862847181265506,-2.116434752836355,-0.6859527474514552
2.18,0.4231447021574681,0.5820631843797378,-1.9233620868398094,-0.7077019930889153
2.182,0.4148275286039463,0.5778435785866334,-2.1447046767550244,-0.5364726186628612
2.184,0.4064315308442662,0.57363249359357,-2.233827330547025,-0.46397861150047987
2.186,0.3978849082161585,0.5693763318057604,-2.2055965328680482,-0.38286996210666197
2.188,0.3893142981870736,0.5648449085693501,-2.168206952242483,-0.20733258841416102
2.19,0.38057894117009144,0.5597916759710247,-2.429806065208598,-0.10918922600883392
2.192,0.3718145016865886,0.5552321351824633,-2.346389649916767,-0.13952423543986048
2.194,0.36290624214602724,0.550189093931376,-2.5487614845088915,-0.30100736823272467
2.196,0.3539261393576538,0.544811774015502,-2.6307999014531362,-0.45162471343715715
2.198,0.3448684431828979,0.5394411144803467,-2.6172517424505406,-0.5994322451189882
2.2,0.33575577396184664,0.5340902678014345,-2.7345312428445907,-0.7241526548059772
2.202,0.32650013742053735,0.5287041178407186,-2.7162473069073054,-0.6011292431142514
2.204,0.31717834251756166,0.5233106212953816,-2.7864300849512054,-0.45728388409604653
2.206,0.30780356684905436,0.5179486011622199,-2.7809395683528995,-0.33023208514407687
2.208,0.2983601414401194,0.5122123689164172,-3.085723286717519,-0.1424014800635852
2.21,0.2888063802927847,0.5060471957841451,-2.970924720327125,-0.15168505327065426
2.212,0.27919168588043863,0.49990105528394474,-3.0844402408885183,-0.3041883629443783
2.214,0.26951070359177853,0.49376886702732564,-3.124229122053701,-0.44702724670630867
2.216,0.25978898038210313,0.48765104011188226,-3.167701439577001,-0.6518789849985641
2.218,0.24993804037613257,0.4814782575137101,-3.1914438789366955,-0.6756340832956604
2.22,0.24005303452882207,0.47495546255084947,-3.2406533958329744,-0.4951124624302464
2.222,0.23009880110670622,0.4684128940888599,-3.3822208435680388,-0.3045021585293629
2.224,0.22013238487497017,0.461911072508859,-3.3809735983798723,-0.0968059536335932
2.226,0.21004994794932633,0.4550645053224293,-3.3061615982858688,-0.12150749257390259
2.228,0.1999270557980196,0.44810113082681297,-3.566554746612357,-0.31478477728816795
2.23,0.18974560573840316,0.4411809118132494,-3.472545198309391,-0.5504514233042859
2.232,0.17956294959377245,0.43391967856715347,-3.620304054299976,-0.6607012799450562
2.234,0.16924114212878608,0.4266144650341248,-3.6761879859588356,-0.5024655363984011
2.236,0.15891247270824876,0.4196896791579136,-3.7085231761422417,-0.3270811576091638
2.238,0.14853218397567344,0.4123649860209591,-3.7463455134937833,-0.08659992082664299
2.24,0.1381628728072087,0.4047407379386385,-3.738082480144775,-0.18765883096740174
2.242,0.12766536310833335,0.3970429096567182,-3.8951946168970273,-0.37778928829441144
2.244,0.11718857868014311,0.38974579452791697,-3.9033111596037937,-0.5392129959212598
2.246,0.10665884631880271,0.38169786054830285,-3.886855083007833,-0.6051492114725848
2.248,0.09613458410514354,0.37404780307132596,-4.004308764044998,-0.38964114017520346
2.25,0.08550850310966743,0.365961206811188,-3.948110126354843,-0.1761320601894084
2.252,0.07488824633635713,0.35790002591869924,-4.15732070532066,-0.08062853544643711
2.254,0.06423132617467872,0.34982165355653416,-3.9913683009745298,-0.2406339624839324
2.256,0.053579547814200476,0.3417658696633452,-4.162362760733452,-0.4634181216163701
2.258,0.04287937838131554,0.33337843695228414,-4.213992649341545,-0.6465484605975843
2.26,0.032173497655896034,0.32528383488820023,-4.129646911145173,-0.42877481764266984
2.262,0.021447571805126988,0.31684675032616705,-4.301622335042285,-0.1939404351145029
2.264,0.01075270573913564,0.3084368725131028,-4.365056548766184,-0.01166735284851023
2.266,-4.207748247914188e-05,0.2999527323297568,-4.179133921498569,-0.27193521062804005
2.268,-0.010799630871672437,0.2911292657332536,-4.323025078577272,-0.46576275980550236
2.27,-0.021577585238309993,0.2822784481970146,-4.310392074638076,-0.5632759852340955
2.272,-0.03230297976187059,0.2735197712319828,-4.441956597621967,-0.27540948730488823
2.274,-0.04310503077904626,0.2650361959844376,-4.418970982357227,-0.07170217628578165
2.276,-0.05384923798724216,0.2559272911916326,-4.3996508342093055,0.02495055489733109
2.278,-0.06461483975653827,0.24665659247768654,-4.581647009875402,-0.3070047316801142
2.28,-0.0753452265789915,0.23783639152776448,-4.44224856930529,-0.5462703198620152
2.282,-0.08614282133218075,0.22859512915318542,-4.480441798788833,-0.49242660565425916
2.284,-0.09688043723175967,0.21939498331247767,-4.515971116230604,-0.28055825250375405
2.286,-0.10760281718904763,0.21056034825214898,-4.563723989727794,-0.027587143266475645
2.288,-0.11829478843099331,0.201326794641624,-4.624954622834386,-0.15250991810977496
2.29,-0.1289935468112646,0.19176470514779836,-4.682644093232204,-0.4400043647236454
2.292,-0.13964490972618906,0.18263392327700997,-4.565424634762048,-0.5607177867704602
2.294,-0.1502789284488245,0.17299428773960066,-4.713647042720228,-0.27805755205134297
2.296,-0.16085063770595281,0.16416200389323757,-4.601002933109276,0.002031386042489527
2.298,-0.17147795724582737,0.1541617270527069,-4.5944728909556405,-0.0667679425378011
2.3,-0.18202251060594532,0.14458570748904592,-4.752245481908128,-0.3107160627093051
2.302,-0.19250647025294326,0.13546761140830532,-4.791446886915747,-0.5754771383449352
2.304,-0.2029554314546435,0.12543803077494006,-4.7607676460639095,-0.3301293004816547
2.306,-0.21343696274842544,0.1158125008245327,-4.735752818754906,-0.05751240108084112
2.308,-0.22379399280511106,0.10677466858320184,-4.828243457407088,0.07170730778407575
2.31,-0.23414939769811097,0.09662732027501783,-4.797911921889945,-0.2772765785165201
2.312,-0.2444101568002395,0.08669228185233936,-4.930548894044633,-0.5428430199704439
2.314,-0.2546943711712378,0.07705422433516353,-4.8668637361936025,-0.3303337839185963
2.316,-0.26488296070015493,0.06709338986841479,-4.95934114723373,-0.0954935829421931
2.318,-0.2750075569902532,0.05785053778470322,-4.941635132,0.0748479756914476
2.32,-0.28504895225218224,0.04753815689888849,-4.941166444444963,-0.2057948488523963
2.322,-0.29508488773390557,0.03791080199344223,-4.9261225453125075,-0.506962486470967
2.324,-0.3050250047546676,0.02795421635795521,-4.91764489452597,-0.3673249994700434
2.326,-0.3148748431708041,0.018510720548235576,-4.88620674869517,-0.06780528005395639
2.328,-0.32464753834500537,0.008433963611711063,-4.944474870897048,0.10201099869978401
2.33,-0.3344326862081545,-0.0016021794478234944,-4.885743560957662,-0.20810052288968398
2.332,-0.34408888253611447,-0.011568052135334763,-4.98592002979533,-0.45688600931832263
2.334,-0.35366347014601407,-0.021164482664566744,-4.859066576393795,-0.36640073025246644
2.336,-0.3631307610182058,-0.031099681711404564,-4.940090086265066,-0.1340355982792317
2.338,-0.37258645887852804,-0.040768323420339786,-4.845116218867529,0.11729038227290008
2.34,-0.3819026520749228,-0.05070363498641368,-4.916047261800422,-0.16793121520566878
2.342,-0.3911057680049852,-0.06050113268811643,-4.968173873757999,-0.40163965645838345
2.344,-0.40021982325708794,-0.07018719873137914,-4.822525236487265,-0.33387749090461316
2.346,-0.4093411499055794,-0.08023598777242366,-4.935262257686785,-0.08769263100429389
2.348,-0.4183011617083582,-0.09020258967604626,-4.884613071204364,0.15496193631644212
2.35,-0.42716121114492756,-0.0998055261441131,-4.954203646203754,-0.0628548554404182
2.352,-0.43589357129648243,-0.10973727601626794,-4.87570025626268,-0.4028667050229665
2.354,-0.4445802750624553,-0.11935965358411828,-4.861605363658519,-0.33006097649183264
2.356,-0.453128273791091,-0.128961100128193,-4.75842636793141,-0.06639024340326395
2.358,-0.4615610790601397,-0.13884765560245413,-4.885337119152966,0.15279050620669526
2.36,-0.46983967992012016,-0.14844260745170593,-4.780176229734263,-0.07964714730370014
2.362,-0.47811846697745974,-0.15846768460973862,-4.964709850759756,-0.2944420629073875
2.364,-0.48622480964775977,-0.16769696741267573,-4.831360844284966,-0.3355949129409102
2.366,-0.4942049760045147,-0.17728027760109288,-4.735055082855072,-0.10366850029199334
2.368,-0.502046477107707,-0.1868395275447038,-4.8094004629023335,0.21746731637701974
2.37,-0.5098170965490524,-0.19645342954143316,-4.867300175364851,0.044186799399785384
2.372,-0.5174335268695652,-0.20566967206102846,-4.617833694221741,-0.2542534029170669
2.374,-0.5248989770249614,-0.21509151682845792,-4.652140965016974,-0.40723670871289275
