zhaobohao-byte/Y1_1Pace/data/Atom3motors/raw_csv/Sin_5Hz_y1_1_leftleg_aligned.csv
time,des_dof_pos_left_ankle_pitch_joint,dof_pos_left_ankle_pitch_joint,dof_vel_left_ankle_pitch_joint,dof_tau_left_ankle_pitch_joint,des_dof_pos_left_ankle_roll_joint,dof_pos_left_ankle_roll_joint,dof_vel_left_ankle_roll_joint,dof_tau_left_ankle_roll_joint,des_dof_pos_left_hip_pitch_joint,dof_pos_left_hip_pitch_joint,dof_vel_left_hip_pitch_joint,dof_tau_left_hip_pitch_joint,des_dof_pos_left_hip_roll_joint,dof_pos_left_hip_roll_joint,dof_vel_left_hip_roll_joint,dof_tau_left_hip_roll_joint,des_dof_pos_left_hip_yaw_joint,dof_pos_left_hip_yaw_joint,dof_vel_left_hip_yaw_joint,dof_tau_left_hip_yaw_joint,des_dof_pos_left_knee_joint,dof_pos_left_knee_joint,dof_vel_left_knee_joint,dof_tau_left_knee_joint,des_dof_pos_waist_yaw_joint,dof_pos_waist_yaw_joint,dof_vel_waist_yaw_joint,dof_tau_waist_yaw_joint
0.0,-0.2277380400994907,-0.265701532,0.01449585,0.357608795,0.01935717240127917,-0.009649545,0.00352478,0.230503082,0.03871434477484307,0.018524885,0.019226074,-1.443809509,0.4322619563439536,0.340913057,-0.022125244,3.109725952,0.032261954011370365,-0.012394667,0.009918213,0.607002258,0.9387143175231553,0.879503489,0.105287552,1.654384613,0.0,0.006632566,-0.173191071,-0.247745514
0.002,-0.19666299360264106,-0.26608259238542653,-0.09015359027310427,0.3761764877603081,0.03800220249459784,-0.01003060538542654,0.007528759249881517,0.25088697338116117,0.07600440401080431,0.018524885,-0.09179522724727489,-1.5038691878086494,0.4633370183973589,0.340913057,0.030957805457109005,3.1250176617376777,0.06333700439735894,-0.012394667,0.0493513346870853,0.6277539384481043,0.976004402362545,0.879503489,0.005792855033649291,1.6161610260797394,0.0,0.007013627379383886,-0.06398786385023697,-0.28705730331386253
0.004,-0.16544007962468724,-0.2660827236165342,0.08672471648938442,0.7434201685146483,0.056735953362802335,-0.009649545,0.038066527000948876,0.3063443001471949,0.1134719066972477,0.018525976335310165,-0.005794865101174238,-0.9689764100795872,0.4945599314962469,0.34129752533531016,0.11871605000130471,3.787228374347171,0.0945599185738115,-0.012393572948997747,0.10613112371486182,1.1018378663421895,1.013471875470392,0.8795045803353101,0.10840707053421896,2.3326889139160243,0.0,0.007015944,0.03268477452971178,-0.28422557046554386
0.006,-0.1348134870771432,-0.2653188410375993,0.2658852651329617,1.1916232963640137,0.0751119068764755,-0.009649545,0.14328695799928834,0.38244132013960386,0.1502238127808513,0.018907443498517376,-0.004580243174119322,-0.12540621169030963,0.5251864947598665,0.34167899249851735,0.27965726774902144,4.811536231489622,0.1251865179228568,-0.01201115653825169,0.13498219321385363,1.640777056993358,1.050223775845475,0.8798860474985174,0.1320922005993358,3.2546022340629817,0.0,0.007015944,-0.009826996897283835,-0.3629330789008421
0.008,-0.10466420944014294,-0.2649342824904535,0.2693178002840096,1.5623862464904534,0.09320147760154854,-0.00888370598090692,0.30747089110859194,0.44448230803221955,0.18640295523108993,0.01929213437112172,0.30206665284128875,0.4909116339976133,0.555335801363907,0.3420627315083532,0.3272483934057279,5.40958740929833,0.15533579536390707,-0.011244496980906921,0.4581482145763723,2.1247626511181386,1.0864029902590828,0.879886866,0.2680909032016706,4.423418245443914,0.0,0.007015944,0.06628468910620525,-0.30274926097136035
0.01,-0.07515108772342707,-0.2634052009246225,0.804394961975746,2.09802319055154,0.11090934583496187,-0.007354166924622518,0.55747948043455,0.49222669510878614,0.22181869264263585,0.02005642985245512,0.3839108612765426,1.34715465656759,0.5848489161674213,0.3428279752267269,0.3957119543400309,6.5321307455156346,0.18484891019470925,-0.010096876350850078,0.6029412363613125,2.834552664255855,1.1218187294339848,0.88103357164915,0.5479506758259423,5.338691987207823,0.0,0.007015944,0.09829727833254073,-0.3234717619096421
0.012,-0.046356107240400665,-0.2615084497717084,1.0667131153206701,2.431536432226758,0.1281863298061054,-0.005834469689948089,0.8533407816415762,0.5071524226226993,0.2563726596122108,0.021194271179447853,0.6321601592333648,2.0166063557889338,0.6136438925709516,0.34358688603480414,0.4787182914203634,7.132189124243511,0.21364388794824707,-0.00857957829613025,0.8878424640993393,3.0939853521221097,1.1563727230221799,0.8821719345732657,0.6717843593489854,6.013782651722511,0.0,0.007015944,-0.12424407615384613,-0.2509762155075507
0.014,-0.01838791301097328,-0.2591801889262572,1.317525858541707,2.607580970308269,0.14496725870515267,-0.0035115779262572537,1.105195795321325,0.4296308240673356,0.2899345173831107,0.023127575458776594,0.8266652572695842,2.8150023268765714,0.6416120796083015,0.3455157471131528,0.8032693680738636,7.875402918266803,0.2416120890162214,-0.005490224004352031,1.4227123857385156,3.429315398252297,1.1899345241989505,0.8841061781131528,1.05914049709647,6.83605082300266,0.0,0.006632705039410059,-0.13656665666368473,-0.37953824865739844
0.016,0.0086353014692904,-0.2557344472667777,1.7835420032824845,2.923379299974774,0.16118117708157426,-0.0008309490023798187,1.3514956044405044,0.3724733173146121,0.3223623531909362,0.025042002301047122,1.1178615190049976,3.6594391539790574,0.6686352802192009,0.3470476184321752,1.0074203311423133,8.61566970994931,0.26863530421920095,-0.0028102679612089483,1.5903921477334602,3.428339450093051,1.2223623875514609,0.8867857180366492,1.1750007139133747,7.632990828327463,0.0,0.006632566,0.04766972753569729,-0.3686186620973346
0.018,0.03458943627694504,-0.25149554295444815,2.125762058838963,2.7553713827422692,0.17675365811777302,0.0022523564538534727,1.565775379384158,0.2837049102362036,0.35350731620747083,0.028123656540556614,1.4745445094268554,4.085940664688154,0.6945894065015465,0.3493597860099905,1.1810028972533302,9.13402820868197,0.2945894305015465,0.001427948428282588,1.999304662224548,3.897818679390105,1.2535072931793958,0.8898699768340865,1.6954559543245717,7.868301167017484,0.0,0.007015944,-0.047607848349666984,-0.3543622884355376
0.02,0.0593285528199307,-0.2465199505102236,2.503320949960182,2.9580699578770773,0.1915971334594336,0.0060802316130575155,1.6642838532658137,0.20185794168862847,0.38319426594503525,0.03156834420937463,1.8052182278219537,4.038638256693292,0.7193285318928188,0.3524216872448882,1.4671481587627646,9.73469042945474,0.3193285551077787,0.006404400577543943,2.45291914159548,3.6021257574081074,1.2831942435151154,0.8936989859812268,2.010282213702619,8.290336772062536,0.0,0.007015944,0.13498790066268085,-0.37407567564641875
0.022,0.08290632769912981,-0.2411271146950929,2.8328928788523107,2.7705738089252026,0.20574380444284182,0.009547058927108148,1.904671087625536,0.12373239596474511,0.41148760888568364,0.03580397446260124,2.127258700711767,4.818613623523583,0.7429063454170938,0.3551193836846117,1.4383222585793234,10.17676486485374,0.34290634027178446,0.011407883176274418,2.5819884706121967,4.458339211103382,1.3114876423216115,0.8979349441762744,2.2576196632720347,8.751511941360649,0.0,0.0070146654645069076,-0.09969063369080515,-0.3209838627393997
0.024,0.10507377321473708,-0.23422814920398424,3.306962023371466,2.540524303215794,0.2190442657685704,0.014146074669688655,2.1309447190067994,0.13644995233233925,0.4380885315371408,0.040786004323154,2.4466569310440174,5.404034307394967,0.7650737478390366,0.3589514210867231,1.9419589740496241,10.333485525044017,0.3650737709877191,0.016775708557199093,2.8592129516019322,4.629533655625194,1.3380884775371409,0.9033036842130502,2.683459022016939,8.158753258370512,0.0,0.006631651346534654,-0.02426272140391268,-0.20966332393105094
0.026,0.1258058967018545,-0.22693171321868316,3.7662714822902306,2.4975659690637033,0.2314835409700428,0.0187550722048966,2.3127762807668173,0.11264330371499882,0.4629670819400856,0.04577983649013549,2.7125125718131686,6.7696007156265745,0.7858058931298145,0.36279336048419303,2.046583978182315,10.3914456902068,0.38580588712981456,0.022917875545281675,3.0422248749893037,5.24636271551557,1.3629670296519258,0.909831871496078,3.198813431168529,7.5455524210306635,0.0,0.00624563204611362,-0.28054012718992155,0.09633539243071072
0.028,0.1449662302,-0.21889991098948877,4.123780310853798,2.4285579736946965,0.2429797325925926,0.024109305347228858,2.6320746159497137,0.1326705967451027,0.4859594651851852,0.051899405461060685,2.8330168187327995,8.273888095218824,0.8049662404222222,0.3677662606477544,2.405601917341376,10.703601425487339,0.4049662352,0.029036585932752032,3.1517573930140945,5.87832943422205,1.3859594719629629,0.917098246424988,3.662502525408863,7.731665093153966,0.0,0.005097966507883421,-0.4539790224089823,0.5169344461933827
0.03,0.16261143969941647,-0.2104433786848442,4.387978406511921,2.3607276756067046,0.2535668612771228,0.029876174555358827,2.8742138021888577,0.2062134016358593,0.5071337225542456,0.05766722755535883,3.0524602723325067,9.428773997886921,0.8226114219587948,0.37276320377667616,2.5372313092653447,10.763672897341596,0.42261144430760983,0.035570888755783764,3.1936799285008264,5.902719758234183,1.4071337568750746,0.9247873431984183,3.936925278916431,7.0477303845712935,0.0,0.0039454814217422095,-0.6413771359283522,0.6855998240500473
0.032,0.17853925191273248,-0.20132586057648727,4.508852799306657,1.9571243025269123,0.26312355714711494,0.036333511255665724,3.1055711655609066,0.2379438742372521,0.5262471142671674,0.06412456425566572,3.225918802473796,10.141336095556657,0.8385392775067955,0.37808073263172803,2.7442324825580737,10.59287549326204,0.43853924329160704,0.04240879018342777,3.553285023526204,5.4708279998555245,1.4262470918909156,0.9335233509355524,4.437353761206799,6.543676614546743,0.0,0.0031862383038243625,-0.509922457513456,0.9771526351586401
0.034,0.1927515639345828,-0.19173489951789124,4.762744919020992,1.6202458374833015,0.271650930594843,0.04285731429222328,3.257340046443464,0.254732889451813,0.5433018602167841,0.07140945111712786,3.6344122865620228,10.036073786877864,0.8527515749345829,0.38383448446731866,2.9488205667950855,11.141155550070135,0.4527515689345828,0.05007815997471374,3.8741867137077763,5.15117889737333,1.4433018929650232,0.9431113104821088,4.7611780471359735,5.745446034967796,0.0,0.0020376933101145037,-0.6194536779103053,1.2030044153179866
0.036,0.20519068600083254,-0.18165226846324928,5.002438371280328,1.325799068880233,0.2791144257477402,0.049838432054234064,3.529171635131304,0.06716024230245005,0.5582288514954804,0.07878198003437202,3.8492272533862986,9.640811057986085,0.8651906970008325,0.3904208975468601,3.004503534270932,11.292047753434824,0.46519069100083255,0.0586064925467412,4.231053566977997,4.877007932837774,1.458228769200999,0.9531963125479306,5.079515094468958,5.829015545417103,0.0,0.0004890614926260704,-0.6191566021151285,1.4289640862819935
0.038,0.21575857545992116,-0.1713181642510445,5.352113486872627,1.4014675340457206,0.2854551304388962,0.05749384635084159,3.7489156962715766,-0.08383607632744419,0.5709102608777924,0.08681950572114122,4.0105263635956785,10.42795623557252,0.8757585864599212,0.3965464076125104,3.2114431713932197,11.178385571609049,0.47575858045992114,0.06741054464318968,4.363842373614182,4.4585630405350365,1.470910238454665,0.9639144294872866,5.517174072651427,5.269097542033067,0.0,-0.001041941107198281,-0.7288481377216187,1.7720662868350243
0.04,0.2244852263307894,-0.1605628724240763,5.361703235476877,1.497081099563409,0.29069112706630096,0.06479442152812873,3.7511920047096545,-0.0007635887195470798,0.5813822541608633,0.09488678750202623,4.11567961120751,11.023706320441596,0.8844852369068686,0.4030772179939213,3.3379808086872464,11.30179418836651,0.4844852309068686,0.07663041803897497,4.73124407918665,4.243054544822527,1.4813822901608633,0.9754394834976161,5.815673338809654,4.102433651864482,0.0,-0.0025794624847437424,-0.8893625946876044,2.117850738228963
0.042,0.23128391613418986,-0.14982219325047214,5.524591901180595,1.158327909467186,0.2947703437316203,0.07284894392280454,3.847894338143768,0.11010764292020774,0.5895406884346895,0.10332662504815865,4.233213450788716,10.902978916820821,0.8912839125624554,0.4099808227974504,3.3642736252308785,11.497372018012983,0.4912839065624554,0.08622117417351274,4.79939536044594,3.667030013174929,1.4895407227216273,0.9873291318482059,5.983622240362842,4.06233710444051,0.0,-0.004497024224032106,-1.0791664592216714,2.5933235733342777
0.044,0.23613489737610777,-0.13880693838503305,5.548763898400142,0.663398722865203,0.29768094767352,0.08082475867209632,3.9575785498675637,0.14437144867941454,0.5953618953208082,0.11244211177337111,4.4870231933227105,10.127042714504958,0.8961349075891528,0.4168169655708215,3.5259276305311618,11.708397326963409,0.49613490237610774,0.0964763328746459,5.255649352288716,2.938232980779745,1.4953618713208083,0.9991035383368745,6.196942944522899,3.3951824414858356,0.0,-0.006395847823182248,-0.9235592306480169,2.9979703526033994
0.046,0.2390309414356412,-0.12795655413171356,5.621320348560102,0.7097254309846547,0.2994185686645395,0.08905298495140665,4.108521483181586,0.19591046196035805,0.5988371363468994,0.1217939710601023,4.633656643122762,10.215250780654731,0.8990309224356412,0.42392340487723784,3.5876834999117646,11.234560641888747,0.4990309464356412,0.10694905466496164,5.292995004210997,2.702060645476982,1.4988371123468993,1.0118160608797953,6.327324465102302,2.248731661533248,0.0,-0.00863845421483376,-1.1528399780358056,3.1892063158337596
0.048,0.2399726832768166,-0.11644937018932792,5.475796007274561,0.8616244891840755,0.29998362465051903,0.09739865751199714,4.158716185601886,0.020498655651187775,0.5999672492733563,0.1317157432736063,4.7221018698281005,10.300578868897816,0.8999726642768167,0.4314636404354781,3.6892902448050613,10.694824142625523,0.4999726882768166,0.11767623335012535,5.388717630657634,2.407551213487048,1.4999672252733565,1.0256924956488003,6.617492260611914,2.2759680569995226,0.0,-0.010635660835621345,-1.0690349738874299,3.823565326775457
0.05,0.2389291433942067,-0.1056941291510243,5.513696144326346,0.7548708190590758,0.29935748980176424,0.10546631413149118,4.124918311929967,-0.06789918866793711,0.5987149786320181,0.1417022831181515,4.983011609702715,9.497738795441162,0.8989291252488973,0.43914595777227255,3.856977874399238,10.26311330245736,0.4989291483942067,0.12804811611338732,5.386016645839447,1.9131294236012386,1.498714954632018,1.0387548851862791,6.723078500111481,1.1547249628999523,0.0,-0.012939882349690329,-1.1252151770657455,4.1472015988689845
0.052,0.23591748201858026,-0.09496304926979438,5.473574920379343,0.3486882017702671,0.29755049816138635,0.11389928451524463,4.219432132810683,-0.002809256378752068,0.5951009963512387,0.15166707898570078,5.069497361046206,8.756902096415033,0.8959174925915913,0.4468128255952493,3.9257722118118648,9.707274622343773,0.4959174865915912,0.13878109473316,5.47551554866001,1.5801902683956512,1.495100974059195,1.052552072052588,6.790655010016308,0.7356235026869534,0.0,-0.01523894403344363,-1.0889011745150083,3.9520307491331836
0.054,0.23095481061266848,-0.08431574811120301,5.272403966056488,-0.0640561650697235,0.2945728799014673,0.12264646379012054,4.2883129832110605,0.12975121334235404,0.5891457607753787,0.16117336234802648,5.117898485189436,8.671587552146537,0.890954807026005,0.4547980657933113,4.055850233008745,9.022266369046207,0.490954801026005,0.14942839688300638,5.413501608506381,1.1391312430645237,1.4891457967753787,1.0658604904969275,6.819090671008036,0.8844607406935712,0.0,-0.017140011574450484,-1.1463812916305838,4.19924327189896
0.056,0.224044445065564,-0.07348567766332073,5.23623196067454,0.08547372014749646,0.2904266580644931,0.13115755424090694,4.217030360778224,0.16270057062281532,0.5808533161289862,0.1716095808447095,5.013105008203471,8.593391265117146,0.884044456065564,0.46330470849492206,4.113340089094474,8.361014611961503,0.484044450065564,0.16064089033667928,5.425142026063297,0.7008209765854984,1.4808533504369348,1.0805493965139348,7.012462225769485,-0.3609741374635097,0.0,-0.019457089098252243,-1.0917437753565187,4.216367970628365
0.058,0.2152470643392857,-0.06322539669178082,5.275534695136987,0.21717189111643834,0.28514822439642856,0.13951788819178082,4.144199371041095,0.04418582113698631,0.5702964487928571,0.1811102610479452,4.975616246390411,7.544900136438356,0.8752470753392858,0.4712852420616438,4.222182208643836,7.8189921186301365,0.4752470693392857,0.1709011713082192,5.343509491301369,0.43416326328767124,1.470296423207143,1.0942316613424656,7.144884096589041,-0.09613039681506852,0.0,-0.02135703710958904,-1.0766273392534247,4.336092034883562
0.06,0.20457570237652112,-0.05340677959368767,5.004381370789746,-0.0503599760760296,0.2787454358396564,0.14744895912002817,4.047233138936173,-0.10696202278704683,0.557490871654259,0.1912992543812038,4.965216038939106,7.310372983641441,0.8645757133765211,0.4795893150949196,4.130472512703156,7.590826213414877,0.4645757073765211,0.18147011195905197,5.359349684760883,0.2508513679975361,1.4574907906607015,1.1093234041070046,7.5043199938731675,-2.377854933572451,0.0,-0.023994905861668428,-1.0631008933733426,4.511943664872111
0.062,0.19204509194904157,-0.042863359352455034,4.806575841426349,-0.6420736191448713,0.2712270471518038,0.15565573415264947,3.9767830592260576,-0.11725437395430238,0.5424540933294439,0.201086655385999,4.79595944851823,7.779337407010695,0.8520451033365878,0.4878047931526495,4.090327817479339,7.1205159786772,0.45204509658733183,0.19241375192707827,5.244213983308701,-0.07072133444482256,1.4424541277792593,1.1241910970719495,7.3703579409134665,-3.2059463498196403,0.0,-0.02596609921925134,-1.0247913036421974,4.846501276931453
0.064,0.17776144880571088,-0.03362730898685154,4.773822939004543,-1.0459823730000002,0.2626568754579417,0.16335020317762372,3.931252289978484,0.0009266506502510208,0.5253137509158834,0.21031972001314844,4.71848715781114,6.868569589541238,0.837761473702796,0.4958821799227827,4.29593067826799,5.895169621716232,0.43776144014883994,0.2024171345010758,5.123358815052833,-0.5778324053394692,1.4253137283864366,1.1391901957516137,7.327737603918001,-4.5641816888929,0.0,-0.02827297618312216,-1.125234384710973,4.75671223984174
0.066,0.1617624573680431,-0.02464705411372093,4.498747457796744,-1.0229142017862791,0.2530574715571514,0.1708345234755814,3.816393949100465,0.07599707989872094,0.5061149431143028,0.21967442947337207,4.677956022868954,5.318942387546162,0.8217624390502692,0.5041140086809303,4.177243521133954,5.226836562158024,0.42176246236804305,0.21177276047337207,4.763437502547674,-0.9744934248639534,1.4061149784320768,1.1530378016431397,7.001210463569302,-5.953778481705232,0.0,-0.03051780810046512,-1.0584510183123257,4.881841957922558
0.068,0.14399431710027422,-0.015964078177888023,4.129552226511694,-1.2025692358795181,0.24239658489519494,0.17870861637987243,3.6077950235804392,0.09239647798582566,0.4847931697903899,0.228750520616584,4.420532325632884,4.853077807894401,0.8039943276996542,0.5127756478795181,4.07343803436995,4.350590006221828,0.40399432169965427,0.22199925599787385,4.769050192880935,-1.4380036045846918,1.3847931741879098,1.1672216967030475,6.723755918837704,-5.802402147503189,0.0,-0.032880744911410346,-1.187809820463501,5.07429059544224
0.07,0.12470121848128343,-0.008363400865343727,3.704723109859674,-1.3375445694457833,0.2308207342513369,0.18517070344153083,3.436173161034727,-0.051954031829907876,0.4616414685026738,0.23749167860099218,4.412670858405386,4.560986530267186,0.784701213893048,0.5207580594457831,4.133914633560595,3.495007326338058,0.38470120869518715,0.2311212030255138,4.549832442428774,-2.0247184599836996,1.3616414145026738,1.1797641375634302,6.325233423947555,-6.66051901696173,0.0,-0.035160759063075836,-1.0396476324379873,5.321386315693125
0.072,0.10395586369320899,-0.001477077141092636,3.3619460087448934,-1.497145171793943,0.21837352016343853,0.19166762429513065,3.20092748187399,-0.16165403604014253,0.43674704032687706,0.24590442446638955,4.265497489508789,3.339426459503444,0.763955838763869,0.5280263470927553,3.786259969164846,3.009085407966746,0.3639558620500956,0.23953533379429928,4.33542991995285,-2.77529386357981,1.336746988468197,1.1919963857926366,6.1319009441962,-7.063987983306651,0.0,-0.03707470849916865,-0.9012194562969121,4.953450680379216
0.074,0.08164715193276109,0.004685818071001674,2.9467217113840545,-1.6002909697180254,0.20498829898950882,0.197446152944896,2.9826054336694954,-0.1426870468235716,0.4099765979524321,0.2543650375909634,4.121629904723285,1.6832463801477409,0.7416471698427515,0.5353329274493187,3.5507452043820225,2.6005925679899593,0.3416471646403195,0.24799592359096342,4.009417697820225,-3.561367158315802,1.3099766323572961,1.2035431071264642,5.62422786684688,-7.621965519428999,0.0,-0.0393780492832895,-1.1458348113248864,5.0631092460761415
0.076,0.05804888116793894,0.00967211228552741,2.434650797854085,-1.8596180341657746,0.19082933015648854,0.20280750756713045,2.5914529474482104,-0.0846578554249019,0.3816586593396947,0.26202690333987394,3.9682780728002145,1.1063814701020336,0.7180488589541985,0.5422261037766678,3.534916837167083,1.9844626816519206,0.3180488829541985,0.2556587318814365,3.8554971679257934,-4.249542527865026,1.2816586353664123,1.214267691229397,5.208020800533119,-8.284077322554168,0.0,-0.04167391523118088,-1.008036876230943,5.230299926230824
0.078,0.0331863186482251,0.01429902537706488,2.28768502412497,-1.9423290016787167,0.17591178738893506,0.20705867721139573,2.167087573987072,0.07923729099473308,0.35182357475068265,0.26972980416542974,3.865910868345703,1.0287166430143644,0.6931862888929123,0.5483984025027532,3.107845999430213,1.5366716154043574,0.29318631289291225,0.26298224147067273,3.5599787886229355,-5.407733935481685,1.251823553354743,1.223911097919799,4.750078332999043,-8.6608283403141,0.0,-0.04360424229135743,-1.0275259310962412,5.346765853061527
0.08,0.007285694214217329,0.01812507847299062,1.8614181751628873,-2.2707750736208006,0.160371412974629,0.21088170147299062,1.8881259468749851,0.16707394100914164,0.32074282497247486,0.27699194257141163,3.784302111216787,-0.05008534768467299,0.6672856735392532,0.5541314207094858,2.885847002950374,1.1717033184722783,0.2672856971910005,0.26986163607562624,3.4430638342056277,-6.128963595117179,1.2207428602759693,1.2330832378079069,4.502842364229253,-8.198819088127033,0.0,-0.04551517879710317,-1.0503084343101032,5.2195911692122765
0.082,-0.019880294704206887,0.021599792274176154,1.60014245709287,-2.297667273005033,0.14407182962578954,0.21397565690677053,1.5837127211355302,0.25596100400419414,0.2881436592515791,0.2843184903995207,3.556605302136968,-1.881749479155782,0.6401196984851626,0.5595338705949671,2.6240433329929296,0.8116009126170163,0.24011970710642355,0.2764211111809467,3.1279699980624325,-6.598069542696585,1.1881436668476941,1.2411942991343319,3.836106146246974,-9.073368551051649,0.0,-0.047823684688196526,-1.1263594989275016,5.538832269012343
0.084,-0.047884819737313435,0.02390419112604043,1.108573974801427,-2.6004158907196193,0.12726910208656717,0.21627649197407847,1.311250902092509,0.2036537088180737,0.2545382042,0.29120884107419737,3.4328966605450653,-3.416285889024019,0.6121151803701493,0.5641312421001189,2.3637519721457787,0.36506206446944117,0.21211517534328359,0.281406166403805,2.7463615257657548,-6.687225257958383,1.1545382684208956,1.2480898870741974,3.501978933147919,-9.986473241731986,0.0,-0.050119275974078475,-1.1994435356651605,5.841454546947206
0.086,-0.07677638096172648,0.025846124324749645,0.7698369713183119,-2.828338540737482,0.10993417015917491,0.21821937032474964,0.8988385101444921,-0.039849135571530754,0.21986834128997257,0.29742993350929897,3.0839825286752505,-4.785201306028612,0.5832236232369142,0.5684076644477826,2.0994423223361944,0.0066287049341917014,0.18322361723691427,0.2864529018597997,2.203200444972103,-7.799317320211015,1.1198683772615954,1.254310979509299,3.135215373421316,-10.774541513812588,0.0,-0.05206627463590844,-1.061018456630186,5.980391583851931
0.088,-0.10635434707985697,0.026608720313639072,0.3477983020089339,-2.79090766356212,0.0921873950262217,0.21897913141810602,0.33614544940714713,-0.01191777085491364,0.1843747900238379,0.3027992850102442,2.779459031694342,-6.228120869137343,0.5536456630619785,0.5722409565365099,1.8305145565220966,-0.44343658868219177,0.153645657920143,0.29028856022287075,1.932926915222156,-7.955861009531388,1.0843748229070322,1.259674664745682,2.4797518653558073,-10.132380263813104,0.0,-0.053985286954615845,-0.9924135460680167,5.644883933964146
0.09,-0.13652494423941813,0.026223463909351145,-0.29936147659255724,-2.7338513385839693,0.07408503251877906,0.2178268070028626,-0.4047442941688931,0.05783531646374046,0.1481700640659354,0.3077806631784351,2.3330311006765267,-7.6306106476059155,0.5234750376402766,0.5753051381812977,1.4711040938291986,-0.7762762678110686,0.1234750605619411,0.293735800634542,1.6207407011488548,-8.546816835228054,1.0481700252929533,1.2631239530877862,1.8629619148158396,-9.659650300205152,0.0,-0.055902634181297706,-0.9425556091536259,5.7993374072853054
0.092,-0.1671929030964756,0.025069244250751445,-0.6661073578991908,-2.685439912385549,0.05568425926806693,0.21590545443202314,-0.8944968177916763,0.037906770458728326,0.11136851850765397,0.3120001661883237,1.8815524503913297,-8.761376112638265,0.49280710890352436,0.5776058624390752,1.250166167265549,-1.1882115561919075,0.09280709490352439,0.296421375059422,1.4353128956053178,-8.888565945199884,1.0113684883620506,1.2661892364390752,1.3783154356560694,-8.944476441646012,0.0,-0.05820335524069364,-1.0494574272663584,5.8388262899665895
0.094,-0.1980889806777512,0.02320927299398844,-1.121904840806474,-2.6247036639156067,0.03714661014019139,0.21330093954381502,-1.3877323516665896,0.06525417533017341,0.07429321930454545,0.3153482994934104,1.7383022888693642,-9.983148810893873,0.46191103093564595,0.5790940244873988,0.7188969488756068,-1.51212218346474,0.06191101722559808,0.2986531555246243,1.0520274711574567,-9.825140576400925,0.9742932176521532,1.2676773984873988,0.7952500407514451,-9.104298938831908,0.0,-0.05969059207445087,-0.723889381869133,5.536223479267283
0.096,-0.22946324177315422,0.01970224726811853,-1.5742676959947637,-2.6396966097577055,0.018322051270479135,0.20938958127751994,-1.765086988068547,0.09029476036617874,0.03664410254095827,0.31812826586124004,1.3456510351369748,-12.169707280059265,0.4305367542268458,0.5795178261105557,0.2245479740305843,-1.8353545302934666,0.030536752117465225,0.30063308089884566,0.7450372025417114,-10.47196923351684,0.9366440746503388,1.267717458119957,0.014423661074259193,-8.724015434098536,0.0,-0.061267279880042845,-0.6644852179940498,5.406819315142807
0.098,-0.2607814899348971,0.016255698048911103,-1.889606006003927,-2.838217846181721,-0.0004689000057443753,0.20556029379186005,-1.9249478439485899,0.018209515975365936,-0.0009378000114887506,0.32004290960406995,0.8210062646472688,-13.476749195455552,0.39921850606510295,0.5787513971670831,-0.3238608477729382,-1.9000696812799,-0.0007815000095739589,0.30101677157586576,0.3611487415937165,-10.671589176362371,0.8990621760880805,1.266568290910032,-0.5412971770556944,-8.541215032926099,0.0,-0.062416447089967866,-0.6157346355044627,5.213780185892896
0.1,-0.2922895663898952,0.01163064714442326,-2.364237535725929,-2.7933562086048616,-0.019373747439466158,0.20131962846901813,-2.1668300347488088,-0.09945636694756911,-0.03874749485033365,0.32119792228312677,0.6473411701081984,-14.955636069091991,0.36771042961010486,0.5775930367845568,-0.7743150111787417,-2.1863298880467115,-0.03228957907530982,0.3013991438584366,0.16592166496520497,-11.34201050628408,0.8612524860934223,1.26463939050143,-1.1026658728960916,-8.279709550051,0.0,-0.06395429246615825,-0.6537385378169686,5.0112516039718775
0.102,-0.3235433974043644,0.005877069366738249,-2.7779533210091865,-2.805158367601527,-0.03812603951609826,0.1959513862732045,-2.487839417406347,-0.134951319431162,-0.0762520780604579,0.321962118,0.29802087917382486,-16.680714928192195,0.3364565985956356,0.5752916844352184,-1.2063082680527322,-2.686627834030303,-0.06354339940436442,0.3010158997013839,-0.1829971567475543,-12.031045001768193,0.8237479341199618,1.2615669760250536,-1.6663183098415653,-8.962313967211523,0.0,-0.06472286935969936,-0.6193444266207349,4.939213652728466
0.104,-0.3545677435851216,-0.000270268820977354,-3.3055334366209776,-2.7237206921334924,-0.05674064970529327,0.19057290185268175,-2.7618124098336114,-0.043172512614064365,-0.11348129938197425,0.32196065577544697,0.04583563448724672,-18.068494983263886,0.30543225241487837,0.5729856269263409,-1.2342741635878427,-3.7525057556624555,-0.09456774581402003,0.3006283283263409,-0.4015344028104887,-12.862434377120382,0.7865186848183119,1.2569553720772348,-2.3944248751368296,-7.763899327691776,0.0,-0.06587249808772348,-0.30780015717234804,4.6486008615353995
0.106,-0.38520788096257,-0.0075592487371306,-3.6188130828474736,-2.6235099410712586,-0.0751247306862558,0.1844351483017159,-2.9875246007502385,0.007796026522163966,-0.1502494604011205,0.3215746260631554,-0.33851230441372737,-20.061789885972356,0.27479211506603884,0.5699188076174928,-1.3861311280088178,-4.921903957416349,-0.12520789093396115,0.2994743541263108,-0.6600155415364634,-13.433543296214014,0.7497505301983549,1.251198166199714,-3.1082756980114397,-7.549746643858437,0.0,-0.066637278,-0.3935254584942803,4.272226024628694
0.108,-0.4153538918855781,-0.015614545940383927,-4.083527603949803,-2.453114337890068,-0.09321234091418355,0.17791282404304282,-3.262224110215691,0.09687630447299392,-0.18642468185697258,0.32042148196244186,-0.6982871558349827,-21.464904213390128,0.24464610468533968,0.567231747118159,-1.3447786155990222,-5.98460908328878,-0.15535390088557807,0.29717053431143436,-1.1040887360643854,-13.07264575869894,0.713575295114422,1.2442923135853106,-3.624096560115894,-6.834354836830094,0.0,-0.066637278,-0.13587243047084774,3.6940601723823776
0.11,-0.44487806725945306,-0.024440665475939583,-4.387593229470671,-2.5701455458761266,-0.11092684548775267,0.1706231548304648,-3.4939888725742887,0.12854487715923194,-0.2218536919472057,0.3184997561321859,-0.9939765911509191,-22.043217425020607,0.21512191474054695,0.5637792423055848,-1.7243073068524764,-7.257540269956329,-0.18487807628775269,0.29409639869827886,-1.6095422741758576,-12.844141640883738,0.6781462849017836,1.2362298637433555,-4.217853052801312,-5.646315511265426,0.0,-0.06663476121929515,0.08079397004273503,3.305376680949889
0.112,-0.4736138419933222,-0.03348265203512469,-4.802743408772743,-2.526982306120009,-0.12816830799081802,0.1630873851793701,-3.7571085315995787,0.047133275151972825,-0.25633661598163604,0.315485448271748,-1.5437158957602155,-21.962286351337312,0.18638614075709517,0.5603883802181243,-1.9641068276533193,-7.380559249336261,-0.2136138516051753,0.28957493690762204,-2.210541671935488,-12.628321697943448,0.6436633900183639,1.2264338317079966,-4.935453146594193,-4.601390439395972,0.0,-0.06588071574312142,0.28612284723931625,2.67410681279335
0.114,-0.5015868034843638,-0.04398807943255978,-5.06737410626764,-2.455738531958652,-0.14495208461709239,0.15529324848462717,-3.8480300758928023,-0.13483514398774885,-0.28990416920792555,0.3115997467353045,-1.8886407374684886,-22.889127384842148,0.1584132071480067,0.5561117881796442,-2.0763268805167865,-8.264485870421133,-0.24158679885199333,0.284130507387796,-2.6869350674332666,-12.252186822931206,0.6100958360042971,1.2155323887628695,-5.402751459859112,-4.339848258254447,0.0,-0.06510082765249145,0.5976759236523737,2.0312799537718225
0.116,-0.5286254058941849,-0.05460151691541996,-5.537791651446579,-2.232109082611026,-0.1611752435009533,0.14733340603486864,-4.169450528695252,-0.1631209957366003,-0.32235048602931365,0.3074299463475086,-2.261958947803275,-22.643062996836967,0.13137459088655862,0.5511843564392744,-2.334151518226293,-8.184154315554364,-0.268625414921592,0.27844450164530565,-3.1317212985460006,-11.86897794029014,0.5776494899706863,1.2037806199401577,-5.976902326970903,-3.778963481009071,0.0,-0.06358462229779714,0.8162997280260337,1.5188873615941807
0.118,-0.5545623692664051,-0.06652423048342707,-5.86711465564784,-1.764932648466196,-0.17673742735984307,0.1384867892953213,-4.418925334391289,-0.0921434097876032,-0.3534748546927009,0.3024321061933708,-2.7211648595911213,-23.54597081178868,0.10543761973359486,0.5461793335792748,-2.6899877593842287,-9.123756422762954,-0.29456237923941986,0.2715268109372981,-3.3895507115997368,-12.599125994079456,0.5465251213072991,1.191084259018308,-6.39765145993981,-3.6856647653886565,0.0,-0.06204454161062582,1.0201826850040685,0.9340567725991386
0.12,-0.5792842521365159,-0.07862845617681637,-6.184687099374089,-1.7681398223040208,-0.19157055751423785,0.12903384242699273,-4.593240899850693,0.06023794254102986,-0.3831411140527638,0.2963866419115918,-3.009463581444392,-24.378964811165062,0.08071573642629816,0.5405093203519868,-2.794068134987303,-9.002293213675289,-0.3192842618651591,0.2643407763091935,-3.754439496063955,-12.52571496490877,0.5168588626758794,1.1778474452207854,-6.858411925075241,-3.74781565292664,0.0,-0.05977935683658594,1.1037780449673174,0.5824845381930401
0.122,-0.6028934335679866,-0.09234962090782423,-6.513587322463142,-1.7306199436921519,-0.20573608331655535,0.11921437362855783,-4.776835780395618,0.056138719657854,-0.4114721666331107,0.2897158479565321,-3.4265756913134453,-24.973827481343456,0.05710653785066794,0.5338488360445397,-3.120574558467071,-9.242481822848994,-0.34289347173067747,0.2557223847134691,-4.23038951134679,-12.112997654870073,0.4885278393668893,1.1625618267789688,-7.243382362882101,-2.6619280996152197,0.0,-0.05704000068988925,1.2343394572993927,0.3044422441075384
0.124,-0.6250763101559742,-0.10538137462343246,-6.602680281453242,-1.632435821193479,-0.21904579415728595,0.10924673889716947,-4.998035934244356,-0.23336705276424222,-0.4380915883145719,0.2824313419777857,-3.7258508167405946,-25.167431213460766,0.03492367672752206,0.5273321355424578,-3.4009764396975997,-9.979930933489072,-0.3650763183009778,0.24652090407058402,-4.666605191753136,-11.704979590361877,0.46190841768542806,1.1472309054206378,-7.613578887292727,-3.3918236626162663,0.0,-0.05473753530598352,1.4430628618602652,-0.19034423741956288
0.126,-0.6458085247860116,-0.11921690944262874,-7.005423522626616,-1.3037173968648013,-0.23148511096134175,0.09848936251281448,-5.149443226883377,-0.1740886591770515,-0.4629702219226835,0.2739747012748648,-4.248602769849283,-24.36701313038796,0.014191492443321041,0.5200300546945685,-3.6348021299760167,-10.140562303787679,-0.38580850378601167,0.23614459415400893,-5.204824190697742,-10.92250325815013,0.4370297832173189,1.1314643352470022,-8.294670686282272,-1.5705270460494944,0.0,-0.051273844637432404,1.5948053352907359,-1.0893575699686104
0.128,-0.6649777344104397,-0.13321521241876322,-7.2010630424958855,-1.347058241253233,-0.2429866199990466,0.08827397878556313,-5.319288924933224,-0.06115979936750528,-0.4859732399980932,0.26489456839125325,-4.606170383292734,-23.40627978201246,-0.004977710314026934,0.5124623364138255,-3.854516134970139,-10.007285444176818,-0.4049777142077226,0.22555110578979543,-5.391434368314837,-10.43491122879967,0.4140267360019068,1.1133050093712673,-8.803933137826945,-1.2003202344194686,0.0,-0.046733778195626616,2.2374048428963085,-2.4979576025344463
0.13,-0.6825850777305446,-0.14871042473274526,-7.363318958741447,-1.1472652364308022,-0.2535510467176737,0.07665574642996781,-5.560751486122898,0.0017215353032542615,-0.5071020934353474,0.25443906194743116,-5.12448773714221,-23.484293789482177,-0.022585087072935287,0.5043245623117177,-4.029406214691263,-10.170641225466445,-0.42258508675688233,0.21392826414828942,-5.811734782334009,-10.108428325051973,0.39289788335478487,1.0950805213403267,-9.192617619587198,-0.40411664614018356,0.0,-0.0420813653558231,2.4208963251038265,-3.7647527843726305
0.132,-0.6985248192198853,-0.16328631095039445,-7.47484383825759,-0.7619566359819507,-0.26311490825860423,0.0655322135981353,-5.665449720681329,-0.2792167979705953,-0.5262298164911569,0.2436974500402821,-5.408483096497609,-23.124632338974777,-0.038524840073613766,0.4955022062047573,-4.395444929724361,-10.019036684457447,-0.4385248284383365,0.20165332338847716,-6.28323098340832,-8.995710352148457,0.37377018872729445,1.0762848568851302,-9.579432396335045,-0.9082770267614152,0.0,-0.03709495949725078,2.492629736436768,-4.0870646698357636
0.134,-0.7127690769184355,-0.17905613601144627,-7.828599230826279,-0.834426732786336,-0.2716614234179585,0.05399044749230952,-5.7240055552552755,-0.2916352173276499,-0.5433228458644168,0.23177220959151068,-6.045323505998092,-21.40299016884798,-0.05276905500393513,0.4866530212869918,-4.533700609805175,-9.855251028713246,-0.45276905691843544,0.18818590297841897,-6.835157687994515,-8.018681170111838,0.356677131845576,1.057430013772505,-9.78637325445487,0.5226058283179921,0.0,-0.03171010078728985,2.6072162249025874,-5.160131417102062
0.136,-0.7251939674089175,-0.1944039135004173,-7.816786463591272,-0.8332234108950757,-0.2791163806005007,0.04209671384428282,-5.77774583785883,-0.17427879066185764,-0.5582327612010014,0.21949107408560867,-6.412557252216645,-20.41991053031072,-0.06519394970183595,0.4770604032179564,-4.835743121300227,-9.797930964685467,-0.46519394910407724,0.173605924028258,-7.256036256528199,-6.759379101437105,0.3417672730751073,1.0367141062270182,-10.196937369846548,-0.07084006273637773,0.0,-0.02633799158030285,2.671953001332181,-6.570060904066174
0.138,-0.7357797712996086,-0.21013692768917497,-7.919218684704739,-0.1711042717391457,-0.28546786732439805,0.030204716716442363,-5.934323627069281,-0.10235071436559391,-0.5709357346487961,0.20606017794792275,-6.8837263037669985,-19.53026773891223,-0.07577979577831812,0.4670837862221182,-5.1024447468534815,-9.055744399766413,-0.47577980857739294,0.15863796331082505,-7.584918247290111,-5.7877959735027495,0.3290642413512039,1.0163769239052078,-10.356690378908016,0.8857420533787009,0.0,-0.020581150792510237,2.920761675328613,-7.088446894536454
0.14,-0.7444555085568713,-0.22595416776945582,-8.067522864771211,-0.24229027840667056,-0.29067328102116974,0.01890682188531305,-5.938280277075482,-0.45552906636454066,-0.58134656206626,0.19212576424224692,-7.152175593778233,-18.275505771644234,-0.08445548193960054,0.4569150252656524,-5.262736848171445,-8.792568146522528,-0.4844554875807918,0.14282072323054418,-8.112229487378583,-4.777155419101814,0.31865341393374,0.9960403385757753,-10.46275221040316,0.9971948918923347,0.0,-0.01455535712697484,3.176927185803979,-8.118505559030426
0.142,-0.7512759637159805,-0.24219084759639425,-8.013661934298076,-0.43975387345949524,-0.29476556696606954,0.006927633813221154,-5.933336436396515,-0.3852618498248798,-0.5895311349052083,0.17705844343617788,-7.5368570453546875,-16.952918476591947,-0.09127595371242139,0.4460949123168269,-5.286341226676923,-8.344558929563462,-0.49127594530489976,0.1265830969325721,-8.22920107075096,-3.792087908963101,0.31046884271064185,0.9736405205641827,-10.794699056049039,1.315280154436298,0.0,-0.007989021661658654,3.315617011342428,-9.295897085395673
0.144,-0.7561234437907894,-0.2579450866418832,-7.939195067950822,0.1797527287015499,-0.2976740955421052,-0.005072398483160471,-5.899076929543177,-0.2810268680677077,-0.5953481910618421,0.1620575083167463,-7.739205739644097,-15.130413999729868,-0.09612346945526316,0.4352204427961776,-5.619855340273511,-7.973461980749796,-0.49612348211973684,0.10971209342500875,-8.622585588741872,-2.6610239629390513,0.30465184426710523,0.9526289945703298,-10.788681028103134,2.58336181992227,0.0,-0.0012400979583964576,3.399520785324554,-10.211734844930893
0.146,-0.7590385961381485,-0.27419527293934287,-8.075984563688891,0.16602238532398603,-0.2994231639898858,-0.017078521697556866,-5.966122799638224,-0.2808569315981466,-0.5988463270053546,0.1454540658553376,-8.11764923885269,-14.622431457639188,-0.09903860713814851,0.42362418996870865,-5.6656897978690575,-7.265103684515345,-0.49903860516373155,0.09117439934733422,-8.827130421461789,-1.7245132837436514,0.3011536797621371,0.9305871495571068,-10.627605810053316,2.3234529596655435,0.0,0.006100059328559393,3.536519810942472,-10.585390567265735
0.148,-0.7599763523622424,-0.2905913408444552,-8.112363596920893,0.03606734435488959,-0.29998582912985144,-0.029180036137466635,-5.95147623947998,-0.5834210935072798,-0.599971658235745,0.1286678470015773,-8.280027730274325,-12.93488693048265,-0.09997636336224246,0.41191284601650086,-5.8033849294940545,-7.019369434360835,-0.49997636233828463,0.07358337635586024,-8.847895512960447,-1.077882850399539,0.3000283770455199,0.9091005191406212,-10.752673295501943,3.2229179625738897,0.0,0.013135474460325165,3.3734690559468574,-11.03195844766695
0.15,-0.7589284135485871,-0.3064252513056383,-7.950056591062701,0.802687692820956,-0.29935705481304403,-0.04038177686827989,-5.824775451618549,-0.44902797268220285,-0.5987141086548229,0.11129745069436166,-8.504857905305162,-12.205619435962332,-0.09892842497961131,0.4003316315295029,-5.727378356735606,-6.750039269915127,-0.49892842341063554,0.05505786977124807,-8.96365358823054,-0.5637601924806294,0.30128589820722546,0.887481207210037,-10.801858553560615,4.483151593777566,0.0,0.02047202607915127,3.636495593564072,-11.19424234977232
0.152,-0.7559155922626937,-0.3229166890918197,-8.183718857467683,1.430170458301455,-0.29754938394040525,-0.05227131856785119,-5.888893128584784,-0.2726590215387551,-0.5950987679096543,0.09480052694705463,-8.611152166018602,-10.37566783039399,-0.0959156171954708,0.38920601042857145,-5.701681654964942,-6.583005960345099,-0.4959156295609058,0.03779470345766754,-8.893995467263773,-0.1602892979599332,0.30490126635971393,0.8663846087169091,-10.80083340914715,4.912829932675173,0.0,0.028141109362508944,3.9148016249742428,-12.260544640586216
0.154,-0.7509470225903083,-0.33903108973349055,-8.054984347914623,1.815594685389151,-0.29456820080985835,-0.06378143224115566,-5.860533360828891,-0.35379976989823114,-0.5891364025910227,0.07715063998183962,-8.576530762589623,-10.324821181898349,-0.0909470111312061,0.37769440755613204,-5.742917079136556,-6.092123296682783,-0.4909470025616145,0.019759819726415093,-8.969226713858845,0.025993304152004716,0.31086357340897725,0.8452813326074292,-10.683664307077711,6.197043436605661,0.0,0.03543531578195755,3.9418900894647404,-12.919784834210377
0.156,-0.74405213913247,-0.3542092350825472,-7.7968860745768875,2.393737684304245,-0.2904312598937864,-0.0747862953567217,-5.538769891518043,-0.7426074371213442,-0.5808625197875728,0.060075463365801884,-8.588001629551886,-8.995389243333255,-0.08405211358072948,0.36631127036933964,-5.789706140392217,-5.1434109309610845,-0.48405211977200907,0.0019243203679245244,-8.768482774343278,0.3498377551524764,0.31913745621242723,0.8247903655503538,-10.427679088648938,6.131840616371698,0.0,0.043403606177712266,3.870948062138797,-13.253409708048112
0.158,-0.7352723042160038,-0.3694749955967742,-7.439315596306452,2.7613978999798388,-0.28516338779971423,-0.08547500171774194,-5.313645809290322,-0.6106975536290322,-0.5703267755994285,0.04252203823387096,-8.59773074791129,-9.00593616158871,-0.07527232913360324,0.3544827426975807,-5.765916516407258,-4.363958604673387,-0.47527234179685635,-0.015633510306451614,-8.859023433024193,1.0239541913830645,0.3296732018437723,0.8041820567741935,-10.117154998084677,6.630647259705645,0.0,0.051039153798387096,3.7784964039637097,-13.760448363141128
0.16,-0.7246005474823136,-0.3834715505639972,-6.947922115797909,2.485744785370479,-0.27876032794968925,-0.09605640386754344,-5.3834386926945745,-0.37996290990418036,-0.5575206558763145,0.025510307171324565,-8.653085207377172,-7.329464401114608,-0.06460052841312142,0.3431403522296853,-5.77898480937412,-4.09577251936907,-0.46460052748231356,-0.03301829760685768,-8.866088772070102,1.8586021753143496,0.34247937873984224,0.7845208103776421,-9.711866467458197,6.750796974623297,0.0,0.05897102907386097,3.9614952140748003,-14.218860743121537
0.162,-0.7120505240907135,-0.3970100219917137,-6.586099171831632,2.139989913864537,-0.2712302921032628,-0.10724538426576198,-5.43576759101405,-0.30748854773784073,-0.5424605832319828,0.008508503857091392,-8.52782576527861,-7.171895667596132,-0.052050503210828256,0.3315550854929747,-5.559571570913654,-3.490099625334694,-0.4520505048544281,-0.05040698615707938,-8.761596334071815,3.1710659980112887,0.3575393935317318,0.7655658013925783,-9.398756779760419,6.416651315006605,0.0,0.06708081183019095,4.002465503224451,-14.444501882971778
0.164,-0.6977064211502141,-0.4092050626986334,-6.017972605519439,2.2584569566998116,-0.26262386998144627,-0.11785593019757305,-5.1381258877621345,-0.5997746575371111,-0.5252477399628925,-0.008761764734213008,-8.405894470031926,-5.582261856848963,-0.03770644278686965,0.3201668366454995,-5.528427500953699,-2.666785423972903,-0.4377064311222645,-0.0692185205440622,-8.79917265191164,5.048917617143497,0.37475226519862037,0.7467242434559378,-9.043198252942743,7.03317577494663,0.0,0.07493919852002827,3.8629904637442274,-14.779807825532753
0.166,-0.6817104934958786,-0.4201986099040999,-5.699801512441683,1.9512030739005657,-0.2530262951633019,-0.12733309440728088,-4.9440570137135955,-0.4984417583886664,-0.5060525903266038,-0.025441045797360978,-8.305165672904216,-5.03760011145311,-0.02171050162262573,0.30993100906350146,-5.300730528138902,-2.603811666081291,-0.42171050172536134,-0.08589874436781339,-8.81877537826508,6.54827736256951,0.39394738567339627,0.7300440196321867,-8.766946835171773,6.721941030160108,0.0,0.08252111843991518,3.9202945097673187,-15.223862349401744
0.168,-0.6639733008164896,-0.4314444253187627,-5.201882660707034,1.9218839241489312,-0.24238395978475125,-0.13626321857291293,-4.614781687888451,-0.4083195554510928,-0.4847679195695025,-0.0417400413919742,-8.19312466860695,-3.3485907780898128,-0.003973276038897506,0.2994596766812373,-5.057113522006091,-2.3959498312780365,-0.40397327981648967,-0.10411741660492059,-8.796684438330825,8.011667539451809,0.41523205726452694,0.7125948473538756,-8.296232757385644,7.403809112393407,0.0,0.09104721705661054,4.10995026331506,-15.697773715357219
0.17,-0.6446598892732149,-0.44105114809493745,-4.914930854722931,1.8375221607141154,-0.2307959305029205,-0.1454841879581894,-4.516497170229065,-0.26323028942549137,-0.461591861005841,-0.05787804080202502,-7.913866129392853,-2.7729088106466944,0.01534012683621409,0.2898545979279333,-4.851533740922811,-2.0790621004426444,-0.3846598691350578,-0.12102103491161405,-8.416176193142466,8.830428623513281,0.43840814499415903,0.6968376692661108,-7.998944629463848,7.333023047576891,0.0,0.09911820693531864,4.082471528488743,-16.50024118073008
0.172,-0.6238491024204004,-0.4502476014594305,-4.382459865047063,2.1018702949913024,-0.21830947028693992,-0.15391489749577028,-4.3229802913766235,-0.32337674798748955,-0.43661894057387984,-0.07282416835505778,-7.540993181821994,-2.2838600800612414,0.036150883150619637,0.28104120550422973,-4.479805048825807,-1.7920680743738828,-0.3638491122783603,-0.13634984435851305,-7.718717746046348,8.580856350151912,0.4633810654261201,0.681510758641487,-7.540218626501608,7.866309501866317,0.0,0.10716718349577029,4.063812444983558,-17.049234823169904
0.174,-0.6016091475254015,-0.4586812695297336,-4.180601722982398,2.622088696813392,-0.2049655116133254,-0.16196556252973357,-4.0382370181825635,-0.4923900955746908,-0.4099310231984533,-0.08700971971693626,-7.095069006729306,-1.6375767382258564,0.05839082398215348,0.27298939771931496,-4.188430756680661,-1.3649015124355375,-0.3416091856794765,-0.15053083704757375,-6.819584646652117,7.9023585282122975,0.49006898195562165,0.6673252034464796,-7.2226585557169365,8.652521098301618,0.0,0.11521670861239296,3.9400807134738347,-16.685572582095148
0.176,-0.5780596999414913,-0.4663355993354718,-3.800118735882655,2.676958459554998,-0.19083582576489475,-0.16961989233547184,-3.797085608370115,-0.3427381893210078,-0.3816716505560709,-0.10078672372681674,-6.661475752190832,-2.140560846657763,0.08194028905850874,0.2649510750527237,-3.8750273115714453,-0.9395488498567596,-0.31805970896777264,-0.16277754981791673,-6.161777439059839,6.903943398432288,0.5183283254439291,0.6535472476062055,-6.592527284248222,8.565354475225242,0.0,0.1224890696501808,3.75138352254485,-16.260666701439987
0.178,-0.5532716937399617,-0.47309120432509044,-3.6045383718341304,2.8134739354425524,-0.1759630219005736,-0.1763754973250904,-3.5635544197915547,-0.1588037780899335,-0.3519260437772466,-0.11317262181663362,-6.230304858973521,-0.8936254522100782,0.10672829545124284,0.25706922476041055,-3.8705447244518836,-0.4547502096066721,-0.2932717037160612,-0.17328606126548465,-5.351089904714803,6.175133050770092,0.5480739322227534,0.641160417081535,-6.192408847261402,9.217486840113613,0.0,0.12961977860293947,3.6856936622453054,-16.405785308540416
0.18,-0.5272002905430242,-0.4793117867113228,-2.979497557229591,2.5281595395829015,-0.16032017419966585,-0.18335610415121187,-3.2893768755584225,-0.013604739547570244,-0.32064034742570713,-0.1255897724226456,-5.783624259631496,-1.2531346011090077,0.13279970682623224,0.24968598830676475,-3.7707489881415652,0.1625082908168335,-0.26720029917376775,-0.18338496400687326,-4.756730307827686,5.9007187983411304,0.5793596293655567,0.6298828110112142,-5.443661439249729,9.06462853541336,0.0,0.13660839015121187,3.324759764527915,-15.882458177499457
0.182,-0.5001122569041454,-0.48432598747536476,-2.4882603920778523,2.552524264835446,-0.14406735674795107,-0.18952122704568286,-2.997589425894164,0.0667505103643865,-0.28813471349590214,-0.1363815963269553,-5.24271483295635,-1.2661309826072709,0.159887753303599,0.24237379938399906,-3.6651730989686677,0.835340467238938,-0.24011225231393277,-0.19148651450203302,-4.212894302181655,5.752975875931475,0.6118652925040979,0.6191044026670653,-5.137322220851352,9.308453676500239,0.0,0.14315427673678546,2.9892316307034204,-15.422121635745036
0.184,-0.47220228414592275,-0.48845419363018167,-1.8838809086269213,2.2649192066357706,-0.12732137334477825,-0.1944021029948766,-2.7366808695645086,0.05029729153423382,-0.2546427467134001,-0.14650299470703307,-4.919263030609688,0.05552081314997692,0.18779769785407727,0.23599728042990217,-3.3417221358570095,1.4069774224713556,-0.21220229412207914,-0.19898411424406148,-3.7088212633493245,5.554787655920355,0.6453572585712923,0.6100988639967396,-4.639035626376339,9.487789674786214,0.0,0.14878166379739172,2.9543850685407547,-15.194093571724267
0.186,-0.4433518697961014,-0.4912354960548328,-1.3116723658171427,2.3429843452948327,-0.11001112709208323,-0.19948176600960488,-2.309479574582249,-0.06513783264255321,-0.22002225516012916,-0.15553642471756837,-4.422386293702735,0.5180015618177508,0.21664811256445826,0.22973369534844984,-2.9395114669039515,2.0773007097224316,-0.1833518787961014,-0.20490289389179334,-2.9465741909454106,5.267362035300425,0.6799777208639082,0.60185883816462,-3.875407100528146,9.705088867863708,0.0,0.1542632717805471,2.619929552883161,-14.874308720072097
0.188,-0.41369209430845355,-0.4935488609102978,-0.9465827975388111,2.2120663255713433,-0.09221526228222249,-0.20334340470386317,-2.0309385741029784,-0.126635960696687,-0.18443052453737926,-0.16400857610788183,-4.0450286786270775,-0.14582726936981216,0.24630790266448074,0.22471704604150222,-2.5096276639690225,2.4357034191650517,-0.15369210333551925,-0.20991525495849778,-2.2795171063128814,5.260908953944026,0.7155694528415405,0.5952982042401627,-3.3164356139815814,8.893538608948093,0.0,0.15927228054192083,2.381484984173664,-14.119684873109556
0.19,-0.38350694641828814,-0.49470850880981887,-0.5139255982831268,2.326544315712584,-0.0741041698947117,-0.2064172796544328,-1.6472003134213538,-0.091085022978551,-0.14820833881676018,-0.17092283731935176,-3.508744090395138,0.3138934809346997,0.27649304958171184,0.2197319225171592,-2.3428308707740704,4.211471912040515,-0.12350695619959412,-0.21375956694280265,-1.8021326638836987,4.987357157191611,0.7517916519918825,0.5895396642206864,-2.7248710436439465,8.934382916192563,0.0,0.16349592418636796,2.140507182200191,-13.663737511132506
0.192,-0.35280583292335116,-0.4947147348905786,-0.017384600736129262,2.416034751260663,-0.055683503279857396,-0.20874741425983132,-1.0994755955910658,0.24697832914957824,-0.1113670065311943,-0.17713522711987645,-2.9425580454410123,1.179615244433171,0.3071941630766488,0.2150710825100392,-2.331095156715932,6.204668062999881,-0.09280583492335115,-0.21647834911346087,-1.2122011053544017,4.637030270286801,0.7886329782959002,0.5848772532534158,-2.105076885139361,8.715048990083046,0.0,0.16738068837649994,1.8491193595930855,-12.911900709225376
0.194,-0.3218667019289983,-0.4939493046311074,0.39925792156313467,2.5769113323403414,-0.037120022331341145,-0.2095105214212161,-0.41085412556600165,0.3061480313105961,-0.07424004368826201,-0.18172304273467926,-2.266833037565285,1.9550095082699797,0.3381332940710017,0.21086509594911002,-2.0240531088439853,6.758691476594433,-0.06186670421037532,-0.217242956,-0.42767433276920325,4.138978916029746,0.825759968467607,0.5818193506861785,-1.563568130062358,9.168950624185761,0.0,0.17082124368271415,1.5935835717089952,-12.645530331265558
0.196,-0.29050807925122213,-0.49279340682156486,0.7252028879169847,2.619579250097328,-0.018304855299868847,-0.20873882427480916,0.35154398358492367,0.33594209354675575,-0.036609710599737694,-0.18594881208778627,-1.7744607780066795,2.4141771959608778,0.3694919167487779,0.20663807954675573,-1.9456076481383588,8.778433004347328,-0.030508092166448075,-0.2172407583625954,0.05108493293893129,3.8817047924103054,0.8633902692872303,0.5798986389093511,-0.8893275880639313,8.89475279400668,0.0,0.1738934579971374,1.2861850135209922,-11.976296511850192
0.198,-0.2591089727178631,-0.4904875811752922,1.1316391721569283,2.9501747548313855,0.0005346104373956595,-0.20681784147078466,0.9029382189165276,0.3038405750417362,0.001069220874791319,-0.1890153544691152,-1.2914684530500835,3.01539088296995,0.40089102328213694,0.20280251641402336,-1.7075195754023373,9.432935644429048,0.0008910173956594324,-0.21647012458764608,0.5725548671519198,4.134907010913189,0.9010691967612688,0.5787521322420701,-0.3667602384073456,8.987991537100168,0.0,0.17580965035559265,0.9669219004657763,-10.605071053101836
0.2,-0.22770636755906545,-0.4874133095400024,1.6430439974535591,2.8749862116048646,0.019376175927762546,-0.20451154761714557,1.2273339625363062,0.25930544330189575,0.038752351826796996,-0.1909310411101705,-1.0003326542935493,3.1714984645338022,0.4322936289005841,0.2001169596905926,-1.4888648767132466,10.237491259683916,0.032293626555846944,-0.21493086321676402,0.9036611561126744,4.503633686370454,0.9387523246024556,0.5791408516693692,0.2924538993630619,9.024233174359603,0.0,0.1769583090367235,0.5883780255743412,-9.723014445370932
0.202,-0.19644771793826574,-0.4831894012981204,2.1661781051713063,2.678302389003569,0.038131367911264424,-0.20105740169521769,1.5505312258510588,0.3072949940149893,0.07626273485107647,-0.192076921,-0.5734528004882228,3.9310494710789916,0.46355229406173426,0.19743257872019984,-1.1707187001498929,11.647659160010706,0.06355228006173426,-0.2122445102058054,1.1994236368348798,4.4279576529024505,0.9762627329946474,0.5806798643528431,0.7314935839595527,8.955140303429454,0.0,0.17733880955864859,0.2140220072786105,-8.37752020715727
0.204,-0.16549619220862707,-0.4778284440376344,2.6076886437258064,2.7681182125358426,0.056702285816465525,-0.1972278132598566,1.8429615952383513,0.3896304265716846,0.11340457160640459,-0.19207485983333333,0.0615798918172043,4.57653392915233,0.49450381896905243,0.19513599724910394,-1.062680535,12.597490587424732,0.0945038059770582,-0.2091790192043011,1.8157569859247311,4.389175667903226,1.013404540394193,0.5833620636845878,1.5246679791756272,9.013484312206094,0.0,0.1769555161792115,-0.281875767688172,-7.452512904838709
0.206,-0.13478502656114422,-0.4720588111048868,2.9916256108429082,2.8078919711775927,0.07512898319022646,-0.19299515842526818,2.1124064436162096,0.4957163233463647,0.15025796540929678,-0.1909205716796186,0.5369966382672229,5.459816599117044,0.5252149553041716,0.1928317356796186,-0.9999800547087008,13.725250817787842,0.1252149784388558,-0.20456367442526818,2.205421685649821,4.733429552611442,1.0502579285437426,0.5872120285747319,2.0297248504235994,7.982745964667461,0.0,0.17618296567961858,-0.47719873543361147,-6.737593579929201
0.208,-0.10464660742823109,-0.4655362819506598,3.3910705698875283,2.8800531623666625,0.09321203880583681,-0.1880081694490548,2.3675598315862563,0.5737555170857211,0.18642407764026206,-0.1893821107245274,1.0338367904055406,6.922237134306504,0.5553534033716497,0.191303492,-0.5611261962362383,14.086357034971346,0.15535339737164977,-0.19957522687528237,2.5161122607726787,4.7081171042005705,1.0864241126688505,0.5922033932722626,2.624935066412674,8.017199962929022,0.0,0.1746459669278326,-0.9402212732823683,-5.68496120923065
0.21,-0.07513782023906083,-0.4582651587375103,3.7259067069707297,2.8645733379687317,0.11091730632337246,-0.18265029494416363,2.7321870614491597,0.6178246361522275,0.22183461361899678,-0.18670227215081697,1.4040373988777477,7.83718820903785,0.5848621836499466,0.19130439444151875,0.14436618273033971,14.092388504933584,0.18486217767769478,-0.19383498328353121,3.0894835827781826,4.670211601634302,1.1218346504236927,0.5987088268197954,3.285184591743858,7.965574462222405,0.0,0.1723498984720818,-1.2095884171739744,-4.820153067990948
0.212,-0.04647694635289187,-0.4499432037611379,4.074962398019044,2.735664850140825,0.12811382628248114,-0.17659830610861643,3.1015840538041615,0.4531054138407194,0.25622765256496227,-0.18292024945609497,1.8343416963325498,8.732694475987422,0.6135230534886841,0.19206136238744564,0.2842878621392971,14.561449603223933,0.21352304880553227,-0.1874049803095098,3.337735483517809,5.006027391286118,1.1562277162296732,0.6062738128642294,3.728126976491948,7.5033740399757844,0.0,0.1693239040543082,-1.4698765911036793,-3.75528891119866
0.214,-0.018390438627148994,-0.441100280723099,4.440528355160689,2.5023273103185075,0.14496574333643744,-0.169684403205165,3.3406750471147775,0.2792422669526543,0.2899314866457737,-0.17869347572596844,2.3335901391033,8.936481437388808,0.6416095539934336,0.19283025344763272,0.5972841008321378,14.711109919654232,0.24160956339995227,-0.18010475062840745,3.7442870451248207,4.945135283895266,1.189931493458811,0.6147264281291248,4.364095657285509,7.461114552170732,0.0,0.1658669526025825,-1.711930350163558,-2.9692445036169297
0.216,0.008656723608011445,-0.4313805392280911,4.958029202558603,2.179403062531537,0.16119403036480687,-0.16191201410110886,3.685070288710862,0.2805088100366042,0.32238805975822604,-0.1732575354789555,2.663492450585072,9.19567333836211,0.6686567023505007,0.1943811961254322,0.9817780784881365,15.251465785459521,0.2686567263505007,-0.1719407268583522,4.011805492076666,4.5909619466708,1.2223880940701002,0.6244408506642423,4.8571070037793005,6.323879637624419,0.0,0.1619795514967211,-1.953341559335877,-2.325157301053297
0.218,0.034602767227467815,-0.4206374820806913,5.255932565949225,2.2395929997974973,0.17676165669098712,-0.1538523620997616,4.108768094149584,0.2855931714481526,0.35352331335336196,-0.16711443677997617,3.1907236525276517,8.95435946427795,0.6946027374563662,0.19668570285721096,1.3445997554332538,15.400227242271752,0.2946027614563662,-0.1627323125092968,4.664893641403338,4.370673009879857,1.2535232903247497,0.6348044555867699,5.379343602478784,6.862565531485339,0.0,0.15775848771418355,-2.2011386616740167,-1.7141816631845053
0.22,0.059387503754461106,-0.40951282513130355,5.633369151345386,2.238013644342531,0.19163250403616464,-0.14502812286013322,4.446739733525214,0.38746691518363463,0.3832650071009993,-0.15982643668696478,3.516887806369172,9.745818605093245,0.719387482929931,0.19975569873644147,1.6093467692378687,15.932834275428164,0.3193875060698311,-0.15314046304091342,4.911762168873453,4.292883698346337,1.2832649848211992,0.6463177672492864,5.980641101234063,6.542700559439582,0.0,0.15315422888296862,-2.2080079829248334,-1.0898469730675548
0.222,0.08286502359995224,-0.3980300906402294,5.7644539987224075,2.11059679141806,0.20571902199486505,-0.1354601747204969,4.686987321652651,0.42963854448638317,0.4114380439897301,-0.15255409887386526,3.913855711918299,10.675632055719541,0.7428650414016001,0.20320185874677496,1.6845383387381747,15.84749224954324,0.34286503620050157,-0.14280608154706162,5.081168129330625,3.9817076444118493,1.3114380775930259,0.6593292733860487,6.306077643698519,5.408723340115624,0.0,0.14817874634639275,-2.4150870860172002,-0.654761683264214
0.224,0.10507307122448493,-0.3857286421292951,6.016015286736214,1.7932775503751328,0.2190438445743718,-0.12546357534218916,5.013620895896091,0.15700701874247255,0.4380876891487436,-0.1440956046818987,4.282356113780848,11.606127702552957,0.7650730458480409,0.20743158215905066,2.1760107253698195,16.625010210889833,0.3650730689977373,-0.13165800647242887,5.554335315385877,3.738757401349392,1.3380876351487436,0.6724016312570552,6.82598933556323,5.837496637084543,0.0,0.14279564950123982,-2.657244959890542,-0.24527760486066832
0.226,0.12578388801905216,-0.37318914946227416,6.4996916837052785,2.0337856604782143,0.23147033577042153,-0.11520450588097769,5.246057781596528,0.15446681290116898,0.46294067154084306,-0.1349758018352816,4.565912639385406,11.022090021648246,0.7857838844298642,0.21199148358235917,2.417848924349628,15.901309373400638,0.3857838784298642,-0.12025778141055615,5.7901276534938,3.5951039771441726,1.3629406191840916,0.6864610910651789,7.184514530630181,5.044872989023734,0.0,0.13709648146333686,-3.065344321951116,0.46862893892738233
0.228,0.14497068086910994,-0.3601574891851543,6.599636806346122,2.143290538140117,0.2429824029947644,-0.10409175192827357,5.473556143065888,0.23933234670225187,0.4859648059895288,-0.12501243099332776,4.912006841027523,11.32047402786322,0.8049706910837696,0.21735351420767307,2.739135198391159,16.809253748520433,0.40497068586910995,-0.10761386620683903,6.259919354940783,2.989641496263553,1.3859648127748692,0.70216962023603,7.732353914049208,4.199740040417014,0.0,0.130201406794829,-3.4588829534537116,1.8698589712702252
0.23,0.16255637060505207,-0.3462735545657595,6.696330373009111,1.7093673226767774,0.2535338197888184,-0.09252057551396715,5.694411468344803,0.30350205997626184,0.5070676395776368,-0.11459795640306918,5.30884441640223,12.557293861525597,0.8225563527094457,0.22352130608188467,3.0156820018212445,16.36426937344875,0.42255637526146295,-0.09449946124349598,6.542037169328977,2.7342310210981897,1.407067674105112,0.71798842508704,7.996393096997722,3.970917384668625,0.0,0.12249132673264597,-3.9904894731089797,3.5728293520509533
0.232,0.1785630040543569,-0.3331678168509242,6.801026730445558,1.4277760213668456,0.26313780840743833,-0.08057476280632081,5.9689939825629095,0.08900049297853309,0.5262756167861485,-0.10380698696815742,5.344667129299225,12.852179322819797,0.8385630296234354,0.22968759502802621,3.163077459370662,15.938431175863565,0.43856299545655025,-0.08139673878211091,6.707040400930471,2.6097345129333336,1.4262755945098342,0.7349400162663089,8.444041378166249,3.1210088301259393,0.0,0.11439946694776386,-3.8585481338597494,4.538437849167442
0.234,0.19277049691522594,-0.31896775383247883,7.045037066167402,1.4503273681601287,0.2716622904187433,-0.06829322321414093,6.097100193282222,0.06604456221378324,0.5433245798661023,-0.09229489209300107,5.709003880260641,12.008916488882795,0.852770507915226,0.2362126136561345,3.349301135167402,16.190581174319778,0.45277050191522594,-0.0675801859439609,6.690190448256827,2.261230823444617,1.4433246124322165,0.7518295138155479,8.622369662943603,3.096353846207464,0.0,0.10634090510110886,-3.947177645273638,5.309507094069274
0.236,0.2051951394100119,-0.30438738688939215,7.230425987621454,1.3336931648429082,0.27911709778069127,-0.05562959720977354,6.267373530351847,0.18652867742240764,0.5582341955613825,-0.0807810615749702,5.867661049073421,12.901575051036472,0.8651951504100119,0.24312446721549466,3.5362050543179975,16.56281178714279,0.4651951444100119,-0.053382337502979736,7.05563248778379,1.8858960700643623,1.4582341132920142,0.7698655078445769,8.969856118957091,1.900729243857211,0.0,0.09828330878450536,-4.060020525654827,6.247883649787843
0.238,0.2157789437985697,-0.28981251104860617,7.2156594940009535,0.912785812054801,0.2854673514564958,-0.042590276324279246,6.445353493590184,0.19351402070931617,0.5709347029129916,-0.06850590348892066,6.157754787380272,12.617898931726947,0.8757789547985698,0.25117968079509173,3.89462664151918,16.319424465348106,0.4757789487985697,-0.03919075021324756,7.209404736296164,1.9003894983407197,1.4709346806293206,0.7882746253380987,9.19384608570622,2.1379555341722662,0.0,0.09022809520490828,-4.148917052488921,7.162955591573505
0.24,0.2244868139315689,-0.2748613515539783,7.328188304014792,1.0059869845647142,0.29069207962732474,-0.029553355042586184,6.562053804043183,-0.0934507845571991,0.5813841592831426,-0.05585431760694262,6.351810303188715,12.356594578744005,0.8844868245041727,0.2596137535711559,4.230436338522486,15.621669064447811,0.48448681850417263,-0.024622459623404508,7.282510228152332,1.683973335053203,1.4813841952831426,0.8066800327596325,9.429443290911607,1.2225516631450555,0.0,0.08179278764666587,-4.344828110953715,8.107538056608732
0.242,0.23128359974836796,-0.26027306659593263,7.342192991213829,1.0576284374214993,0.2947701538991098,-0.016119278567925624,6.662618912052179,0.009670788418128995,0.589540308769733,-0.04318599946949448,6.568376014826962,12.774927119576525,0.8912835961756677,0.26806094843811734,4.192003106398722,15.102194907877164,0.49128359017566764,-0.010036591180360255,7.3267293775760605,1.4329692533439862,1.489540343060534,0.8262571998558977,9.895852820049042,0.7461978767583963,0.0,0.07296492080488087,-4.290284056722255,8.806724070963044
0.244,0.23612902309769496,-0.24569004461661825,7.4225162793834984,0.5446466787407321,0.29767742311799833,-0.003031092742475306,6.707776358769669,0.1329483139716444,0.595354846211752,-0.03047245262463684,6.562424557752702,11.939588714118768,0.8961290333703571,0.27703647398140613,4.474612720473794,15.00259678138187,0.49612902809769494,0.00417365170261476,7.354989966909239,1.0977614760517143,1.495354822211752,0.8457030890459035,10.146929565605346,-0.17659961665287627,0.0,0.06436310430005811,-4.3438304363062175,9.492128892842416
0.246,0.23903911266912992,-0.2309513961772152,7.3352244136292954,0.2519314856582278,0.2994234714990465,0.010916330034358048,6.759570757882459,-0.10692966484267633,0.5988469420241954,-0.01653419161482821,6.572559290896925,12.921055468088609,0.8990390936691299,0.28596008031283904,4.42043914292405,14.89499896416094,0.49903911766912995,0.019283340216998193,7.391837425059674,0.9610895089276673,1.4988469180241955,0.8677573149095841,10.478456693909585,-0.9503076842676311,0.0,0.05582691308137433,-4.17143286053707,9.414791531358047
0.248,0.23997444912098795,-0.21612542202481097,7.350703068095463,0.5030401594154064,0.29998468417742513,0.02422868228520794,6.790735212627363,-0.10163206270912098,0.5999693683289583,-0.003595838143431002,6.615755326587193,13.045116114448252,0.899974430120988,0.2954578654293478,4.721963089872637,13.727341835280246,0.49997445412098795,0.03373668065784499,7.344360578249764,0.7313250697525993,1.4999693443289583,0.8879271812313327,10.572987631448724,-0.8436794848962665,0.0,0.04708500362594518,-4.205431824659263,10.175291127719754
0.25,0.23893405761988792,-0.2013945877835722,7.270939878487895,0.3460024632329279,0.29936043832753073,0.03816909114765747,6.839221589148621,0.0766675182555703,0.5987208756818886,0.009956462194748886,6.689155585895942,11.609319883627002,0.8989340394247048,0.30552432717042033,4.894241513452366,12.977179193392269,0.49893406261988793,0.04883965936119475,7.331313446628086,0.4308043771564495,1.4987208516818886,0.9092217287558714,10.723509812301096,-2.827097813238468,0.0,0.038554201986390466,-4.405629190504035,10.889060934543057
0.252,0.23592437827420124,-0.18716403652616487,7.279249224982915,-0.22161729269546,0.2975546359369337,0.051249550497013144,6.696724449107646,-0.06241322310143367,0.5951092719009299,0.023413801471087216,6.755904764054958,11.97342055575699,0.8959243888682642,0.3151406886357228,5.103380666038231,12.561115689514217,0.4959243828682642,0.06307390546654719,7.340284381975627,0.08109845205782551,1.4951092495246783,0.9303703422364397,10.532882306676942,-3.2354140051262843,0.0,0.030095330333811232,-4.124302489735364,11.069270185971087
0.254,0.23095836739661743,-0.17298035126101977,7.173356983022516,-0.1440330846205623,0.29457501397308244,0.06466515927174171,6.669699812510126,-0.21857376221622588,0.5891500289191282,0.036831257886466524,6.585036941350012,11.72188720316226,0.8909583638021678,0.32586513324684296,5.268387505315941,11.848602404665952,0.49095835780216773,0.07763885405051227,7.232878439431618,-0.06639961862091968,1.489150064919128,0.9514538449527042,10.483032875426614,-4.150133740872409,0.0,0.021661176310698117,-4.125254083746843,11.178439790337025
0.256,0.2240611849717973,-0.15903970519569893,6.970739672078016,0.03387200818864994,0.2904367020200765,0.07783142477455196,6.603768707170251,-0.0027832764369175624,0.580873404040153,0.050381397869056155,6.586685109825806,10.927804881389845,0.8840611959717973,0.3363227783818399,5.133869603935603,11.565276287203943,0.48406118997179737,0.09235077839127838,7.206055712970131,-0.2362020039287933,1.4808734384627151,0.971980349858184,10.445182115859499,-5.3188418861654725,0.0,0.013527533823178017,-4.1160110968194745,10.888537500510992
0.258,0.2152246979529244,-0.1452022200388464,6.707910752436021,-0.526041257966804,0.28513480462767476,0.09051707619576221,6.406845125354679,-0.00824983620258976,0.5702696092553495,0.06344825767180695,6.566520145110536,11.547746408396586,0.8752247089529245,0.346317244351854,5.110726403788228,10.98744229619894,0.47522470295292435,0.10657149272313125,7.19119484409229,-0.6489156622513242,1.4702695835435093,0.9923557284844027,10.27044086141342,-5.672951908976221,0.0,0.005457911257445556,-4.032815544293702,11.169986299927253
0.26,0.2045652844557385,-0.1323225127934079,6.499963189462978,-0.9415747424674514,0.27873918506764495,0.1030181892043555,6.175119641541023,-0.2318685251862272,0.557478370109401,0.07519218418175398,6.199448489603061,11.025167074809065,0.8645652954557385,0.35616632141059446,5.029357092389876,10.46667116885109,0.46456528945573844,0.11982979321789287,6.859682707927369,-1.013453944436139,1.457478289216058,1.0128120111965861,9.97630210241954,-7.07252666723555,0.0,-0.0013605356145968217,-3.7706217733925835,11.015925186641438
0.262,0.19203456064586547,-0.11924912617017208,6.344968299625239,-0.9584841612715105,0.2712207283808281,0.11532553144837476,6.0049317065239,-0.1872375453250478,0.5424414557882311,0.08825514582982792,6.196685521426386,10.36559455439197,0.8520345720444893,0.3665452635573614,5.0952995982237095,9.953346842948374,0.4520345652738166,0.13367017182695987,6.758121475737093,-1.363830942211281,1.442441490193736,1.0324334723604207,9.760798791838432,-7.347287843409178,0.0,-0.00942489704875717,-3.668181126157744,10.904289874712237
0.264,0.17780412294665235,-0.10705040538875074,6.036818994499467,-1.0474548390929546,0.2626824799670605,0.1271418077115453,5.920336648534991,0.028482179975488464,0.525364959934121,0.10045386661124926,6.10937095241942,9.701775939878626,0.8378041479638382,0.37607640610633514,4.877453208283363,9.496829409460036,0.4378041142524167,0.1466305309070456,6.609918734965186,-2.26909966751119,1.4253649372445398,1.0511098060781527,9.493797895318178,-8.35351145005151,0.0,-0.01629102158804026,-3.467277017385435,11.197298595827471
0.266,0.16175694603559485,-0.09602659712007548,5.637926557749705,-1.4326071089568295,0.2530541647568084,0.13778532607029959,5.664581970176457,-0.06660891709884406,0.5061083295136168,0.11222616088841708,5.905607904885586,8.26286876958929,0.8217569277271858,0.3859406220379807,4.84172314455933,8.668097435849727,0.4217569510355948,0.15953674370653456,6.528973080570418,-2.8615554382073602,1.4061083648220258,1.0693361380113233,9.054653260747346,-8.524427696310452,0.0,-0.02349867317905166,-3.4034910296267986,11.196992675739798
0.268,0.14402794656586645,-0.08512649018749244,5.168962308753599,-1.7204765463758316,0.24241676255917832,0.14905684015023588,5.386124308356478,-0.30380324225329625,0.48483352511835665,0.12428528715338091,5.933903799913875,7.01860414220479,0.8040279571914487,0.39567538444937705,4.674721190420829,7.74833938892331,0.40402795119144874,0.17200291682859564,6.110022422375711,-3.785186491214588,1.3848335296206855,1.0868681875645338,8.730349111760736,-9.159238142848555,0.0,-0.03012967208951252,-3.402000427,11.063076377029637
0.27,0.12469909834474532,-0.07512326376412277,4.956990901145468,-1.606587348696644,0.23081946216927116,0.15906288663406187,5.071653145622955,-0.22939443387782157,0.4616389243385423,0.1358214045398304,5.790700449462797,6.3289486370601935,0.7846990937542645,0.40490465738803294,4.697301164467454,7.4483755309589155,0.3846990885594656,0.18354184493801506,5.862132827452048,-4.436268292803296,1.3616388703385423,1.1037853738780605,8.231240407535052,-9.581545525333214,0.0,-0.03666416741801028,-3.1627793590367848,11.136971393187986
0.272,0.10387576188471118,-0.0659004332574293,4.547593317830051,-1.620954642593627,0.21832545910069978,0.16866751798269483,4.6980358656332495,0.02460134984485024,0.43665091820139956,0.14696233772944267,5.663455788527032,4.666474805032463,0.763875737117661,0.4137406602403628,4.313969775216135,6.998607992770021,0.36387576029569446,0.1946837174739229,5.670742803195012,-5.345001954325218,1.3366508666672992,1.11954116397625,7.927214162188806,-9.988634200544219,0.0,-0.04319321148919919,-3.179098101036281,11.45844345385428
0.274,0.08174293517872544,-0.058260473192649674,4.071559290639835,-1.6633879286078244,0.20504576896310495,0.17668874183177238,4.199119712922703,0.14699229398873742,0.4100915379036895,0.1576457634665086,5.433489739587789,3.948232800373563,0.7417429532553905,0.4221365273320688,4.294853999125192,6.2109336061131,0.34174294793100146,0.20536809193029046,5.390613002951275,-5.676581185958743,1.3100915725524676,1.1344237851264967,7.2957199354067575,-9.804984480659275,0.0,-0.049299643245880265,-3.1355029017802014,11.156660671377594
0.276,0.05803649663679582,-0.050929423049610546,3.4263123298872378,-1.781733775217855,0.19082189943510813,0.18402442695733973,3.585982466727142,0.12216477448520072,0.38164379789743286,0.1680615071011384,5.136718169852727,3.27951063506411,0.7180364744190635,0.4302382858033553,3.944619032838945,5.689641205793649,0.31803649841906345,0.21616361215817853,5.088682919179389,-6.439913971396405,1.2816437739246493,1.148700525474296,6.97586330772187,-10.86280444618562,0.0,-0.05547000067094068,-2.9379784425918514,11.078752953008149
0.278,0.03325868506698565,-0.044496955708210974,3.288933243785035,-2.0664004718101725,0.1759552072401914,0.19008171353447667,3.2180621512590157,0.010342904609068476,0.35191041445598087,0.17789379831633972,5.005044142918595,1.672902350152825,0.6932586552866029,0.4374264438064137,3.6554601051653943,5.160306547345354,0.2932586792866029,0.225248199801715,4.752100317957711,-6.780677571057559,1.2519103928956938,1.161562795583578,6.396077433374721,-10.33085209076671,0.0,-0.06151929353447669,-2.987370470489369,11.582484221567602
0.28,0.007165070375089478,-0.03859567834313023,2.849194587424373,-2.5540784185507768,0.1602990387184443,0.19597702956487456,3.011316152229152,-0.01027039675149343,0.32059807646456695,0.18771288436678613,4.776612265010274,0.2189649221051374,0.6671650497625865,0.4448820946642772,3.526660534970371,4.291111032840861,0.26716507334741113,0.2346652782673835,4.399450446875746,-7.735878700772521,1.2205981116342162,1.173752557473596,5.832140567539307,-10.8221606852724,0.0,-0.06703028016057347,-2.853935574591159,11.379237197354122
0.282,-0.019920509335677673,-0.03359821009292352,2.592437665016798,-2.714762856106862,0.14404770082822746,0.20174052785811294,2.7698706507176554,-0.14732484693566833,0.2880954016564549,0.19655620536418872,4.55070243802323,0.30537631235453894,0.6400794838637501,0.4514165459606862,3.2501967324796284,3.178133175983917,0.24007949246489452,0.24273765376268763,4.105626361568263,-8.235321180472123,1.1880954093373466,1.1848977707162258,5.369106913869192,-11.64140341138206,0.0,-0.07279473085811293,-2.6972728803684776,11.363696341868835
0.284,-0.04792732308502024,-0.029002853578232096,1.9940071178555898,-2.8538879329136138,0.12724360008502023,0.20671992767619948,2.4765447913460172,-0.07324967008449539,0.25448720019838056,0.20537088881730087,4.281206455099031,-0.5019449975567242,0.6120726770283401,0.4575483486939258,3.0620061566237298,2.693183959909714,0.212072672,0.25040061154195226,3.764547047348263,-8.335357832651264,1.1544872643765183,1.1948590138173008,4.920004204022926,-11.252647440368234,0.0,-0.07777780043949421,-2.756846035326164,11.315266694736941
0.286,-0.0767452448118363,-0.025579389125974947,1.6491042126164028,-2.8996362301101395,0.10995285184405201,0.2105234618109194,2.037244660632711,0.06695068940321437,0.21990570466078033,0.21373715068163554,4.228563957349799,-2.5641089547922475,0.5832547593794296,0.4628721615584968,2.6762599346780904,2.3032588620056726,0.18325475337942967,0.25686652400259985,3.098940903480737,-8.475860735445995,1.1199057406334567,1.2032252756816355,4.220513234553533,-11.167322725076342,0.0,-0.08272154362160246,-2.3771506755554244,10.888310322225951
0.288,-0.1063426485138707,-0.02325434034793875,1.1068653262143697,-3.047216967965842,0.09219441416751994,0.21361830265206125,1.534234394120848,0.15836969644358068,0.18438882830682224,0.22147684298468787,3.7156839122822145,-3.8391338630294465,0.5536573616395999,0.467900770203298,2.380644824481272,1.9250627997743228,0.1536573564861293,0.26228730195288574,2.7392754861679625,-8.626528280914018,1.0843888612187165,1.210965920984688,3.637273181023086,-11.410584734864782,0.0,-0.08775059695288574,-2.4614801267755007,11.020621001350058
0.29,-0.136482268087403,-0.021738313580447585,0.5973069724334511,-2.7519752350188456,0.07411063820692537,0.2151343294195524,0.9083838816091873,0.051995310327679636,0.14822127544083583,0.22791972111189635,3.383414945968433,-4.468696709707892,0.5235177137491343,0.47169130839128387,1.765554426513781,1.4995652553107186,0.12351773672370149,0.2668353812673734,2.137756778341814,-9.099784907012957,1.0482212366567163,1.2174087991118965,3.219978575938987,-12.016626082357362,0.0,-0.09229867626737338,-2.292631117379034,10.876256436503416
0.292,-0.16719563760290443,-0.021727377440282684,-0.0312880906844523,-2.5731557621116607,0.05568261856398048,0.21552863952579507,0.2422446143261484,-0.00525030189081272,0.11136523709939293,0.23413148618692578,3.0358434102759717,-5.930408683878445,0.49280437439709557,0.47480247882897525,1.6432974336586574,1.1484839829254416,0.09280436039709558,0.27072311604911664,1.785330352865371,-9.088174299405654,1.0113652069564338,1.2224646033031803,2.4730090262310953,-11.553379943175617,0.0,-0.09657222648939928,-2.164493561,11.084872471335336
0.294,-0.198180570059673,-0.02248491955477032,-0.5076804139876325,-2.4396474181342755,0.037091656504594825,0.21477015487279152,-0.3716698976837456,-0.10993623596996466,0.07418331203628117,0.23943710959187278,2.5335212813445227,-7.7756723394487635,0.4618194415068624,0.4778345323639576,1.374946567614841,0.7588057504293286,0.06181942783196085,0.2741339406413428,1.5561794710406363,-9.645009320095408,0.9741833103048096,1.226255141491166,1.755405446024735,-9.89807095240106,0.0,-0.10074059319611307,-2.164493561,10.75815127684629
0.296,-0.22949221917080154,-0.024033844468861847,-1.0406182625805298,-2.715136799265569,0.018304664829675573,0.21245227210093057,-1.0144163386320688,-0.081086724460272,0.036609329659351146,0.2437155450773085,2.1645245134488187,-9.464090099702934,0.4305077768291985,0.48016820659198284,1.0450396854982105,0.2577881235805297,0.030507774716125955,0.27647004759198285,1.1882270726535433,-10.39504253781317,0.9366093017724236,1.228210168876879,0.9653696762133143,-9.445358719077309,0.0,-0.10462438089906943,-1.8222739994617037,10.168356228343592
0.298,-0.2609009329851773,-0.026722874829594834,-1.2918218220099824,-2.653885513285731,-0.0005405658427605834,0.20899588822642395,-1.6360605763707574,0.024863238477862596,-0.0010811316855211669,0.24755191662102172,1.6968685085445683,-10.795428982502171,0.39909906301482273,0.4817024622062243,0.707804472739636,-0.07250972848608338,-0.0009009430712676391,0.27800430667938936,0.7644675339127421,-10.457504562460246,0.8989188444292661,1.229356558791427,0.3543052287049912,-8.708981360176276,0.0,-0.10807796982959483,-1.6768639400770406,9.719725223497475
0.3,-0.29213223222502693,-0.02974602626964181,-1.7442686506465062,-2.679859438469994,-0.019279346974757746,0.2052164790407516,-1.917809267400235,-0.010490158157251912,-0.03855869392594808,0.2501964693026424,1.4665866685394011,-12.85353558586424,0.3678677637749731,0.4828354391678215,0.4432514821611274,-0.5184029521398709,-0.03213224496578538,0.2791382234122138,0.5555300065605402,-11.351453622348915,0.8614412868517766,1.2289779600330006,-0.30888287137674686,-8.557466799228303,0.0,-0.11110112126964182,-1.442373362213036,10.158040839265885
0.302,-0.32350580194625833,-0.0339688182734562,-2.232539922973193,-2.9887294523393972,-0.038103482238083894,0.20098597853386788,-2.2908498039309477,-0.08085982670895166,-0.07620696350321735,0.25251154880636667,1.029015167612853,-13.983810522005266,0.33649419405374165,0.482848406,-0.10950184144626623,-0.836440307805529,-0.06350580394625834,0.27991217406390617,0.3926150303848731,-11.912318958837242,0.823793048712345,1.2270702475329105,-1.0542857544652946,-9.240843347317256,0.0,-0.1138000735309957,-1.2761333988472954,9.190450270512327
0.304,-0.3545059079848539,-0.03894346176211454,-2.568949358647577,-2.9605829183524226,-0.05670354834836017,0.1956303974140969,-2.5122703518502205,-0.10341333389867842,-0.11340709667012522,0.25404984851101325,0.6137180827973568,-15.275386810180617,0.3054940880151461,0.48208840754185023,-0.3949984575242291,-1.0729463217709252,-0.09450591019761478,0.279917955,-0.1258685576519824,-12.521969446136564,0.7865928875160406,1.2243939022070485,-1.5142337951277534,-8.7905025397489,0.0,-0.11610220056387666,-1.3248012563876652,9.193953022356828
0.306,-0.3851579399203277,-0.04469628748150358,-2.9504254457613364,-2.8829139946599045,-0.07509476605461886,0.18987418551849644,-2.7800227936497612,-0.09597830630668258,-0.15018953113619093,0.2544437713120525,0.24365175983114556,-16.275175381471954,0.2748420561066255,0.48055909215155135,-0.7533030519916468,-1.5110795148675418,-0.1251579498933745,0.27953755168794747,-0.25007588447374707,-13.493205040845465,0.749810459486464,1.2205643146789975,-1.9858165508758951,-9.402373644402745,0.0,-0.11840679707279236,-1.0088060620304296,8.78416045437888
0.308,-0.41519471959712745,-0.05155883080405646,-3.2848211534035108,-2.87254298570988,-0.0931168375443447,0.18376960701530068,-3.2146282597702527,0.01122647398351323,-0.18623367511190903,0.25406823353659114,-0.15512991334242673,-17.38388072147503,0.2448052770545781,0.47827517932700747,-1.1899678869792432,-1.7910878801788637,-0.15519472859712746,0.278398101717234,-0.49205683382528764,-14.192798688720911,0.7137663018648713,1.215232576834658,-2.7801010629548095,-8.313444489564226,0.0,-0.11993964174617483,-0.8496512190519511,8.126878915903214
0.31,-0.44484342723098963,-0.05926721224712092,-3.8757119253585652,-2.6126642315326296,-0.11090606147355855,0.176449921856286,-3.4883086384275432,0.12380557380806141,-0.2218121239200191,0.2533007252519194,-0.3833504091839011,-19.220671208638677,0.21515655476901038,0.47519729841890596,-1.5729860066235604,-2.1471680634524954,-0.1848434362580876,0.276859155209453,-0.9241375187600768,-14.50728584187452,0.6781878528929212,1.2090670718378118,-3.2589605711884597,-7.580875343199977,0.0,-0.12110260626931382,-0.5808505931056862,7.6742702157332054
0.312,-0.4736871691012281,-0.06702196016901073,-4.196734722762574,-2.5010567579015497,-0.12821230425503755,0.16908600055148987,-3.7630421936760428,0.15282258673253873,-0.2564246085100751,0.25175456899749704,-0.7090980493030989,-20.620680673672823,0.18631281372516992,0.47094245455649586,-2.103760506440882,-2.4052709441193088,-0.21368717867378084,0.2745372072769964,-1.2958401931353993,-15.158843397787724,0.6435753974899249,1.2009381108344457,-4.09513042577211,-6.144229139290823,0.0,-0.12226393628200238,-0.7258532810228844,7.215931940383195
0.314,-0.5016505141466555,-0.07622903101335878,-4.563108731076336,-2.495847935418774,-0.14499031100786933,0.16103098067080154,-4.062520695505606,0.05212603780128817,-0.28998062198712293,0.24983347577624043,-1.109264246750358,-21.664661630886688,0.15834949645272448,0.46672344487154105,-2.1919937787938935,-3.295766482008826,-0.24165050954727554,0.27146530080248094,-1.6183279658203722,-14.591808570281966,0.6100193831544056,1.1917310440589217,-4.600076444056179,-5.624796510966722,0.0,-0.12302804,-0.36726032412428433,6.4227781852131445
0.316,-0.5286608621272143,-0.08621080526733262,-5.005264605227613,-2.577545240000238,-0.1611965172489597,0.15258551704197884,-4.187937316921275,-0.14564630642597218,-0.32239303352669124,0.24675983490200973,-1.4680137556271853,-22.86141603156309,0.13133913464261085,0.46250191798132956,-2.2027682793137116,-4.772659080207753,-0.2686608711559862,0.2672384472154834,-2.127383478118088,-14.955518071271019,0.5776069424733088,1.1817458439668214,-5.196957196272685,-5.250366873735046,0.0,-0.12302658107931978,0.01833732600011892,5.932974171161256
0.318,-0.5545451290291586,-0.09654519045293837,-5.285434122827043,-2.4629584766688963,-0.17672708321749522,0.14378195296703297,-4.434120779532728,-0.07737893401194457,-0.3534541664086998,0.24293230376636407,-1.8929555451533684,-22.71422929075633,0.10545485997084131,0.45829081885953177,-2.2366932274132822,-5.525634574256092,-0.29454513900286805,0.26187994432154804,-2.799949206564262,-13.556470635361682,0.5465458095913002,1.1702635041270903,-5.687242408882465,-4.7000470280554225,0.0,-0.12264356260630674,0.22532685120401336,5.282833399733398
0.32,-0.5793852539222527,-0.10769313383649877,-5.6159766818109,-1.9300176371412057,-0.19163115866198355,0.13417260689182495,-4.702161387336085,0.03915465335177539,-0.383262316352542,0.23908343313047067,-2.2647690243352603,-23.109153993208093,0.0806147345634004,0.4532925131304707,-2.574093182782824,-6.275796724855492,-0.31938526377949755,0.2557255497844756,-3.2771530305573906,-13.334905171136251,0.5167376605047029,1.1575782265995047,-6.2570468921891,-3.825931076576383,0.0,-0.12187062027167629,0.4054674483071841,4.498955025180843
0.322,-0.6028831276646778,-0.11946105420750265,-6.041815148262357,-1.6723408558402735,-0.20572989978162293,0.12430261637466085,-4.862619988279817,0.057335519389052736,-0.41145979956324585,0.23376904072041996,-2.6380562554244427,-23.65096720798266,0.057116843747016706,0.4479781207204199,-2.7719120294653767,-6.533473505166804,-0.3428831658412888,0.2481319421761236,-3.817754439091306,-12.690167718136605,0.48854020643675417,1.144290829429633,-6.6025494118805,-3.7915021940506075,0.0,-0.11997269041783651,0.9641893214846053,3.6715632893267665
0.324,-0.6250711041387537,-0.13262785380872325,-6.242410194726428,-1.6991076820727722,-0.21904267054991097,0.11384033880507877,-5.109342233305078,-0.06852508553315306,-0.43808534109982195,0.22757126720232776,-3.133391924170233,-23.827124270390783,0.03492888273697329,0.441780346205502,-3.0885238964234656,-6.367598473934282,-0.3650711122912759,0.23960934258852573,-4.231808906176816,-12.522036185211498,0.461914664900178,1.129952602672584,-7.150814072774042,-2.8924872644339286,0.0,-0.11803274942805078,1.1598298478377616,2.660046745192923
0.326,-0.6457214824575663,-0.14511280130425583,-6.462127962245239,-1.7131934570907594,-0.2314328856447526,0.10362589398307077,-5.373544561983071,-0.1860890078894898,-0.4628657712895052,0.22076163699224077,-3.545135593099224,-23.87769235169739,0.014278534735596461,0.43497071698166,-3.3563981582551143,-6.484622517885727,-0.38572146145756636,0.23052920970491417,-4.618569513743946,-12.235982846961674,0.4371342339861344,1.1148199877580531,-7.570987010086528,-2.9827806918869033,0.0,-0.11538320123983072,1.4412481235407946,1.8733953613569243
0.328,-0.6649819990202622,-0.15859726188247275,-6.786115058590272,-1.2436415173376063,-0.24298917876996426,0.09283684520222835,-5.423439586671499,-0.08837249657098359,-0.4859783575399285,0.2130603921428058,-4.0835821420797895,-23.108137583269677,-0.004981974932061979,0.4280318158767222,-3.5519480337133102,-6.78408379153049,-0.4049819788247914,0.22051562245010184,-5.0945458131242365,-11.408202834498862,0.4140216184600715,1.0982567956851563,-8.210867501507009,-1.1486335588544387,0.0,-0.11192232769533965,1.5307422146918654,1.3668526541974362
0.33,-0.6825892943255397,-0.17275060286014982,-7.093677474439173,-1.1668308121031037,-0.25355357667947037,0.08136151772779165,-5.669424416643239,-0.003474755118801298,-0.5071071533589407,0.20426527731573313,-4.3312333623003925,-22.622427960348197,-0.0225893036713587,0.4203827510863361,-3.7543428781794503,-6.993929382108099,-0.42258930335214123,0.2098051721323582,-5.484702076254013,-10.666839736652872,0.3928928234391029,1.0810420701776668,-8.690955153545131,-0.8347349889140208,0.0,-0.10847850183553336,1.7612766179639672,0.8224240036639314
0.332,-0.6985407865215947,-0.18696065245733381,-7.137119085861678,-1.2763983893299917,-0.26312448859349785,0.06984013349695668,-5.712458725634205,-0.09738399575366988,-0.5262489771598244,0.1950518809670605,-4.650833660988066,-21.927537413430006,-0.038540807326056005,0.4123208324196205,-3.939343218552572,-7.408017843706289,-0.43854079570645466,0.19752872452858336,-6.093968810816326,-10.026925060990452,0.37375102802503557,1.062996274570832,-9.065201267118033,-0.3085877188924693,0.0,-0.1050221820773362,1.8056035463803557,0.5179431419032103
0.334,-0.7126978133367714,-0.20109075261480955,-7.3953348620280055,-0.8786149958260354,-0.27161866513528427,0.058382634065147744,-5.841169313982081,-0.3307605669623828,-0.5432373292933557,0.18512739145520352,-4.9776807725409995,-22.337126698210866,-0.05269779140513313,0.4043011479569242,-4.124661522882046,-7.317543436228314,-0.4526977933367714,0.18530695584917525,-6.368258773536727,-8.66601208344844,0.35676264807387864,1.0439097901222263,-9.464821413501246,-0.5999046232241605,0.0,-0.10120540400391598,1.8179709094857006,0.15309235070903054
0.336,-0.7251922640285715,-0.2166546713224134,-7.503790826912562,-0.31365029185152016,-0.27911535857142855,0.04631299865189724,-5.893512420165213,-0.1409409043410323,-0.5582307171428571,0.1742265000544426,-5.593110046353052,-21.49368271252345,-0.06519224631428572,0.3953527051140702,-4.366942750624558,-7.1479002444977615,-0.4651922457142857,0.17168629436035823,-6.819206394723309,-7.919492785984916,0.34176931714285713,1.0244334927289653,-9.843302355123733,0.6679776188215885,0.0,-0.09730964970091917,1.9326701666714587,-0.06258909982936602
0.338,-0.7357674219912992,-0.23106496059509782,-7.5475355066463585,-0.5982056572390997,-0.28546045778140644,0.03455755898833373,-6.022938217633161,-0.07125016271352816,-0.5709209155628129,0.16247011729566346,-5.771108465220363,-20.407592837905494,-0.07576744654469607,0.38662922364329483,-4.517790242168866,-7.314069686988923,-0.47576745935363524,0.15765499986177234,-7.006256379499528,-7.023467886530638,0.32907906043718715,1.004713504238039,-10.086466203717416,0.33128689214364837,0.0,-0.09313787888875796,2.362578541979849,-0.7739794009716002
0.34,-0.7444770368576539,-0.24639325651793162,-7.561492824636364,-0.5339527974562135,-0.2906861980393419,0.022293161785654714,-6.019946317331109,-0.258404473500417,-0.5813723961057463,0.1505868383561301,-6.118702639352794,-19.941592626487907,-0.08447701029065333,0.3774325931326105,-4.670278092901585,-6.866488042218515,-0.4844770158847163,0.1423296404820684,-7.496461558486239,-6.28003226506839,0.3186275798942537,0.984018715972477,-10.363747860356964,1.4472194794812343,0.0,-0.08778020349040867,2.760849981784821,-1.8722486520025021
0.342,-0.7512770372941175,-0.26208365568716546,-7.741290046604377,0.07866951754930418,-0.294766211122172,0.01004357943951469,-6.095651533104198,-0.35214966278161053,-0.5895324232171946,0.137581732422624,-6.53050382868895,-18.77086927725943,-0.09127702729864252,0.3678660495738076,-4.848209848705245,-6.521349351585346,-0.4912770188959276,0.12739702532615677,-7.724042188055549,-5.505223752456644,0.3104675544117647,0.9629686560651838,-10.396262208241465,1.5109835378283574,0.0,-0.08166181472499108,3.0072703728988937,-3.4230163224654455
0.344,-0.7561344726646406,-0.27710132619373357,-7.797721684868572,-0.12534909361181534,-0.29768071277761887,-0.0018895346157617801,-6.045464410166827,-0.2538764513733556,-0.5953614255291383,0.12411637809160488,-6.82081730447644,-17.300709879470105,-0.09613449827314981,0.35786394788926096,-4.890980559326835,-5.9462467320833525,-0.4961345108816589,0.11124657595120784,-8.236883667332576,-4.2319569343250425,0.30463860968787987,0.9418026378682134,-10.520186960861755,2.2659142795724705,0.0,-0.07512391372028224,3.4203461367365464,-4.693553507899784
0.346,-0.7590387256142858,-0.292612923843467,-7.720419046141009,-0.2269539233790427,-0.2994232416771429,-0.013998821815006468,-6.063830054151358,-0.19498821540103495,-0.5988464823799999,0.11011774772315652,-7.070377942811126,-16.45258276059767,-0.09903873661428572,0.34839953843725746,-4.986916032592497,-5.94957836804269,-0.49903873464000004,0.0945993369573092,-8.35569566280207,-3.1575113723078916,0.30115352439142856,0.9209863521591203,-10.510934066958603,3.3796458073040103,0.0,-0.06831465543596377,3.3591042944113845,-5.6549501949482535
0.348,-0.75997582510454,-0.30796201998164047,-7.597755380959228,0.392703918979733,-0.2999855127688172,-0.02627251746256557,-6.053377521164878,-0.44727213377813546,-0.5999710255131422,0.09555115012398664,-7.390557457213877,-14.593593060743682,-0.09997583610454003,0.3380602104946352,-5.129381275951359,-5.809891269190749,-0.4999758350800478,0.0773476540611588,-8.54638090905019,-2.2636567548468047,0.3000290097520908,0.8995162887870768,-10.664308919072365,3.4138256617039815,0.0,-0.06103487701371006,3.6296696546250597,-6.636776896225203
0.35,-0.7589348980422519,-0.3235025915966183,-7.592149633177053,0.5105677732934782,-0.29936094545703407,-0.03832376960205314,-6.03416667347669,-0.3772385405683575,-0.5987218899406094,0.08040779647862319,-7.553467616392753,-13.707981092079226,-0.09893490944037135,0.3279503653638889,-5.005233353241667,-5.566074501479347,-0.49893490783849087,0.0602450049437198,-8.589743977722584,-1.534566756486232,0.3012781168556296,0.8777585352762077,-10.614910650654831,4.647299515550483,0.0,-0.053652854496497586,3.968444498823913,-7.788436799016184
0.352,-0.755934024774525,-0.3382082521443104,-7.598218708434824,0.6236831826210077,-0.29756044360580713,-0.04993079341802697,-5.985657463337355,-0.2715143607539626,-0.5951208872367069,0.06493840093281288,-7.772675893885261,-12.049256971592147,-0.0959340498460987,0.31827714529335227,-5.013295125610599,-5.502466025605157,-0.4959340622940614,0.04245868453867992,-8.673992157,-1.0990513176735275,0.30487914725773685,0.8572492757208422,-10.461869803302578,5.129794544142655,0.0,-0.04591956753347528,4.016961441920748,-8.851515425585285
0.354,-0.7509555711241049,-0.3534348924542228,-7.557336740803052,1.468592311438254,-0.29457332994510743,-0.06173167533215047,-5.924696015373314,-0.2532840317501774,-0.5891466608627686,0.04933038461639461,-7.922276449614265,-11.287932538347409,-0.09095555968496419,0.30837935575940384,-4.777084419266147,-4.997702433937544,-0.4909555510966587,0.026089810531582682,-8.673992157,-0.48635933328388925,0.3108533151372315,0.8363133552934705,-10.372230412968772,5.191571738506387,0.0,-0.037545388695528745,4.118409286496451,-9.88612066706352
0.356,-0.7440429235690951,-0.36894027052890005,-7.344857456944227,2.1758704768336314,-0.2904257305870991,-0.07336508251602908,-5.835335134320344,-0.5480115766089858,-0.5808514611741982,0.03305059658908355,-7.978934060491598,-10.478110052471935,-0.08404289807308932,0.29829821825539266,-5.071339930718747,-4.51559437226159,-0.4840429042717301,0.008649050862829221,-8.557731317051484,-0.20670629640650695,0.31914851482580187,0.8157572283307114,-10.102540472976045,6.3623881747120725,0.0,-0.02939864943141461,4.161833374659635,-10.351219932621499
0.358,-0.7352258518596803,-0.38312969352009846,-7.321999584855854,2.502258065192429,-0.2851355163623446,-0.08410319956896754,-5.45031873808555,-0.5654455997499122,-0.5702710327246892,0.017709039739716395,-7.7942861700148836,-9.305461164666704,-0.07522587658081706,0.28832758372588774,-5.072646848179304,-4.064360647241884,-0.47522588918294845,-0.008226085555138872,-8.470837227523496,0.23876501060389077,0.3297289449804618,0.7958150094517755,-9.965226961384857,6.4535265863392715,0.0,-0.020962249369858195,4.141863207587601,-10.768586994739364
0.36,-0.7246150306459606,-0.3970829766964725,-6.816508977736669,2.529257163580804,-0.2787690178750449,-0.09466097158818704,-5.261231307839212,-0.4201285809138638,-0.5575380357281867,0.0018714439220672667,-7.8854840595857265,-8.977868362371616,-0.06461501158025135,0.27852353636997534,-5.003649153717801,-3.32565408404676,-0.4646150106459605,-0.024817406036095162,-8.403339483027072,0.5314389788129613,0.34246199895763013,0.7762069147399507,-9.823029838161608,7.594703449485644,0.0,-0.013043451461033634,4.077361612849057,-11.178980779577522
0.362,-0.7120442363918128,-0.41016140168306664,-6.444657172042513,2.80197606801433,-0.2712265195020886,-0.10579720408000956,-5.431606279998567,-0.2881075879737282,-0.5424530380300752,-0.014265464673035586,-7.676407844994268,-7.938850091085502,-0.05204421553132832,0.26891340183281587,-4.787175757493671,-2.9462742594162883,-0.4520442171687552,-0.04172224004107953,-8.138665657185095,1.0607330743635062,0.35754693874686716,0.756985703513733,-9.522635019161452,7.25284329088727,0.0,-0.0045968520554096025,4.1517967211060425,-11.703435027483401
0.364,-0.6977225056764392,-0.42261583287336346,-6.045805249261384,2.565448290271811,-0.2626335207154896,-0.11630882155265902,-5.3227170762239595,-0.4440208776305179,-0.5252670414309792,-0.029448768724249796,-7.598513454100452,-7.888807254892133,-0.03772252732617211,0.25918932877302747,-4.735564120147144,-2.2420244589341904,-0.43772251564949555,-0.058449155038466,-8.041889922882401,1.8540640453588229,0.3747329637607122,0.7386922703086548,-9.201650409397404,7.5825614268666435,0.0,0.003959154899779863,4.219839297743946,-12.272626924147259
0.366,-0.681764509837104,-0.43342723793280036,-5.670623082529371,2.2771651650371916,-0.2530587050316742,-0.12637413291449426,-5.137734075806859,-0.37426345030622177,-0.5061174100633484,-0.04361527757096512,-7.485809769992005,-6.440269915446878,-0.0217645180678733,0.25024176724643726,-4.688110718165913,-1.6814737333950873,-0.421764518158371,-0.07299010047329393,-7.798687529772911,2.623891688574673,0.39388256593665155,0.7219158242314911,-8.513564959353609,7.023790204205539,0.0,0.011788965619279342,4.1916638405301825,-12.377265383471556
0.368,-0.6640896506425051,-0.44402754991647364,-5.091050012234484,1.9544707812986222,-0.2424537695727852,-0.13619210783355687,-4.766954417213633,-0.2788360294672601,-0.4849075391455704,-0.0592688110741373,-7.3272667819439095,-6.012525995493233,-0.004089625816564491,0.2404553892858188,-4.623047040559566,-1.011381170664797,-0.4040896296425051,-0.08903626378953786,-7.5718957595642,3.64293044014169,0.4150924375071523,0.7050436387745397,-8.217191606585782,7.664283826876723,0.0,0.02040045391074259,4.029972646116938,-12.389971639883917
0.37,-0.6446373825606964,-0.4534073232898032,-4.626016127263685,1.9483630974150268,-0.2307824264881946,-0.1455679463194991,-4.634007896152415,-0.17643296421645796,-0.4615648529763892,-0.07371921428050089,-7.174444466564222,-4.6258191638622534,0.015362633515144287,0.23185246299141324,-4.277587392042219,-0.6585851088386405,-0.3846373624550441,-0.1042804967001789,-7.633401133002147,5.174115575450805,0.4384351530236108,0.6890339146107335,-7.750480130965653,7.389800921473346,0.0,0.02860367547584973,4.139022795792486,-12.819804277081218
