zhaobohao-byte/Y1_1Pace/data/Atom3motors/raw_csv/Sin_5Hz_y1_1_leftleg_aligned.csv
time,des_dof_pos_left_ankle_pitch_joint,dof_pos_left_ankle_pitch_joint,dof_vel_left_ankle_pitch_joint,des_dof_pos_left_ankle_roll_joint,dof_pos_left_ankle_roll_joint,dof_vel_left_ankle_roll_joint,des_dof_pos_left_hip_pitch_joint,dof_pos_left_hip_pitch_joint,dof_vel_left_hip_pitch_joint,des_dof_pos_left_hip_roll_joint,dof_pos_left_hip_roll_joint,dof_vel_left_hip_roll_joint,des_dof_pos_left_hip_yaw_joint,dof_pos_left_hip_yaw_joint,dof_vel_left_hip_yaw_joint,des_dof_pos_left_knee_joint,dof_pos_left_knee_joint,dof_vel_left_knee_joint,des_dof_pos_waist_yaw_joint,dof_pos_waist_yaw_joint,dof_vel_waist_yaw_joint
0.0,-0.2277380400994907,-0.265701532,0.01449585,0.01935717240127917,-0.009649545,0.00352478,0.03871434477484307,0.018524885,0.019226074,0.4322619563439536,0.340913057,-0.022125244,0.032261954011370365,-0.012394667,0.009918213,0.9387143175231553,0.879503489,0.105287552,0.0,0.006632566,-0.173191071
0.002,-0.19666299360264106,-0.26608259238542653,-0.09015359027310427,0.03800220249459784,-0.01003060538542654,0.007528759249881517,0.07600440401080431,0.018524885,-0.09179522724727489,0.4633370183973589,0.340913057,0.030957805457109005,0.06333700439735894,-0.012394667,0.0493513346870853,0.976004402362545,0.879503489,0.005792855033649291,0.0,0.007013627379383886,-0.06398786385023697
0.004,-0.16544007962468724,-0.2660827236165342,0.08672471648938442,0.056735953362802335,-0.009649545,0.038066527000948876,0.1134719066972477,0.018525976335310165,-0.005794865101174238,0.4945599314962469,0.34129752533531016,0.11871605000130471,0.0945599185738115,-0.012393572948997747,0.10613112371486182,1.013471875470392,0.8795045803353101,0.10840707053421896,0.0,0.007015944,0.03268477452971178
0.006,-0.1348134870771432,-0.2653188410375993,0.2658852651329617,0.0751119068764755,-0.009649545,0.14328695799928834,0.1502238127808513,0.018907443498517376,-0.004580243174119322,0.5251864947598665,0.34167899249851735,0.27965726774902144,0.1251865179228568,-0.01201115653825169,0.13498219321385363,1.050223775845475,0.8798860474985174,0.1320922005993358,0.0,0.007015944,-0.009826996897283835
0.008,-0.10466420944014294,-0.2649342824904535,0.2693178002840096,0.09320147760154854,-0.00888370598090692,0.30747089110859194,0.18640295523108993,0.01929213437112172,0.30206665284128875,0.555335801363907,0.3420627315083532,0.3272483934057279,0.15533579536390707,-0.011244496980906921,0.4581482145763723,1.0864029902590828,0.879886866,0.2680909032016706,0.0,0.007015944,0.06628468910620525
0.01,-0.07515108772342707,-0.2634052009246225,0.804394961975746,0.11090934583496187,-0.007354166924622518,0.55747948043455,0.22181869264263585,0.02005642985245512,0.3839108612765426,0.5848489161674213,0.3428279752267269,0.3957119543400309,0.18484891019470925,-0.010096876350850078,0.6029412363613125,1.1218187294339848,0.88103357164915,0.5479506758259423,0.0,0.007015944,0.09829727833254073
0.012,-0.046356107240400665,-0.2615084497717084,1.0667131153206701,0.1281863298061054,-0.005834469689948089,0.8533407816415762,0.2563726596122108,0.021194271179447853,0.6321601592333648,0.6136438925709516,0.34358688603480414,0.4787182914203634,0.21364388794824707,-0.00857957829613025,0.8878424640993393,1.1563727230221799,0.8821719345732657,0.6717843593489854,0.0,0.007015944,-0.12424407615384613
0.014,-0.01838791301097328,-0.2591801889262572,1.317525858541707,0.14496725870515267,-0.0035115779262572537,1.105195795321325,0.2899345173831107,0.023127575458776594,0.8266652572695842,0.6416120796083015,0.3455157471131528,0.8032693680738636,0.2416120890162214,-0.005490224004352031,1.4227123857385156,1.1899345241989505,0.8841061781131528,1.05914049709647,0.0,0.006632705039410059,-0.13656665666368473
0.016,0.0086353014692904,-0.2557344472667777,1.7835420032824845,0.16118117708157426,-0.0008309490023798187,1.3514956044405044,0.3223623531909362,0.025042002301047122,1.1178615190049976,0.6686352802192009,0.3470476184321752,1.0074203311423133,0.26863530421920095,-0.0028102679612089483,1.5903921477334602,1.2223623875514609,0.8867857180366492,1.1750007139133747,0.0,0.006632566,0.04766972753569729
0.018,0.03458943627694504,-0.25149554295444815,2.125762058838963,0.17675365811777302,0.0022523564538534727,1.565775379384158,0.35350731620747083,0.028123656540556614,1.4745445094268554,0.6945894065015465,0.3493597860099905,1.1810028972533302,0.2945894305015465,0.001427948428282588,1.999304662224548,1.2535072931793958,0.8898699768340865,1.6954559543245717,0.0,0.007015944,-0.047607848349666984
0.02,0.0593285528199307,-0.2465199505102236,2.503320949960182,0.1915971334594336,0.0060802316130575155,1.6642838532658137,0.38319426594503525,0.03156834420937463,1.8052182278219537,0.7193285318928188,0.3524216872448882,1.4671481587627646,0.3193285551077787,0.006404400577543943,2.45291914159548,1.2831942435151154,0.8936989859812268,2.010282213702619,0.0,0.007015944,0.13498790066268085
0.022,0.08290632769912981,-0.2411271146950929,2.8328928788523107,0.20574380444284182,0.009547058927108148,1.904671087625536,0.41148760888568364,0.03580397446260124,2.127258700711767,0.7429063454170938,0.3551193836846117,1.4383222585793234,0.34290634027178446,0.011407883176274418,2.5819884706121967,1.3114876423216115,0.8979349441762744,2.2576196632720347,0.0,0.0070146654645069076,-0.09969063369080515
0.024,0.10507377321473708,-0.23422814920398424,3.306962023371466,0.2190442657685704,0.014146074669688655,2.1309447190067994,0.4380885315371408,0.040786004323154,2.4466569310440174,0.7650737478390366,0.3589514210867231,1.9419589740496241,0.3650737709877191,0.016775708557199093,2.8592129516019322,1.3380884775371409,0.9033036842130502,2.683459022016939,0.0,0.006631651346534654,-0.02426272140391268
0.026,0.1258058967018545,-0.22693171321868316,3.7662714822902306,0.2314835409700428,0.0187550722048966,2.3127762807668173,0.4629670819400856,0.04577983649013549,2.7125125718131686,0.7858058931298145,0.36279336048419303,2.046583978182315,0.38580588712981456,0.022917875545281675,3.0422248749893037,1.3629670296519258,0.909831871496078,3.198813431168529,0.0,0.00624563204611362,-0.28054012718992155
0.028,0.1449662302,-0.21889991098948877,4.123780310853798,0.2429797325925926,0.024109305347228858,2.6320746159497137,0.4859594651851852,0.051899405461060685,2.8330168187327995,0.8049662404222222,0.3677662606477544,2.405601917341376,0.4049662352,0.029036585932752032,3.1517573930140945,1.3859594719629629,0.917098246424988,3.662502525408863,0.0,0.005097966507883421,-0.4539790224089823
0.03,0.16261143969941647,-0.2104433786848442,4.387978406511921,0.2535668612771228,0.029876174555358827,2.8742138021888577,0.5071337225542456,0.05766722755535883,3.0524602723325067,0.8226114219587948,0.37276320377667616,2.5372313092653447,0.42261144430760983,0.035570888755783764,3.1936799285008264,1.4071337568750746,0.9247873431984183,3.936925278916431,0.0,0.0039454814217422095,-0.6413771359283522
0.032,0.17853925191273248,-0.20132586057648727,4.508852799306657,0.26312355714711494,0.036333511255665724,3.1055711655609066,0.5262471142671674,0.06412456425566572,3.225918802473796,0.8385392775067955,0.37808073263172803,2.7442324825580737,0.43853924329160704,0.04240879018342777,3.553285023526204,1.4262470918909156,0.9335233509355524,4.437353761206799,0.0,0.0031862383038243625,-0.509922457513456
0.034,0.1927515639345828,-0.19173489951789124,4.762744919020992,0.271650930594843,0.04285731429222328,3.257340046443464,0.5433018602167841,0.07140945111712786,3.6344122865620228,0.8527515749345829,0.38383448446731866,2.9488205667950855,0.4527515689345828,0.05007815997471374,3.8741867137077763,1.4433018929650232,0.9431113104821088,4.7611780471359735,0.0,0.0020376933101145037,-0.6194536779103053
0.036,0.20519068600083254,-0.18165226846324928,5.002438371280328,0.2791144257477402,0.049838432054234064,3.529171635131304,0.5582288514954804,0.07878198003437202,3.8492272533862986,0.8651906970008325,0.3904208975468601,3.004503534270932,0.46519069100083255,0.0586064925467412,4.231053566977997,1.458228769200999,0.9531963125479306,5.079515094468958,0.0,0.0004890614926260704,-0.6191566021151285
0.038,0.21575857545992116,-0.1713181642510445,5.352113486872627,0.2854551304388962,0.05749384635084159,3.7489156962715766,0.5709102608777924,0.08681950572114122,4.0105263635956785,0.8757585864599212,0.3965464076125104,3.2114431713932197,0.47575858045992114,0.06741054464318968,4.363842373614182,1.470910238454665,0.9639144294872866,5.517174072651427,0.0,-0.001041941107198281,-0.7288481377216187
0.04,0.2244852263307894,-0.1605628724240763,5.361703235476877,0.29069112706630096,0.06479442152812873,3.7511920047096545,0.5813822541608633,0.09488678750202623,4.11567961120751,0.8844852369068686,0.4030772179939213,3.3379808086872464,0.4844852309068686,0.07663041803897497,4.73124407918665,1.4813822901608633,0.9754394834976161,5.815673338809654,0.0,-0.0025794624847437424,-0.8893625946876044
0.042,0.23128391613418986,-0.14982219325047214,5.524591901180595,0.2947703437316203,0.07284894392280454,3.847894338143768,0.5895406884346895,0.10332662504815865,4.233213450788716,0.8912839125624554,0.4099808227974504,3.3642736252308785,0.4912839065624554,0.08622117417351274,4.79939536044594,1.4895407227216273,0.9873291318482059,5.983622240362842,0.0,-0.004497024224032106,-1.0791664592216714
0.044,0.23613489737610777,-0.13880693838503305,5.548763898400142,0.29768094767352,0.08082475867209632,3.9575785498675637,0.5953618953208082,0.11244211177337111,4.4870231933227105,0.8961349075891528,0.4168169655708215,3.5259276305311618,0.49613490237610774,0.0964763328746459,5.255649352288716,1.4953618713208083,0.9991035383368745,6.196942944522899,0.0,-0.006395847823182248,-0.9235592306480169
0.046,0.2390309414356412,-0.12795655413171356,5.621320348560102,0.2994185686645395,0.08905298495140665,4.108521483181586,0.5988371363468994,0.1217939710601023,4.633656643122762,0.8990309224356412,0.42392340487723784,3.5876834999117646,0.4990309464356412,0.10694905466496164,5.292995004210997,1.4988371123468993,1.0118160608797953,6.327324465102302,0.0,-0.00863845421483376,-1.1528399780358056
0.048,0.2399726832768166,-0.11644937018932792,5.475796007274561,0.29998362465051903,0.09739865751199714,4.158716185601886,0.5999672492733563,0.1317157432736063,4.7221018698281005,0.8999726642768167,0.4314636404354781,3.6892902448050613,0.4999726882768166,0.11767623335012535,5.388717630657634,1.4999672252733565,1.0256924956488003,6.617492260611914,0.0,-0.010635660835621345,-1.0690349738874299
0.05,0.2389291433942067,-0.1056941291510243,5.513696144326346,0.29935748980176424,0.10546631413149118,4.124918311929967,0.5987149786320181,0.1417022831181515,4.983011609702715,0.8989291252488973,0.43914595777227255,3.856977874399238,0.4989291483942067,0.12804811611338732,5.386016645839447,1.498714954632018,1.0387548851862791,6.723078500111481,0.0,-0.012939882349690329,-1.1252151770657455
0.052,0.23591748201858026,-0.09496304926979438,5.473574920379343,0.29755049816138635,0.11389928451524463,4.219432132810683,0.5951009963512387,0.15166707898570078,5.069497361046206,0.8959174925915913,0.4468128255952493,3.9257722118118648,0.4959174865915912,0.13878109473316,5.47551554866001,1.495100974059195,1.052552072052588,6.790655010016308,0.0,-0.01523894403344363,-1.0889011745150083
0.054,0.23095481061266848,-0.08431574811120301,5.272403966056488,0.2945728799014673,0.12264646379012054,4.2883129832110605,0.5891457607753787,0.16117336234802648,5.117898485189436,0.890954807026005,0.4547980657933113,4.055850233008745,0.490954801026005,0.14942839688300638,5.413501608506381,1.4891457967753787,1.0658604904969275,6.819090671008036,0.0,-0.017140011574450484,-1.1463812916305838
0.056,0.224044445065564,-0.07348567766332073,5.23623196067454,0.2904266580644931,0.13115755424090694,4.217030360778224,0.5808533161289862,0.1716095808447095,5.013105008203471,0.884044456065564,0.46330470849492206,4.113340089094474,0.484044450065564,0.16064089033667928,5.425142026063297,1.4808533504369348,1.0805493965139348,7.012462225769485,0.0,-0.019457089098252243,-1.0917437753565187
0.058,0.2152470643392857,-0.06322539669178082,5.275534695136987,0.28514822439642856,0.13951788819178082,4.144199371041095,0.5702964487928571,0.1811102610479452,4.975616246390411,0.8752470753392858,0.4712852420616438,4.222182208643836,0.4752470693392857,0.1709011713082192,5.343509491301369,1.470296423207143,1.0942316613424656,7.144884096589041,0.0,-0.02135703710958904,-1.0766273392534247
0.06,0.20457570237652112,-0.05340677959368767,5.004381370789746,0.2787454358396564,0.14744895912002817,4.047233138936173,0.557490871654259,0.1912992543812038,4.965216038939106,0.8645757133765211,0.4795893150949196,4.130472512703156,0.4645757073765211,0.18147011195905197,5.359349684760883,1.4574907906607015,1.1093234041070046,7.5043199938731675,0.0,-0.023994905861668428,-1.0631008933733426
0.062,0.19204509194904157,-0.042863359352455034,4.806575841426349,0.2712270471518038,0.15565573415264947,3.9767830592260576,0.5424540933294439,0.201086655385999,4.79595944851823,0.8520451033365878,0.4878047931526495,4.090327817479339,0.45204509658733183,0.19241375192707827,5.244213983308701,1.4424541277792593,1.1241910970719495,7.3703579409134665,0.0,-0.02596609921925134,-1.0247913036421974
0.064,0.17776144880571088,-0.03362730898685154,4.773822939004543,0.2626568754579417,0.16335020317762372,3.931252289978484,0.5253137509158834,0.21031972001314844,4.71848715781114,0.837761473702796,0.4958821799227827,4.29593067826799,0.43776144014883994,0.2024171345010758,5.123358815052833,1.4253137283864366,1.1391901957516137,7.327737603918001,0.0,-0.02827297618312216,-1.125234384710973
0.066,0.1617624573680431,-0.02464705411372093,4.498747457796744,0.2530574715571514,0.1708345234755814,3.816393949100465,0.5061149431143028,0.21967442947337207,4.677956022868954,0.8217624390502692,0.5041140086809303,4.177243521133954,0.42176246236804305,0.21177276047337207,4.763437502547674,1.4061149784320768,1.1530378016431397,7.001210463569302,0.0,-0.03051780810046512,-1.0584510183123257
0.068,0.14399431710027422,-0.015964078177888023,4.129552226511694,0.24239658489519494,0.17870861637987243,3.6077950235804392,0.4847931697903899,0.228750520616584,4.420532325632884,0.8039943276996542,0.5127756478795181,4.07343803436995,0.40399432169965427,0.22199925599787385,4.769050192880935,1.3847931741879098,1.1672216967030475,6.723755918837704,0.0,-0.032880744911410346,-1.187809820463501
0.07,0.12470121848128343,-0.008363400865343727,3.704723109859674,0.2308207342513369,0.18517070344153083,3.436173161034727,0.4616414685026738,0.23749167860099218,4.412670858405386,0.784701213893048,0.5207580594457831,4.133914633560595,0.38470120869518715,0.2311212030255138,4.549832442428774,1.3616414145026738,1.1797641375634302,6.325233423947555,0.0,-0.035160759063075836,-1.0396476324379873
0.072,0.10395586369320899,-0.001477077141092636,3.3619460087448934,0.21837352016343853,0.19166762429513065,3.20092748187399,0.43674704032687706,0.24590442446638955,4.265497489508789,0.763955838763869,0.5280263470927553,3.786259969164846,0.3639558620500956,0.23953533379429928,4.33542991995285,1.336746988468197,1.1919963857926366,6.1319009441962,0.0,-0.03707470849916865,-0.9012194562969121
0.074,0.08164715193276109,0.004685818071001674,2.9467217113840545,0.20498829898950882,0.197446152944896,2.9826054336694954,0.4099765979524321,0.2543650375909634,4.121629904723285,0.7416471698427515,0.5353329274493187,3.5507452043820225,0.3416471646403195,0.24799592359096342,4.009417697820225,1.3099766323572961,1.2035431071264642,5.62422786684688,0.0,-0.0393780492832895,-1.1458348113248864
0.076,0.05804888116793894,0.00967211228552741,2.434650797854085,0.19082933015648854,0.20280750756713045,2.5914529474482104,0.3816586593396947,0.26202690333987394,3.9682780728002145,0.7180488589541985,0.5422261037766678,3.534916837167083,0.3180488829541985,0.2556587318814365,3.8554971679257934,1.2816586353664123,1.214267691229397,5.208020800533119,0.0,-0.04167391523118088,-1.008036876230943
0.078,0.0331863186482251,0.01429902537706488,2.28768502412497,0.17591178738893506,0.20705867721139573,2.167087573987072,0.35182357475068265,0.26972980416542974,3.865910868345703,0.6931862888929123,0.5483984025027532,3.107845999430213,0.29318631289291225,0.26298224147067273,3.5599787886229355,1.251823553354743,1.223911097919799,4.750078332999043,0.0,-0.04360424229135743,-1.0275259310962412
0.08,0.007285694214217329,0.01812507847299062,1.8614181751628873,0.160371412974629,0.21088170147299062,1.8881259468749851,0.32074282497247486,0.27699194257141163,3.784302111216787,0.6672856735392532,0.5541314207094858,2.885847002950374,0.2672856971910005,0.26986163607562624,3.4430638342056277,1.2207428602759693,1.2330832378079069,4.502842364229253,0.0,-0.04551517879710317,-1.0503084343101032
0.082,-0.019880294704206887,0.021599792274176154,1.60014245709287,0.14407182962578954,0.21397565690677053,1.5837127211355302,0.2881436592515791,0.2843184903995207,3.556605302136968,0.6401196984851626,0.5595338705949671,2.6240433329929296,0.24011970710642355,0.2764211111809467,3.1279699980624325,1.1881436668476941,1.2411942991343319,3.836106146246974,0.0,-0.047823684688196526,-1.1263594989275016
0.084,-0.047884819737313435,0.02390419112604043,1.108573974801427,0.12726910208656717,0.21627649197407847,1.311250902092509,0.2545382042,0.29120884107419737,3.4328966605450653,0.6121151803701493,0.5641312421001189,2.3637519721457787,0.21211517534328359,0.281406166403805,2.7463615257657548,1.1545382684208956,1.2480898870741974,3.501978933147919,0.0,-0.050119275974078475,-1.1994435356651605
0.086,-0.07677638096172648,0.025846124324749645,0.7698369713183119,0.10993417015917491,0.21821937032474964,0.8988385101444921,0.21986834128997257,0.29742993350929897,3.0839825286752505,0.5832236232369142,0.5684076644477826,2.0994423223361944,0.18322361723691427,0.2864529018597997,2.203200444972103,1.1198683772615954,1.254310979509299,3.135215373421316,0.0,-0.05206627463590844,-1.061018456630186
0.088,-0.10635434707985697,0.026608720313639072,0.3477983020089339,0.0921873950262217,0.21897913141810602,0.33614544940714713,0.1843747900238379,0.3027992850102442,2.779459031694342,0.5536456630619785,0.5722409565365099,1.8305145565220966,0.153645657920143,0.29028856022287075,1.932926915222156,1.0843748229070322,1.259674664745682,2.4797518653558073,0.0,-0.053985286954615845,-0.9924135460680167
0.09,-0.13652494423941813,0.026223463909351145,-0.29936147659255724,0.07408503251877906,0.2178268070028626,-0.4047442941688931,0.1481700640659354,0.3077806631784351,2.3330311006765267,0.5234750376402766,0.5753051381812977,1.4711040938291986,0.1234750605619411,0.293735800634542,1.6207407011488548,1.0481700252929533,1.2631239530877862,1.8629619148158396,0.0,-0.055902634181297706,-0.9425556091536259
0.092,-0.1671929030964756,0.025069244250751445,-0.6661073578991908,0.05568425926806693,0.21590545443202314,-0.8944968177916763,0.11136851850765397,0.3120001661883237,1.8815524503913297,0.49280710890352436,0.5776058624390752,1.250166167265549,0.09280709490352439,0.296421375059422,1.4353128956053178,1.0113684883620506,1.2661892364390752,1.3783154356560694,0.0,-0.05820335524069364,-1.0494574272663584
0.094,-0.1980889806777512,0.02320927299398844,-1.121904840806474,0.03714661014019139,0.21330093954381502,-1.3877323516665896,0.07429321930454545,0.3153482994934104,1.7383022888693642,0.46191103093564595,0.5790940244873988,0.7188969488756068,0.06191101722559808,0.2986531555246243,1.0520274711574567,0.9742932176521532,1.2676773984873988,0.7952500407514451,0.0,-0.05969059207445087,-0.723889381869133
0.096,-0.22946324177315422,0.01970224726811853,-1.5742676959947637,0.018322051270479135,0.20938958127751994,-1.765086988068547,0.03664410254095827,0.31812826586124004,1.3456510351369748,0.4305367542268458,0.5795178261105557,0.2245479740305843,0.030536752117465225,0.30063308089884566,0.7450372025417114,0.9366440746503388,1.267717458119957,0.014423661074259193,0.0,-0.061267279880042845,-0.6644852179940498
0.098,-0.2607814899348971,0.016255698048911103,-1.889606006003927,-0.0004689000057443753,0.20556029379186005,-1.9249478439485899,-0.0009378000114887506,0.32004290960406995,0.8210062646472688,0.39921850606510295,0.5787513971670831,-0.3238608477729382,-0.0007815000095739589,0.30101677157586576,0.3611487415937165,0.8990621760880805,1.266568290910032,-0.5412971770556944,0.0,-0.062416447089967866,-0.6157346355044627
0.1,-0.2922895663898952,0.01163064714442326,-2.364237535725929,-0.019373747439466158,0.20131962846901813,-2.1668300347488088,-0.03874749485033365,0.32119792228312677,0.6473411701081984,0.36771042961010486,0.5775930367845568,-0.7743150111787417,-0.03228957907530982,0.3013991438584366,0.16592166496520497,0.8612524860934223,1.26463939050143,-1.1026658728960916,0.0,-0.06395429246615825,-0.6537385378169686
0.102,-0.3235433974043644,0.005877069366738249,-2.7779533210091865,-0.03812603951609826,0.1959513862732045,-2.487839417406347,-0.0762520780604579,0.321962118,0.29802087917382486,0.3364565985956356,0.5752916844352184,-1.2063082680527322,-0.06354339940436442,0.3010158997013839,-0.1829971567475543,0.8237479341199618,1.2615669760250536,-1.6663183098415653,0.0,-0.06472286935969936,-0.6193444266207349
0.104,-0.3545677435851216,-0.000270268820977354,-3.3055334366209776,-0.05674064970529327,0.19057290185268175,-2.7618124098336114,-0.11348129938197425,0.32196065577544697,0.04583563448724672,0.30543225241487837,0.5729856269263409,-1.2342741635878427,-0.09456774581402003,0.3006283283263409,-0.4015344028104887,0.7865186848183119,1.2569553720772348,-2.3944248751368296,0.0,-0.06587249808772348,-0.30780015717234804
0.106,-0.38520788096257,-0.0075592487371306,-3.6188130828474736,-0.0751247306862558,0.1844351483017159,-2.9875246007502385,-0.1502494604011205,0.3215746260631554,-0.33851230441372737,0.27479211506603884,0.5699188076174928,-1.3861311280088178,-0.12520789093396115,0.2994743541263108,-0.6600155415364634,0.7497505301983549,1.251198166199714,-3.1082756980114397,0.0,-0.066637278,-0.3935254584942803
0.108,-0.4153538918855781,-0.015614545940383927,-4.083527603949803,-0.09321234091418355,0.17791282404304282,-3.262224110215691,-0.18642468185697258,0.32042148196244186,-0.6982871558349827,0.24464610468533968,0.567231747118159,-1.3447786155990222,-0.15535390088557807,0.29717053431143436,-1.1040887360643854,0.713575295114422,1.2442923135853106,-3.624096560115894,0.0,-0.066637278,-0.13587243047084774
0.11,-0.44487806725945306,-0.024440665475939583,-4.387593229470671,-0.11092684548775267,0.1706231548304648,-3.4939888725742887,-0.2218536919472057,0.3184997561321859,-0.9939765911509191,0.21512191474054695,0.5637792423055848,-1.7243073068524764,-0.18487807628775269,0.29409639869827886,-1.6095422741758576,0.6781462849017836,1.2362298637433555,-4.217853052801312,0.0,-0.06663476121929515,0.08079397004273503
0.112,-0.4736138419933222,-0.03348265203512469,-4.802743408772743,-0.12816830799081802,0.1630873851793701,-3.7571085315995787,-0.25633661598163604,0.315485448271748,-1.5437158957602155,0.18638614075709517,0.5603883802181243,-1.9641068276533193,-0.2136138516051753,0.28957493690762204,-2.210541671935488,0.6436633900183639,1.2264338317079966,-4.935453146594193,0.0,-0.06588071574312142,0.28612284723931625
0.114,-0.5015868034843638,-0.04398807943255978,-5.06737410626764,-0.14495208461709239,0.15529324848462717,-3.8480300758928023,-0.28990416920792555,0.3115997467353045,-1.8886407374684886,0.1584132071480067,0.5561117881796442,-2.0763268805167865,-0.24158679885199333,0.284130507387796,-2.6869350674332666,0.6100958360042971,1.2155323887628695,-5.402751459859112,0.0,-0.06510082765249145,0.5976759236523737
0.116,-0.5286254058941849,-0.05460151691541996,-5.537791651446579,-0.1611752435009533,0.14733340603486864,-4.169450528695252,-0.32235048602931365,0.3074299463475086,-2.261958947803275,0.13137459088655862,0.5511843564392744,-2.334151518226293,-0.268625414921592,0.27844450164530565,-3.1317212985460006,0.5776494899706863,1.2037806199401577,-5.976902326970903,0.0,-0.06358462229779714,0.8162997280260337
0.118,-0.5545623692664051,-0.06652423048342707,-5.86711465564784,-0.17673742735984307,0.1384867892953213,-4.418925334391289,-0.3534748546927009,0.3024321061933708,-2.7211648595911213,0.10543761973359486,0.5461793335792748,-2.6899877593842287,-0.29456237923941986,0.2715268109372981,-3.3895507115997368,0.5465251213072991,1.191084259018308,-6.39765145993981,0.0,-0.06204454161062582,1.0201826850040685
0.12,-0.5792842521365159,-0.07862845617681637,-6.184687099374089,-0.19157055751423785,0.12903384242699273,-4.593240899850693,-0.3831411140527638,0.2963866419115918,-3.009463581444392,0.08071573642629816,0.5405093203519868,-2.794068134987303,-0.3192842618651591,0.2643407763091935,-3.754439496063955,0.5168588626758794,1.1778474452207854,-6.858411925075241,0.0,-0.05977935683658594,1.1037780449673174
0.122,-0.6028934335679866,-0.09234962090782423,-6.513587322463142,-0.20573608331655535,0.11921437362855783,-4.776835780395618,-0.4114721666331107,0.2897158479565321,-3.4265756913134453,0.05710653785066794,0.5338488360445397,-3.120574558467071,-0.34289347173067747,0.2557223847134691,-4.23038951134679,0.4885278393668893,1.1625618267789688,-7.243382362882101,0.0,-0.05704000068988925,1.2343394572993927
0.124,-0.6250763101559742,-0.10538137462343246,-6.602680281453242,-0.21904579415728595,0.10924673889716947,-4.998035934244356,-0.4380915883145719,0.2824313419777857,-3.7258508167405946,0.03492367672752206,0.5273321355424578,-3.4009764396975997,-0.3650763183009778,0.24652090407058402,-4.666605191753136,0.46190841768542806,1.1472309054206378,-7.613578887292727,0.0,-0.05473753530598352,1.4430628618602652
0.126,-0.6458085247860116,-0.11921690944262874,-7.005423522626616,-0.23148511096134175,0.09848936251281448,-5.149443226883377,-0.4629702219226835,0.2739747012748648,-4.248602769849283,0.014191492443321041,0.5200300546945685,-3.6348021299760167,-0.38580850378601167,0.23614459415400893,-5.204824190697742,0.4370297832173189,1.1314643352470022,-8.294670686282272,0.0,-0.051273844637432404,1.5948053352907359
0.128,-0.6649777344104397,-0.13321521241876322,-7.2010630424958855,-0.2429866199990466,0.08827397878556313,-5.319288924933224,-0.4859732399980932,0.26489456839125325,-4.606170383292734,-0.004977710314026934,0.5124623364138255,-3.854516134970139,-0.4049777142077226,0.22555110578979543,-5.391434368314837,0.4140267360019068,1.1133050093712673,-8.803933137826945,0.0,-0.046733778195626616,2.2374048428963085
0.13,-0.6825850777305446,-0.14871042473274526,-7.363318958741447,-0.2535510467176737,0.07665574642996781,-5.560751486122898,-0.5071020934353474,0.25443906194743116,-5.12448773714221,-0.022585087072935287,0.5043245623117177,-4.029406214691263,-0.42258508675688233,0.21392826414828942,-5.811734782334009,0.39289788335478487,1.0950805213403267,-9.192617619587198,0.0,-0.0420813653558231,2.4208963251038265
0.132,-0.6985248192198853,-0.16328631095039445,-7.47484383825759,-0.26311490825860423,0.0655322135981353,-5.665449720681329,-0.5262298164911569,0.2436974500402821,-5.408483096497609,-0.038524840073613766,0.4955022062047573,-4.395444929724361,-0.4385248284383365,0.20165332338847716,-6.28323098340832,0.37377018872729445,1.0762848568851302,-9.579432396335045,0.0,-0.03709495949725078,2.492629736436768
0.134,-0.7127690769184355,-0.17905613601144627,-7.828599230826279,-0.2716614234179585,0.05399044749230952,-5.7240055552552755,-0.5433228458644168,0.23177220959151068,-6.045323505998092,-0.05276905500393513,0.4866530212869918,-4.533700609805175,-0.45276905691843544,0.18818590297841897,-6.835157687994515,0.356677131845576,1.057430013772505,-9.78637325445487,0.0,-0.03171010078728985,2.6072162249025874
0.136,-0.7251939674089175,-0.1944039135004173,-7.816786463591272,-0.2791163806005007,0.04209671384428282,-5.77774583785883,-0.5582327612010014,0.21949107408560867,-6.412557252216645,-0.06519394970183595,0.4770604032179564,-4.835743121300227,-0.46519394910407724,0.173605924028258,-7.256036256528199,0.3417672730751073,1.0367141062270182,-10.196937369846548,0.0,-0.02633799158030285,2.671953001332181
0.138,-0.7357797712996086,-0.21013692768917497,-7.919218684704739,-0.28546786732439805,0.030204716716442363,-5.934323627069281,-0.5709357346487961,0.20606017794792275,-6.8837263037669985,-0.07577979577831812,0.4670837862221182,-5.1024447468534815,-0.47577980857739294,0.15863796331082505,-7.584918247290111,0.3290642413512039,1.0163769239052078,-10.356690378908016,0.0,-0.020581150792510237,2.920761675328613
0.14,-0.7444555085568713,-0.22595416776945582,-8.067522864771211,-0.29067328102116974,0.01890682188531305,-5.938280277075482,-0.58134656206626,0.19212576424224692,-7.152175593778233,-0.08445548193960054,0.4569150252656524,-5.262736848171445,-0.4844554875807918,0.14282072323054418,-8.112229487378583,0.31865341393374,0.9960403385757753,-10.46275221040316,0.0,-0.01455535712697484,3.176927185803979
0.142,-0.7512759637159805,-0.24219084759639425,-8.013661934298076,-0.29476556696606954,0.006927633813221154,-5.933336436396515,-0.5895311349052083,0.17705844343617788,-7.5368570453546875,-0.09127595371242139,0.4460949123168269,-5.286341226676923,-0.49127594530489976,0.1265830969325721,-8.22920107075096,0.31046884271064185,0.9736405205641827,-10.794699056049039,0.0,-0.007989021661658654,3.315617011342428
0.144,-0.7561234437907894,-0.2579450866418832,-7.939195067950822,-0.2976740955421052,-0.005072398483160471,-5.899076929543177,-0.5953481910618421,0.1620575083167463,-7.739205739644097,-0.09612346945526316,0.4352204427961776,-5.619855340273511,-0.49612348211973684,0.10971209342500875,-8.622585588741872,0.30465184426710523,0.9526289945703298,-10.788681028103134,0.0,-0.0012400979583964576,3.399520785324554
0.146,-0.7590385961381485,-0.27419527293934287,-8.075984563688891,-0.2994231639898858,-0.017078521697556866,-5.966122799638224,-0.5988463270053546,0.1454540658553376,-8.11764923885269,-0.09903860713814851,0.42362418996870865,-5.6656897978690575,-0.49903860516373155,0.09117439934733422,-8.827130421461789,0.3011536797621371,0.9305871495571068,-10.627605810053316,0.0,0.006100059328559393,3.536519810942472
0.148,-0.7599763523622424,-0.2905913408444552,-8.112363596920893,-0.29998582912985144,-0.029180036137466635,-5.95147623947998,-0.599971658235745,0.1286678470015773,-8.280027730274325,-0.09997636336224246,0.41191284601650086,-5.8033849294940545,-0.49997636233828463,0.07358337635586024,-8.847895512960447,0.3000283770455199,0.9091005191406212,-10.752673295501943,0.0,0.013135474460325165,3.3734690559468574
0.15,-0.7589284135485871,-0.3064252513056383,-7.950056591062701,-0.29935705481304403,-0.04038177686827989,-5.824775451618549,-0.5987141086548229,0.11129745069436166,-8.504857905305162,-0.09892842497961131,0.4003316315295029,-5.727378356735606,-0.49892842341063554,0.05505786977124807,-8.96365358823054,0.30128589820722546,0.887481207210037,-10.801858553560615,0.0,0.02047202607915127,3.636495593564072
0.152,-0.7559155922626937,-0.3229166890918197,-8.183718857467683,-0.29754938394040525,-0.05227131856785119,-5.888893128584784,-0.5950987679096543,0.09480052694705463,-8.611152166018602,-0.0959156171954708,0.38920601042857145,-5.701681654964942,-0.4959156295609058,0.03779470345766754,-8.893995467263773,0.30490126635971393,0.8663846087169091,-10.80083340914715,0.0,0.028141109362508944,3.9148016249742428
0.154,-0.7509470225903083,-0.33903108973349055,-8.054984347914623,-0.29456820080985835,-0.06378143224115566,-5.860533360828891,-0.5891364025910227,0.07715063998183962,-8.576530762589623,-0.0909470111312061,0.37769440755613204,-5.742917079136556,-0.4909470025616145,0.019759819726415093,-8.969226713858845,0.31086357340897725,0.8452813326074292,-10.683664307077711,0.0,0.03543531578195755,3.9418900894647404
0.156,-0.74405213913247,-0.3542092350825472,-7.7968860745768875,-0.2904312598937864,-0.0747862953567217,-5.538769891518043,-0.5808625197875728,0.060075463365801884,-8.588001629551886,-0.08405211358072948,0.36631127036933964,-5.789706140392217,-0.48405211977200907,0.0019243203679245244,-8.768482774343278,0.31913745621242723,0.8247903655503538,-10.427679088648938,0.0,0.043403606177712266,3.870948062138797
0.158,-0.7352723042160038,-0.3694749955967742,-7.439315596306452,-0.28516338779971423,-0.08547500171774194,-5.313645809290322,-0.5703267755994285,0.04252203823387096,-8.59773074791129,-0.07527232913360324,0.3544827426975807,-5.765916516407258,-0.47527234179685635,-0.015633510306451614,-8.859023433024193,0.3296732018437723,0.8041820567741935,-10.117154998084677,0.0,0.051039153798387096,3.7784964039637097
0.16,-0.7246005474823136,-0.3834715505639972,-6.947922115797909,-0.27876032794968925,-0.09605640386754344,-5.3834386926945745,-0.5575206558763145,0.025510307171324565,-8.653085207377172,-0.06460052841312142,0.3431403522296853,-5.77898480937412,-0.46460052748231356,-0.03301829760685768,-8.866088772070102,0.34247937873984224,0.7845208103776421,-9.711866467458197,0.0,0.05897102907386097,3.9614952140748003
0.162,-0.7120505240907135,-0.3970100219917137,-6.586099171831632,-0.2712302921032628,-0.10724538426576198,-5.43576759101405,-0.5424605832319828,0.008508503857091392,-8.52782576527861,-0.052050503210828256,0.3315550854929747,-5.559571570913654,-0.4520505048544281,-0.05040698615707938,-8.761596334071815,0.3575393935317318,0.7655658013925783,-9.398756779760419,0.0,0.06708081183019095,4.002465503224451
0.164,-0.6977064211502141,-0.4092050626986334,-6.017972605519439,-0.26262386998144627,-0.11785593019757305,-5.1381258877621345,-0.5252477399628925,-0.008761764734213008,-8.405894470031926,-0.03770644278686965,0.3201668366454995,-5.528427500953699,-0.4377064311222645,-0.0692185205440622,-8.79917265191164,0.37475226519862037,0.7467242434559378,-9.043198252942743,0.0,0.07493919852002827,3.8629904637442274
0.166,-0.6817104934958786,-0.4201986099040999,-5.699801512441683,-0.2530262951633019,-0.12733309440728088,-4.9440570137135955,-0.5060525903266038,-0.025441045797360978,-8.305165672904216,-0.02171050162262573,0.30993100906350146,-5.300730528138902,-0.42171050172536134,-0.08589874436781339,-8.81877537826508,0.39394738567339627,0.7300440196321867,-8.766946835171773,0.0,0.08252111843991518,3.9202945097673187
0.168,-0.6639733008164896,-0.4314444253187627,-5.201882660707034,-0.24238395978475125,-0.13626321857291293,-4.614781687888451,-0.4847679195695025,-0.0417400413919742,-8.19312466860695,-0.003973276038897506,0.2994596766812373,-5.057113522006091,-0.40397327981648967,-0.10411741660492059,-8.796684438330825,0.41523205726452694,0.7125948473538756,-8.296232757385644,0.0,0.09104721705661054,4.10995026331506
0.17,-0.6446598892732149,-0.44105114809493745,-4.914930854722931,-0.2307959305029205,-0.1454841879581894,-4.516497170229065,-0.461591861005841,-0.05787804080202502,-7.913866129392853,0.01534012683621409,0.2898545979279333,-4.851533740922811,-0.3846598691350578,-0.12102103491161405,-8.416176193142466,0.43840814499415903,0.6968376692661108,-7.998944629463848,0.0,0.09911820693531864,4.082471528488743
0.172,-0.6238491024204004,-0.4502476014594305,-4.382459865047063,-0.21830947028693992,-0.15391489749577028,-4.3229802913766235,-0.43661894057387984,-0.07282416835505778,-7.540993181821994,0.036150883150619637,0.28104120550422973,-4.479805048825807,-0.3638491122783603,-0.13634984435851305,-7.718717746046348,0.4633810654261201,0.681510758641487,-7.540218626501608,0.0,0.10716718349577029,4.063812444983558
0.174,-0.6016091475254015,-0.4586812695297336,-4.180601722982398,-0.2049655116133254,-0.16196556252973357,-4.0382370181825635,-0.4099310231984533,-0.08700971971693626,-7.095069006729306,0.05839082398215348,0.27298939771931496,-4.188430756680661,-0.3416091856794765,-0.15053083704757375,-6.819584646652117,0.49006898195562165,0.6673252034464796,-7.2226585557169365,0.0,0.11521670861239296,3.9400807134738347
0.176,-0.5780596999414913,-0.4663355993354718,-3.800118735882655,-0.19083582576489475,-0.16961989233547184,-3.797085608370115,-0.3816716505560709,-0.10078672372681674,-6.661475752190832,0.08194028905850874,0.2649510750527237,-3.8750273115714453,-0.31805970896777264,-0.16277754981791673,-6.161777439059839,0.5183283254439291,0.6535472476062055,-6.592527284248222,0.0,0.1224890696501808,3.75138352254485
0.178,-0.5532716937399617,-0.47309120432509044,-3.6045383718341304,-0.1759630219005736,-0.1763754973250904,-3.5635544197915547,-0.3519260437772466,-0.11317262181663362,-6.230304858973521,0.10672829545124284,0.25706922476041055,-3.8705447244518836,-0.2932717037160612,-0.17328606126548465,-5.351089904714803,0.5480739322227534,0.641160417081535,-6.192408847261402,0.0,0.12961977860293947,3.6856936622453054
0.18,-0.5272002905430242,-0.4793117867113228,-2.979497557229591,-0.16032017419966585,-0.18335610415121187,-3.2893768755584225,-0.32064034742570713,-0.1255897724226456,-5.783624259631496,0.13279970682623224,0.24968598830676475,-3.7707489881415652,-0.26720029917376775,-0.18338496400687326,-4.756730307827686,0.5793596293655567,0.6298828110112142,-5.443661439249729,0.0,0.13660839015121187,3.324759764527915
0.182,-0.5001122569041454,-0.48432598747536476,-2.4882603920778523,-0.14406735674795107,-0.18952122704568286,-2.997589425894164,-0.28813471349590214,-0.1363815963269553,-5.24271483295635,0.159887753303599,0.24237379938399906,-3.6651730989686677,-0.24011225231393277,-0.19148651450203302,-4.212894302181655,0.6118652925040979,0.6191044026670653,-5.137322220851352,0.0,0.14315427673678546,2.9892316307034204
0.184,-0.47220228414592275,-0.48845419363018167,-1.8838809086269213,-0.12732137334477825,-0.1944021029948766,-2.7366808695645086,-0.2546427467134001,-0.14650299470703307,-4.919263030609688,0.18779769785407727,0.23599728042990217,-3.3417221358570095,-0.21220229412207914,-0.19898411424406148,-3.7088212633493245,0.6453572585712923,0.6100988639967396,-4.639035626376339,0.0,0.14878166379739172,2.9543850685407547
0.186,-0.4433518697961014,-0.4912354960548328,-1.3116723658171427,-0.11001112709208323,-0.19948176600960488,-2.309479574582249,-0.22002225516012916,-0.15553642471756837,-4.422386293702735,0.21664811256445826,0.22973369534844984,-2.9395114669039515,-0.1833518787961014,-0.20490289389179334,-2.9465741909454106,0.6799777208639082,0.60185883816462,-3.875407100528146,0.0,0.1542632717805471,2.619929552883161
0.188,-0.41369209430845355,-0.4935488609102978,-0.9465827975388111,-0.09221526228222249,-0.20334340470386317,-2.0309385741029784,-0.18443052453737926,-0.16400857610788183,-4.0450286786270775,0.24630790266448074,0.22471704604150222,-2.5096276639690225,-0.15369210333551925,-0.20991525495849778,-2.2795171063128814,0.7155694528415405,0.5952982042401627,-3.3164356139815814,0.0,0.15927228054192083,2.381484984173664
0.19,-0.38350694641828814,-0.49470850880981887,-0.5139255982831268,-0.0741041698947117,-0.2064172796544328,-1.6472003134213538,-0.14820833881676018,-0.17092283731935176,-3.508744090395138,0.27649304958171184,0.2197319225171592,-2.3428308707740704,-0.12350695619959412,-0.21375956694280265,-1.8021326638836987,0.7517916519918825,0.5895396642206864,-2.7248710436439465,0.0,0.16349592418636796,2.140507182200191
0.192,-0.35280583292335116,-0.4947147348905786,-0.017384600736129262,-0.055683503279857396,-0.20874741425983132,-1.0994755955910658,-0.1113670065311943,-0.17713522711987645,-2.9425580454410123,0.3071941630766488,0.2150710825100392,-2.331095156715932,-0.09280583492335115,-0.21647834911346087,-1.2122011053544017,0.7886329782959002,0.5848772532534158,-2.105076885139361,0.0,0.16738068837649994,1.8491193595930855
0.194,-0.3218667019289983,-0.4939493046311074,0.39925792156313467,-0.037120022331341145,-0.2095105214212161,-0.41085412556600165,-0.07424004368826201,-0.18172304273467926,-2.266833037565285,0.3381332940710017,0.21086509594911002,-2.0240531088439853,-0.06186670421037532,-0.217242956,-0.42767433276920325,0.825759968467607,0.5818193506861785,-1.563568130062358,0.0,0.17082124368271415,1.5935835717089952
0.196,-0.29050807925122213,-0.49279340682156486,0.7252028879169847,-0.018304855299868847,-0.20873882427480916,0.35154398358492367,-0.036609710599737694,-0.18594881208778627,-1.7744607780066795,0.3694919167487779,0.20663807954675573,-1.9456076481383588,-0.030508092166448075,-0.2172407583625954,0.05108493293893129,0.8633902692872303,0.5798986389093511,-0.8893275880639313,0.0,0.1738934579971374,1.2861850135209922
0.198,-0.2591089727178631,-0.4904875811752922,1.1316391721569283,0.0005346104373956595,-0.20681784147078466,0.9029382189165276,0.001069220874791319,-0.1890153544691152,-1.2914684530500835,0.40089102328213694,0.20280251641402336,-1.7075195754023373,0.0008910173956594324,-0.21647012458764608,0.5725548671519198,0.9010691967612688,0.5787521322420701,-0.3667602384073456,0.0,0.17580965035559265,0.9669219004657763
0.2,-0.22770636755906545,-0.4874133095400024,1.6430439974535591,0.019376175927762546,-0.20451154761714557,1.2273339625363062,0.038752351826796996,-0.1909310411101705,-1.0003326542935493,0.4322936289005841,0.2001169596905926,-1.4888648767132466,0.032293626555846944,-0.21493086321676402,0.9036611561126744,0.9387523246024556,0.5791408516693692,0.2924538993630619,0.0,0.1769583090367235,0.5883780255743412
0.202,-0.19644771793826574,-0.4831894012981204,2.1661781051713063,0.038131367911264424,-0.20105740169521769,1.5505312258510588,0.07626273485107647,-0.192076921,-0.5734528004882228,0.46355229406173426,0.19743257872019984,-1.1707187001498929,0.06355228006173426,-0.2122445102058054,1.1994236368348798,0.9762627329946474,0.5806798643528431,0.7314935839595527,0.0,0.17733880955864859,0.2140220072786105
0.204,-0.16549619220862707,-0.4778284440376344,2.6076886437258064,0.056702285816465525,-0.1972278132598566,1.8429615952383513,0.11340457160640459,-0.19207485983333333,0.0615798918172043,0.49450381896905243,0.19513599724910394,-1.062680535,0.0945038059770582,-0.2091790192043011,1.8157569859247311,1.013404540394193,0.5833620636845878,1.5246679791756272,0.0,0.1769555161792115,-0.281875767688172
0.206,-0.13478502656114422,-0.4720588111048868,2.9916256108429082,0.07512898319022646,-0.19299515842526818,2.1124064436162096,0.15025796540929678,-0.1909205716796186,0.5369966382672229,0.5252149553041716,0.1928317356796186,-0.9999800547087008,0.1252149784388558,-0.20456367442526818,2.205421685649821,1.0502579285437426,0.5872120285747319,2.0297248504235994,0.0,0.17618296567961858,-0.47719873543361147
0.208,-0.10464660742823109,-0.4655362819506598,3.3910705698875283,0.09321203880583681,-0.1880081694490548,2.3675598315862563,0.18642407764026206,-0.1893821107245274,1.0338367904055406,0.5553534033716497,0.191303492,-0.5611261962362383,0.15535339737164977,-0.19957522687528237,2.5161122607726787,1.0864241126688505,0.5922033932722626,2.624935066412674,0.0,0.1746459669278326,-0.9402212732823683
0.21,-0.07513782023906083,-0.4582651587375103,3.7259067069707297,0.11091730632337246,-0.18265029494416363,2.7321870614491597,0.22183461361899678,-0.18670227215081697,1.4040373988777477,0.5848621836499466,0.19130439444151875,0.14436618273033971,0.18486217767769478,-0.19383498328353121,3.0894835827781826,1.1218346504236927,0.5987088268197954,3.285184591743858,0.0,0.1723498984720818,-1.2095884171739744
0.212,-0.04647694635289187,-0.4499432037611379,4.074962398019044,0.12811382628248114,-0.17659830610861643,3.1015840538041615,0.25622765256496227,-0.18292024945609497,1.8343416963325498,0.6135230534886841,0.19206136238744564,0.2842878621392971,0.21352304880553227,-0.1874049803095098,3.337735483517809,1.1562277162296732,0.6062738128642294,3.728126976491948,0.0,0.1693239040543082,-1.4698765911036793
0.214,-0.018390438627148994,-0.441100280723099,4.440528355160689,0.14496574333643744,-0.169684403205165,3.3406750471147775,0.2899314866457737,-0.17869347572596844,2.3335901391033,0.6416095539934336,0.19283025344763272,0.5972841008321378,0.24160956339995227,-0.18010475062840745,3.7442870451248207,1.189931493458811,0.6147264281291248,4.364095657285509,0.0,0.1658669526025825,-1.711930350163558
0.216,0.008656723608011445,-0.4313805392280911,4.958029202558603,0.16119403036480687,-0.16191201410110886,3.685070288710862,0.32238805975822604,-0.1732575354789555,2.663492450585072,0.6686567023505007,0.1943811961254322,0.9817780784881365,0.2686567263505007,-0.1719407268583522,4.011805492076666,1.2223880940701002,0.6244408506642423,4.8571070037793005,0.0,0.1619795514967211,-1.953341559335877
0.218,0.034602767227467815,-0.4206374820806913,5.255932565949225,0.17676165669098712,-0.1538523620997616,4.108768094149584,0.35352331335336196,-0.16711443677997617,3.1907236525276517,0.6946027374563662,0.19668570285721096,1.3445997554332538,0.2946027614563662,-0.1627323125092968,4.664893641403338,1.2535232903247497,0.6348044555867699,5.379343602478784,0.0,0.15775848771418355,-2.2011386616740167
0.22,0.059387503754461106,-0.40951282513130355,5.633369151345386,0.19163250403616464,-0.14502812286013322,4.446739733525214,0.3832650071009993,-0.15982643668696478,3.516887806369172,0.719387482929931,0.19975569873644147,1.6093467692378687,0.3193875060698311,-0.15314046304091342,4.911762168873453,1.2832649848211992,0.6463177672492864,5.980641101234063,0.0,0.15315422888296862,-2.2080079829248334
0.222,0.08286502359995224,-0.3980300906402294,5.7644539987224075,0.20571902199486505,-0.1354601747204969,4.686987321652651,0.4114380439897301,-0.15255409887386526,3.913855711918299,0.7428650414016001,0.20320185874677496,1.6845383387381747,0.34286503620050157,-0.14280608154706162,5.081168129330625,1.3114380775930259,0.6593292733860487,6.306077643698519,0.0,0.14817874634639275,-2.4150870860172002
0.224,0.10507307122448493,-0.3857286421292951,6.016015286736214,0.2190438445743718,-0.12546357534218916,5.013620895896091,0.4380876891487436,-0.1440956046818987,4.282356113780848,0.7650730458480409,0.20743158215905066,2.1760107253698195,0.3650730689977373,-0.13165800647242887,5.554335315385877,1.3380876351487436,0.6724016312570552,6.82598933556323,0.0,0.14279564950123982,-2.657244959890542
0.226,0.12578388801905216,-0.37318914946227416,6.4996916837052785,0.23147033577042153,-0.11520450588097769,5.246057781596528,0.46294067154084306,-0.1349758018352816,4.565912639385406,0.7857838844298642,0.21199148358235917,2.417848924349628,0.3857838784298642,-0.12025778141055615,5.7901276534938,1.3629406191840916,0.6864610910651789,7.184514530630181,0.0,0.13709648146333686,-3.065344321951116
0.228,0.14497068086910994,-0.3601574891851543,6.599636806346122,0.2429824029947644,-0.10409175192827357,5.473556143065888,0.4859648059895288,-0.12501243099332776,4.912006841027523,0.8049706910837696,0.21735351420767307,2.739135198391159,0.40497068586910995,-0.10761386620683903,6.259919354940783,1.3859648127748692,0.70216962023603,7.732353914049208,0.0,0.130201406794829,-3.4588829534537116
0.23,0.16255637060505207,-0.3462735545657595,6.696330373009111,0.2535338197888184,-0.09252057551396715,5.694411468344803,0.5070676395776368,-0.11459795640306918,5.30884441640223,0.8225563527094457,0.22352130608188467,3.0156820018212445,0.42255637526146295,-0.09449946124349598,6.542037169328977,1.407067674105112,0.71798842508704,7.996393096997722,0.0,0.12249132673264597,-3.9904894731089797
0.232,0.1785630040543569,-0.3331678168509242,6.801026730445558,0.26313780840743833,-0.08057476280632081,5.9689939825629095,0.5262756167861485,-0.10380698696815742,5.344667129299225,0.8385630296234354,0.22968759502802621,3.163077459370662,0.43856299545655025,-0.08139673878211091,6.707040400930471,1.4262755945098342,0.7349400162663089,8.444041378166249,0.0,0.11439946694776386,-3.8585481338597494
0.234,0.19277049691522594,-0.31896775383247883,7.045037066167402,0.2716622904187433,-0.06829322321414093,6.097100193282222,0.5433245798661023,-0.09229489209300107,5.709003880260641,0.852770507915226,0.2362126136561345,3.349301135167402,0.45277050191522594,-0.0675801859439609,6.690190448256827,1.4433246124322165,0.7518295138155479,8.622369662943603,0.0,0.10634090510110886,-3.947177645273638
0.236,0.2051951394100119,-0.30438738688939215,7.230425987621454,0.27911709778069127,-0.05562959720977354,6.267373530351847,0.5582341955613825,-0.0807810615749702,5.867661049073421,0.8651951504100119,0.24312446721549466,3.5362050543179975,0.4651951444100119,-0.053382337502979736,7.05563248778379,1.4582341132920142,0.7698655078445769,8.969856118957091,0.0,0.09828330878450536,-4.060020525654827
0.238,0.2157789437985697,-0.28981251104860617,7.2156594940009535,0.2854673514564958,-0.042590276324279246,6.445353493590184,0.5709347029129916,-0.06850590348892066,6.157754787380272,0.8757789547985698,0.25117968079509173,3.89462664151918,0.4757789487985697,-0.03919075021324756,7.209404736296164,1.4709346806293206,0.7882746253380987,9.19384608570622,0.0,0.09022809520490828,-4.148917052488921
0.24,0.2244868139315689,-0.2748613515539783,7.328188304014792,0.29069207962732474,-0.029553355042586184,6.562053804043183,0.5813841592831426,-0.05585431760694262,6.351810303188715,0.8844868245041727,0.2596137535711559,4.230436338522486,0.48448681850417263,-0.024622459623404508,7.282510228152332,1.4813841952831426,0.8066800327596325,9.429443290911607,0.0,0.08179278764666587,-4.344828110953715
0.242,0.23128359974836796,-0.26027306659593263,7.342192991213829,0.2947701538991098,-0.016119278567925624,6.662618912052179,0.589540308769733,-0.04318599946949448,6.568376014826962,0.8912835961756677,0.26806094843811734,4.192003106398722,0.49128359017566764,-0.010036591180360255,7.3267293775760605,1.489540343060534,0.8262571998558977,9.895852820049042,0.0,0.07296492080488087,-4.290284056722255
0.244,0.23612902309769496,-0.24569004461661825,7.4225162793834984,0.29767742311799833,-0.003031092742475306,6.707776358769669,0.595354846211752,-0.03047245262463684,6.562424557752702,0.8961290333703571,0.27703647398140613,4.474612720473794,0.49612902809769494,0.00417365170261476,7.354989966909239,1.495354822211752,0.8457030890459035,10.146929565605346,0.0,0.06436310430005811,-4.3438304363062175
0.246,0.23903911266912992,-0.2309513961772152,7.3352244136292954,0.2994234714990465,0.010916330034358048,6.759570757882459,0.5988469420241954,-0.01653419161482821,6.572559290896925,0.8990390936691299,0.28596008031283904,4.42043914292405,0.49903911766912995,0.019283340216998193,7.391837425059674,1.4988469180241955,0.8677573149095841,10.478456693909585,0.0,0.05582691308137433,-4.17143286053707
0.248,0.23997444912098795,-0.21612542202481097,7.350703068095463,0.29998468417742513,0.02422868228520794,6.790735212627363,0.5999693683289583,-0.003595838143431002,6.615755326587193,0.899974430120988,0.2954578654293478,4.721963089872637,0.49997445412098795,0.03373668065784499,7.344360578249764,1.4999693443289583,0.8879271812313327,10.572987631448724,0.0,0.04708500362594518,-4.205431824659263
0.25,0.23893405761988792,-0.2013945877835722,7.270939878487895,0.29936043832753073,0.03816909114765747,6.839221589148621,0.5987208756818886,0.009956462194748886,6.689155585895942,0.8989340394247048,0.30552432717042033,4.894241513452366,0.49893406261988793,0.04883965936119475,7.331313446628086,1.4987208516818886,0.9092217287558714,10.723509812301096,0.0,0.038554201986390466,-4.405629190504035
0.252,0.23592437827420124,-0.18716403652616487,7.279249224982915,0.2975546359369337,0.051249550497013144,6.696724449107646,0.5951092719009299,0.023413801471087216,6.755904764054958,0.8959243888682642,0.3151406886357228,5.103380666038231,0.4959243828682642,0.06307390546654719,7.340284381975627,1.4951092495246783,0.9303703422364397,10.532882306676942,0.0,0.030095330333811232,-4.124302489735364
0.254,0.23095836739661743,-0.17298035126101977,7.173356983022516,0.29457501397308244,0.06466515927174171,6.669699812510126,0.5891500289191282,0.036831257886466524,6.585036941350012,0.8909583638021678,0.32586513324684296,5.268387505315941,0.49095835780216773,0.07763885405051227,7.232878439431618,1.489150064919128,0.9514538449527042,10.483032875426614,0.0,0.021661176310698117,-4.125254083746843
0.256,0.2240611849717973,-0.15903970519569893,6.970739672078016,0.2904367020200765,0.07783142477455196,6.603768707170251,0.580873404040153,0.050381397869056155,6.586685109825806,0.8840611959717973,0.3363227783818399,5.133869603935603,0.48406118997179737,0.09235077839127838,7.206055712970131,1.4808734384627151,0.971980349858184,10.445182115859499,0.0,0.013527533823178017,-4.1160110968194745
0.258,0.2152246979529244,-0.1452022200388464,6.707910752436021,0.28513480462767476,0.09051707619576221,6.406845125354679,0.5702696092553495,0.06344825767180695,6.566520145110536,0.8752247089529245,0.346317244351854,5.110726403788228,0.47522470295292435,0.10657149272313125,7.19119484409229,1.4702695835435093,0.9923557284844027,10.27044086141342,0.0,0.005457911257445556,-4.032815544293702
0.26,0.2045652844557385,-0.1323225127934079,6.499963189462978,0.27873918506764495,0.1030181892043555,6.175119641541023,0.557478370109401,0.07519218418175398,6.199448489603061,0.8645652954557385,0.35616632141059446,5.029357092389876,0.46456528945573844,0.11982979321789287,6.859682707927369,1.457478289216058,1.0128120111965861,9.97630210241954,0.0,-0.0013605356145968217,-3.7706217733925835
0.262,0.19203456064586547,-0.11924912617017208,6.344968299625239,0.2712207283808281,0.11532553144837476,6.0049317065239,0.5424414557882311,0.08825514582982792,6.196685521426386,0.8520345720444893,0.3665452635573614,5.0952995982237095,0.4520345652738166,0.13367017182695987,6.758121475737093,1.442441490193736,1.0324334723604207,9.760798791838432,0.0,-0.00942489704875717,-3.668181126157744
0.264,0.17780412294665235,-0.10705040538875074,6.036818994499467,0.2626824799670605,0.1271418077115453,5.920336648534991,0.525364959934121,0.10045386661124926,6.10937095241942,0.8378041479638382,0.37607640610633514,4.877453208283363,0.4378041142524167,0.1466305309070456,6.609918734965186,1.4253649372445398,1.0511098060781527,9.493797895318178,0.0,-0.01629102158804026,-3.467277017385435
0.266,0.16175694603559485,-0.09602659712007548,5.637926557749705,0.2530541647568084,0.13778532607029959,5.664581970176457,0.5061083295136168,0.11222616088841708,5.905607904885586,0.8217569277271858,0.3859406220379807,4.84172314455933,0.4217569510355948,0.15953674370653456,6.528973080570418,1.4061083648220258,1.0693361380113233,9.054653260747346,0.0,-0.02349867317905166,-3.4034910296267986
0.268,0.14402794656586645,-0.08512649018749244,5.168962308753599,0.24241676255917832,0.14905684015023588,5.386124308356478,0.48483352511835665,0.12428528715338091,5.933903799913875,0.8040279571914487,0.39567538444937705,4.674721190420829,0.40402795119144874,0.17200291682859564,6.110022422375711,1.3848335296206855,1.0868681875645338,8.730349111760736,0.0,-0.03012967208951252,-3.402000427
0.27,0.12469909834474532,-0.07512326376412277,4.956990901145468,0.23081946216927116,0.15906288663406187,5.071653145622955,0.4616389243385423,0.1358214045398304,5.790700449462797,0.7846990937542645,0.40490465738803294,4.697301164467454,0.3846990885594656,0.18354184493801506,5.862132827452048,1.3616388703385423,1.1037853738780605,8.231240407535052,0.0,-0.03666416741801028,-3.1627793590367848
0.272,0.10387576188471118,-0.0659004332574293,4.547593317830051,0.21832545910069978,0.16866751798269483,4.6980358656332495,0.43665091820139956,0.14696233772944267,5.663455788527032,0.763875737117661,0.4137406602403628,4.313969775216135,0.36387576029569446,0.1946837174739229,5.670742803195012,1.3366508666672992,1.11954116397625,7.927214162188806,0.0,-0.04319321148919919,-3.179098101036281
0.274,0.08174293517872544,-0.058260473192649674,4.071559290639835,0.20504576896310495,0.17668874183177238,4.199119712922703,0.4100915379036895,0.1576457634665086,5.433489739587789,0.7417429532553905,0.4221365273320688,4.294853999125192,0.34174294793100146,0.20536809193029046,5.390613002951275,1.3100915725524676,1.1344237851264967,7.2957199354067575,0.0,-0.049299643245880265,-3.1355029017802014
0.276,0.05803649663679582,-0.050929423049610546,3.4263123298872378,0.19082189943510813,0.18402442695733973,3.585982466727142,0.38164379789743286,0.1680615071011384,5.136718169852727,0.7180364744190635,0.4302382858033553,3.944619032838945,0.31803649841906345,0.21616361215817853,5.088682919179389,1.2816437739246493,1.148700525474296,6.97586330772187,0.0,-0.05547000067094068,-2.9379784425918514
0.278,0.03325868506698565,-0.044496955708210974,3.288933243785035,0.1759552072401914,0.19008171353447667,3.2180621512590157,0.35191041445598087,0.17789379831633972,5.005044142918595,0.6932586552866029,0.4374264438064137,3.6554601051653943,0.2932586792866029,0.225248199801715,4.752100317957711,1.2519103928956938,1.161562795583578,6.396077433374721,0.0,-0.06151929353447669,-2.987370470489369
0.28,0.007165070375089478,-0.03859567834313023,2.849194587424373,0.1602990387184443,0.19597702956487456,3.011316152229152,0.32059807646456695,0.18771288436678613,4.776612265010274,0.6671650497625865,0.4448820946642772,3.526660534970371,0.26716507334741113,0.2346652782673835,4.399450446875746,1.2205981116342162,1.173752557473596,5.832140567539307,0.0,-0.06703028016057347,-2.853935574591159
0.282,-0.019920509335677673,-0.03359821009292352,2.592437665016798,0.14404770082822746,0.20174052785811294,2.7698706507176554,0.2880954016564549,0.19655620536418872,4.55070243802323,0.6400794838637501,0.4514165459606862,3.2501967324796284,0.24007949246489452,0.24273765376268763,4.105626361568263,1.1880954093373466,1.1848977707162258,5.369106913869192,0.0,-0.07279473085811293,-2.6972728803684776
0.284,-0.04792732308502024,-0.029002853578232096,1.9940071178555898,0.12724360008502023,0.20671992767619948,2.4765447913460172,0.25448720019838056,0.20537088881730087,4.281206455099031,0.6120726770283401,0.4575483486939258,3.0620061566237298,0.212072672,0.25040061154195226,3.764547047348263,1.1544872643765183,1.1948590138173008,4.920004204022926,0.0,-0.07777780043949421,-2.756846035326164
0.286,-0.0767452448118363,-0.025579389125974947,1.6491042126164028,0.10995285184405201,0.2105234618109194,2.037244660632711,0.21990570466078033,0.21373715068163554,4.228563957349799,0.5832547593794296,0.4628721615584968,2.6762599346780904,0.18325475337942967,0.25686652400259985,3.098940903480737,1.1199057406334567,1.2032252756816355,4.220513234553533,0.0,-0.08272154362160246,-2.3771506755554244
0.288,-0.1063426485138707,-0.02325434034793875,1.1068653262143697,0.09219441416751994,0.21361830265206125,1.534234394120848,0.18438882830682224,0.22147684298468787,3.7156839122822145,0.5536573616395999,0.467900770203298,2.380644824481272,0.1536573564861293,0.26228730195288574,2.7392754861679625,1.0843888612187165,1.210965920984688,3.637273181023086,0.0,-0.08775059695288574,-2.4614801267755007
0.29,-0.136482268087403,-0.021738313580447585,0.5973069724334511,0.07411063820692537,0.2151343294195524,0.9083838816091873,0.14822127544083583,0.22791972111189635,3.383414945968433,0.5235177137491343,0.47169130839128387,1.765554426513781,0.12351773672370149,0.2668353812673734,2.137756778341814,1.0482212366567163,1.2174087991118965,3.219978575938987,0.0,-0.09229867626737338,-2.292631117379034
0.292,-0.16719563760290443,-0.021727377440282684,-0.0312880906844523,0.05568261856398048,0.21552863952579507,0.2422446143261484,0.11136523709939293,0.23413148618692578,3.0358434102759717,0.49280437439709557,0.47480247882897525,1.6432974336586574,0.09280436039709558,0.27072311604911664,1.785330352865371,1.0113652069564338,1.2224646033031803,2.4730090262310953,0.0,-0.09657222648939928,-2.164493561
0.294,-0.198180570059673,-0.02248491955477032,-0.5076804139876325,0.037091656504594825,0.21477015487279152,-0.3716698976837456,0.07418331203628117,0.23943710959187278,2.5335212813445227,0.4618194415068624,0.4778345323639576,1.374946567614841,0.06181942783196085,0.2741339406413428,1.5561794710406363,0.9741833103048096,1.226255141491166,1.755405446024735,0.0,-0.10074059319611307,-2.164493561
0.296,-0.22949221917080154,-0.024033844468861847,-1.0406182625805298,0.018304664829675573,0.21245227210093057,-1.0144163386320688,0.036609329659351146,0.2437155450773085,2.1645245134488187,0.4305077768291985,0.48016820659198284,1.0450396854982105,0.030507774716125955,0.27647004759198285,1.1882270726535433,0.9366093017724236,1.228210168876879,0.9653696762133143,0.0,-0.10462438089906943,-1.8222739994617037
0.298,-0.2609009329851773,-0.026722874829594834,-1.2918218220099824,-0.0005405658427605834,0.20899588822642395,-1.6360605763707574,-0.0010811316855211669,0.24755191662102172,1.6968685085445683,0.39909906301482273,0.4817024622062243,0.707804472739636,-0.0009009430712676391,0.27800430667938936,0.7644675339127421,0.8989188444292661,1.229356558791427,0.3543052287049912,0.0,-0.10807796982959483,-1.6768639400770406
0.3,-0.29213223222502693,-0.02974602626964181,-1.7442686506465062,-0.019279346974757746,0.2052164790407516,-1.917809267400235,-0.03855869392594808,0.2501964693026424,1.4665866685394011,0.3678677637749731,0.4828354391678215,0.4432514821611274,-0.03213224496578538,0.2791382234122138,0.5555300065605402,0.8614412868517766,1.2289779600330006,-0.30888287137674686,0.0,-0.11110112126964182,-1.442373362213036
0.302,-0.32350580194625833,-0.0339688182734562,-2.232539922973193,-0.038103482238083894,0.20098597853386788,-2.2908498039309477,-0.07620696350321735,0.25251154880636667,1.029015167612853,0.33649419405374165,0.482848406,-0.10950184144626623,-0.06350580394625834,0.27991217406390617,0.3926150303848731,0.823793048712345,1.2270702475329105,-1.0542857544652946,0.0,-0.1138000735309957,-1.2761333988472954
0.304,-0.3545059079848539,-0.03894346176211454,-2.568949358647577,-0.05670354834836017,0.1956303974140969,-2.5122703518502205,-0.11340709667012522,0.25404984851101325,0.6137180827973568,0.3054940880151461,0.48208840754185023,-0.3949984575242291,-0.09450591019761478,0.279917955,-0.1258685576519824,0.7865928875160406,1.2243939022070485,-1.5142337951277534,0.0,-0.11610220056387666,-1.3248012563876652
0.306,-0.3851579399203277,-0.04469628748150358,-2.9504254457613364,-0.07509476605461886,0.18987418551849644,-2.7800227936497612,-0.15018953113619093,0.2544437713120525,0.24365175983114556,0.2748420561066255,0.48055909215155135,-0.7533030519916468,-0.1251579498933745,0.27953755168794747,-0.25007588447374707,0.749810459486464,1.2205643146789975,-1.9858165508758951,0.0,-0.11840679707279236,-1.0088060620304296
0.308,-0.41519471959712745,-0.05155883080405646,-3.2848211534035108,-0.0931168375443447,0.18376960701530068,-3.2146282597702527,-0.18623367511190903,0.25406823353659114,-0.15512991334242673,0.2448052770545781,0.47827517932700747,-1.1899678869792432,-0.15519472859712746,0.278398101717234,-0.49205683382528764,0.7137663018648713,1.215232576834658,-2.7801010629548095,0.0,-0.11993964174617483,-0.8496512190519511
0.31,-0.44484342723098963,-0.05926721224712092,-3.8757119253585652,-0.11090606147355855,0.176449921856286,-3.4883086384275432,-0.2218121239200191,0.2533007252519194,-0.3833504091839011,0.21515655476901038,0.47519729841890596,-1.5729860066235604,-0.1848434362580876,0.276859155209453,-0.9241375187600768,0.6781878528929212,1.2090670718378118,-3.2589605711884597,0.0,-0.12110260626931382,-0.5808505931056862
0.312,-0.4736871691012281,-0.06702196016901073,-4.196734722762574,-0.12821230425503755,0.16908600055148987,-3.7630421936760428,-0.2564246085100751,0.25175456899749704,-0.7090980493030989,0.18631281372516992,0.47094245455649586,-2.103760506440882,-0.21368717867378084,0.2745372072769964,-1.2958401931353993,0.6435753974899249,1.2009381108344457,-4.09513042577211,0.0,-0.12226393628200238,-0.7258532810228844
0.314,-0.5016505141466555,-0.07622903101335878,-4.563108731076336,-0.14499031100786933,0.16103098067080154,-4.062520695505606,-0.28998062198712293,0.24983347577624043,-1.109264246750358,0.15834949645272448,0.46672344487154105,-2.1919937787938935,-0.24165050954727554,0.27146530080248094,-1.6183279658203722,0.6100193831544056,1.1917310440589217,-4.600076444056179,0.0,-0.12302804,-0.36726032412428433
0.316,-0.5286608621272143,-0.08621080526733262,-5.005264605227613,-0.1611965172489597,0.15258551704197884,-4.187937316921275,-0.32239303352669124,0.24675983490200973,-1.4680137556271853,0.13133913464261085,0.46250191798132956,-2.2027682793137116,-0.2686608711559862,0.2672384472154834,-2.127383478118088,0.5776069424733088,1.1817458439668214,-5.196957196272685,0.0,-0.12302658107931978,0.01833732600011892
0.318,-0.5545451290291586,-0.09654519045293837,-5.285434122827043,-0.17672708321749522,0.14378195296703297,-4.434120779532728,-0.3534541664086998,0.24293230376636407,-1.8929555451533684,0.10545485997084131,0.45829081885953177,-2.2366932274132822,-0.29454513900286805,0.26187994432154804,-2.799949206564262,0.5465458095913002,1.1702635041270903,-5.687242408882465,0.0,-0.12264356260630674,0.22532685120401336
0.32,-0.5793852539222527,-0.10769313383649877,-5.6159766818109,-0.19163115866198355,0.13417260689182495,-4.702161387336085,-0.383262316352542,0.23908343313047067,-2.2647690243352603,0.0806147345634004,0.4532925131304707,-2.574093182782824,-0.31938526377949755,0.2557255497844756,-3.2771530305573906,0.5167376605047029,1.1575782265995047,-6.2570468921891,0.0,-0.12187062027167629,0.4054674483071841
0.322,-0.6028831276646778,-0.11946105420750265,-6.041815148262357,-0.20572989978162293,0.12430261637466085,-4.862619988279817,-0.41145979956324585,0.23376904072041996,-2.6380562554244427,0.057116843747016706,0.4479781207204199,-2.7719120294653767,-0.3428831658412888,0.2481319421761236,-3.817754439091306,0.48854020643675417,1.144290829429633,-6.6025494118805,0.0,-0.11997269041783651,0.9641893214846053
0.324,-0.6250711041387537,-0.13262785380872325,-6.242410194726428,-0.21904267054991097,0.11384033880507877,-5.109342233305078,-0.43808534109982195,0.22757126720232776,-3.133391924170233,0.03492888273697329,0.441780346205502,-3.0885238964234656,-0.3650711122912759,0.23960934258852573,-4.231808906176816,0.461914664900178,1.129952602672584,-7.150814072774042,0.0,-0.11803274942805078,1.1598298478377616
0.326,-0.6457214824575663,-0.14511280130425583,-6.462127962245239,-0.2314328856447526,0.10362589398307077,-5.373544561983071,-0.4628657712895052,0.22076163699224077,-3.545135593099224,0.014278534735596461,0.43497071698166,-3.3563981582551143,-0.38572146145756636,0.23052920970491417,-4.618569513743946,0.4371342339861344,1.1148199877580531,-7.570987010086528,0.0,-0.11538320123983072,1.4412481235407946
0.328,-0.6649819990202622,-0.15859726188247275,-6.786115058590272,-0.24298917876996426,0.09283684520222835,-5.423439586671499,-0.4859783575399285,0.2130603921428058,-4.0835821420797895,-0.004981974932061979,0.4280318158767222,-3.5519480337133102,-0.4049819788247914,0.22051562245010184,-5.0945458131242365,0.4140216184600715,1.0982567956851563,-8.210867501507009,0.0,-0.11192232769533965,1.5307422146918654
0.33,-0.6825892943255397,-0.17275060286014982,-7.093677474439173,-0.25355357667947037,0.08136151772779165,-5.669424416643239,-0.5071071533589407,0.20426527731573313,-4.3312333623003925,-0.0225893036713587,0.4203827510863361,-3.7543428781794503,-0.42258930335214123,0.2098051721323582,-5.484702076254013,0.3928928234391029,1.0810420701776668,-8.690955153545131,0.0,-0.10847850183553336,1.7612766179639672
0.332,-0.6985407865215947,-0.18696065245733381,-7.137119085861678,-0.26312448859349785,0.06984013349695668,-5.712458725634205,-0.5262489771598244,0.1950518809670605,-4.650833660988066,-0.038540807326056005,0.4123208324196205,-3.939343218552572,-0.43854079570645466,0.19752872452858336,-6.093968810816326,0.37375102802503557,1.062996274570832,-9.065201267118033,0.0,-0.1050221820773362,1.8056035463803557
0.334,-0.7126978133367714,-0.20109075261480955,-7.3953348620280055,-0.27161866513528427,0.058382634065147744,-5.841169313982081,-0.5432373292933557,0.18512739145520352,-4.9776807725409995,-0.05269779140513313,0.4043011479569242,-4.124661522882046,-0.4526977933367714,0.18530695584917525,-6.368258773536727,0.35676264807387864,1.0439097901222263,-9.464821413501246,0.0,-0.10120540400391598,1.8179709094857006
0.336,-0.7251922640285715,-0.2166546713224134,-7.503790826912562,-0.27911535857142855,0.04631299865189724,-5.893512420165213,-0.5582307171428571,0.1742265000544426,-5.593110046353052,-0.06519224631428572,0.3953527051140702,-4.366942750624558,-0.4651922457142857,0.17168629436035823,-6.819206394723309,0.34176931714285713,1.0244334927289653,-9.843302355123733,0.0,-0.09730964970091917,1.9326701666714587
0.338,-0.7357674219912992,-0.23106496059509782,-7.5475355066463585,-0.28546045778140644,0.03455755898833373,-6.022938217633161,-0.5709209155628129,0.16247011729566346,-5.771108465220363,-0.07576744654469607,0.38662922364329483,-4.517790242168866,-0.47576745935363524,0.15765499986177234,-7.006256379499528,0.32907906043718715,1.004713504238039,-10.086466203717416,0.0,-0.09313787888875796,2.362578541979849
0.34,-0.7444770368576539,-0.24639325651793162,-7.561492824636364,-0.2906861980393419,0.022293161785654714,-6.019946317331109,-0.5813723961057463,0.1505868383561301,-6.118702639352794,-0.08447701029065333,0.3774325931326105,-4.670278092901585,-0.4844770158847163,0.1423296404820684,-7.496461558486239,0.3186275798942537,0.984018715972477,-10.363747860356964,0.0,-0.08778020349040867,2.760849981784821
0.342,-0.7512770372941175,-0.26208365568716546,-7.741290046604377,-0.294766211122172,0.01004357943951469,-6.095651533104198,-0.5895324232171946,0.137581732422624,-6.53050382868895,-0.09127702729864252,0.3678660495738076,-4.848209848705245,-0.4912770188959276,0.12739702532615677,-7.724042188055549,0.3104675544117647,0.9629686560651838,-10.396262208241465,0.0,-0.08166181472499108,3.0072703728988937
0.344,-0.7561344726646406,-0.27710132619373357,-7.797721684868572,-0.29768071277761887,-0.0018895346157617801,-6.045464410166827,-0.5953614255291383,0.12411637809160488,-6.82081730447644,-0.09613449827314981,0.35786394788926096,-4.890980559326835,-0.4961345108816589,0.11124657595120784,-8.236883667332576,0.30463860968787987,0.9418026378682134,-10.520186960861755,0.0,-0.07512391372028224,3.4203461367365464
0.346,-0.7590387256142858,-0.292612923843467,-7.720419046141009,-0.2994232416771429,-0.013998821815006468,-6.063830054151358,-0.5988464823799999,0.11011774772315652,-7.070377942811126,-0.09903873661428572,0.34839953843725746,-4.986916032592497,-0.49903873464000004,0.0945993369573092,-8.35569566280207,0.30115352439142856,0.9209863521591203,-10.510934066958603,0.0,-0.06831465543596377,3.3591042944113845
0.348,-0.75997582510454,-0.30796201998164047,-7.597755380959228,-0.2999855127688172,-0.02627251746256557,-6.053377521164878,-0.5999710255131422,0.09555115012398664,-7.390557457213877,-0.09997583610454003,0.3380602104946352,-5.129381275951359,-0.4999758350800478,0.0773476540611588,-8.54638090905019,0.3000290097520908,0.8995162887870768,-10.664308919072365,0.0,-0.06103487701371006,3.6296696546250597
0.35,-0.7589348980422519,-0.3235025915966183,-7.592149633177053,-0.29936094545703407,-0.03832376960205314,-6.03416667347669,-0.5987218899406094,0.08040779647862319,-7.553467616392753,-0.09893490944037135,0.3279503653638889,-5.005233353241667,-0.49893490783849087,0.0602450049437198,-8.589743977722584,0.3012781168556296,0.8777585352762077,-10.614910650654831,0.0,-0.053652854496497586,3.968444498823913
0.352,-0.755934024774525,-0.3382082521443104,-7.598218708434824,-0.29756044360580713,-0.04993079341802697,-5.985657463337355,-0.5951208872367069,0.06493840093281288,-7.772675893885261,-0.0959340498460987,0.31827714529335227,-5.013295125610599,-0.4959340622940614,0.04245868453867992,-8.673992157,0.30487914725773685,0.8572492757208422,-10.461869803302578,0.0,-0.04591956753347528,4.016961441920748
0.354,-0.7509555711241049,-0.3534348924542228,-7.557336740803052,-0.29457332994510743,-0.06173167533215047,-5.924696015373314,-0.5891466608627686,0.04933038461639461,-7.922276449614265,-0.09095555968496419,0.30837935575940384,-4.777084419266147,-0.4909555510966587,0.026089810531582682,-8.673992157,0.3108533151372315,0.8363133552934705,-10.372230412968772,0.0,-0.037545388695528745,4.118409286496451
0.356,-0.7440429235690951,-0.36894027052890005,-7.344857456944227,-0.2904257305870991,-0.07336508251602908,-5.835335134320344,-0.5808514611741982,0.03305059658908355,-7.978934060491598,-0.08404289807308932,0.29829821825539266,-5.071339930718747,-0.4840429042717301,0.008649050862829221,-8.557731317051484,0.31914851482580187,0.8157572283307114,-10.102540472976045,0.0,-0.02939864943141461,4.161833374659635
0.358,-0.7352258518596803,-0.38312969352009846,-7.321999584855854,-0.2851355163623446,-0.08410319956896754,-5.45031873808555,-0.5702710327246892,0.017709039739716395,-7.7942861700148836,-0.07522587658081706,0.28832758372588774,-5.072646848179304,-0.47522588918294845,-0.008226085555138872,-8.470837227523496,0.3297289449804618,0.7958150094517755,-9.965226961384857,0.0,-0.020962249369858195,4.141863207587601
0.36,-0.7246150306459606,-0.3970829766964725,-6.816508977736669,-0.2787690178750449,-0.09466097158818704,-5.261231307839212,-0.5575380357281867,0.0018714439220672667,-7.8854840595857265,-0.06461501158025135,0.27852353636997534,-5.003649153717801,-0.4646150106459605,-0.024817406036095162,-8.403339483027072,0.34246199895763013,0.7762069147399507,-9.823029838161608,0.0,-0.013043451461033634,4.077361612849057
0.362,-0.7120442363918128,-0.41016140168306664,-6.444657172042513,-0.2712265195020886,-0.10579720408000956,-5.431606279998567,-0.5424530380300752,-0.014265464673035586,-7.676407844994268,-0.05204421553132832,0.26891340183281587,-4.787175757493671,-0.4520442171687552,-0.04172224004107953,-8.138665657185095,0.35754693874686716,0.756985703513733,-9.522635019161452,0.0,-0.0045968520554096025,4.1517967211060425
0.364,-0.6977225056764392,-0.42261583287336346,-6.045805249261384,-0.2626335207154896,-0.11630882155265902,-5.3227170762239595,-0.5252670414309792,-0.029448768724249796,-7.598513454100452,-0.03772252732617211,0.25918932877302747,-4.735564120147144,-0.43772251564949555,-0.058449155038466,-8.041889922882401,0.3747329637607122,0.7386922703086548,-9.201650409397404,0.0,0.003959154899779863,4.219839297743946
0.366,-0.681764509837104,-0.43342723793280036,-5.670623082529371,-0.2530587050316742,-0.12637413291449426,-5.137734075806859,-0.5061174100633484,-0.04361527757096512,-7.485809769992005,-0.0217645180678733,0.25024176724643726,-4.688110718165913,-0.421764518158371,-0.07299010047329393,-7.798687529772911,0.39388256593665155,0.7219158242314911,-8.513564959353609,0.0,0.011788965619279342,4.1916638405301825
0.368,-0.6640896506425051,-0.44402754991647364,-5.091050012234484,-0.2424537695727852,-0.13619210783355687,-4.766954417213633,-0.4849075391455704,-0.0592688110741373,-7.3272667819439095,-0.004089625816564491,0.2404553892858188,-4.623047040559566,-0.4040896296425051,-0.08903626378953786,-7.5718957595642,0.4150924375071523,0.7050436387745397,-8.217191606585782,0.0,0.02040045391074259,4.029972646116938
0.37,-0.6446373825606964,-0.4534073232898032,-4.626016127263685,-0.2307824264881946,-0.1455679463194991,-4.634007896152415,-0.4615648529763892,-0.07371921428050089,-7.174444466564222,0.015362633515144287,0.23185246299141324,-4.277587392042219,-0.3846373624550441,-0.1042804967001789,-7.633401133002147,0.4384351530236108,0.6890339146107335,-7.750480130965653,0.0,0.02860367547584973,4.139022795792486
0.372,-0.6238142167427856,-0.4622246397618306,-4.3049642705205455,-0.21828853890424516,-0.15437890203186774,-4.4000325629631005,-0.4365770778084903,-0.08677508144087696,-6.857092226553732,0.03618576880467446,0.22341873096813228,-4.141657753257458,-0.36381422664786545,-0.11923805485971008,-7.521027319796693,0.46342292819150965,0.6744536070991973,-7.377192496206542,0.0,0.036285556761830595,4.026943984060741
0.374,-0.6015546879289715,-0.470304787737841,-3.846684741895611,-0.20493283581432487,-0.16208836916963226,-4.0814161623879,-0.40986567159814086,-0.10025137710320285,-6.551994897633452,0.0584452836201883,0.2157165583689205,-3.789289612653618,-0.3415547260137052,-0.13347942153499406,-7.0213461408837485,0.4901343334865928,0.6602141023772241,-6.988427520864769,0.0,0.04438753403321471,3.87900354517675
0.376,-0.5779674646055253,-0.4775391275312211,-3.479573479982424,-0.19078048456331514,-0.16971451583880667,-3.8257159089555968,-0.38156096815662793,-0.11283243798034227,-6.205023060389222,0.08203252439447474,0.20847791034574467,-3.5353051653200738,-0.31796747363552286,-0.1464313649051804,-6.453387806954903,0.518439007843372,0.6472507619102683,-6.451158961541628,0.0,0.05277111293108233,4.159844307185708
0.378,-0.553247011311828,-0.48349315140760873,-3.028111125826087,-0.17594821243799283,-0.17678515170108697,-3.5580345750869564,-0.351896424851135,-0.12436766704891304,-5.929705847831522,0.1067529778869773,0.202151064875,-3.3576798434565216,-0.29324702128697727,-0.15759562420652173,-5.664440672994565,0.548103551148865,0.6353427122173912,-6.013610301293478,0.0,0.060213643989130435,3.905249616396739
0.38,-0.5271818906417163,-0.48935109299858254,-2.6600758676813134,-0.16030913426078666,-0.1834310179981101,-3.300527099843846,-0.3206182675486293,-0.13607955227167493,-5.449823894306403,0.13281810673706793,0.19628481817694307,-3.032525351173872,-0.26718189926293207,-0.1677640459976376,-4.7272238716357196,0.5793817092630512,0.6236247892778172,-5.5912829723021495,0.0,0.06801661834916134,3.7175944229520437
0.382,-0.5001251282664438,-0.49391206651240255,-2.307814134038507,-0.14407507956523816,-0.18951231601653673,-3.0620487566163477,-0.2881501591304763,-0.14558134412284432,-5.037393595068981,0.1598748819546377,0.19058430920174818,-2.8178430614786203,-0.2401251236693327,-0.17536566852067093,-3.9047821866874557,0.6118498468695237,0.6133623625690999,-5.0264573876061895,0.0,0.07485949544483818,3.4379038521696197
0.384,-0.472082914978746,-0.49779490507869834,-1.8324752020511192,-0.1272497518544102,-0.1949463776153935,-2.738629916468382,-0.2544995037368048,-0.15527318822974845,-4.676467211217747,0.187917067021254,0.18592215188379874,-2.179246119952227,-0.2120829249507616,-0.18234796315370413,-3.2156724352029773,0.6455005014236628,0.6040495878352181,-4.486322648309139,0.0,0.08183647565555043,3.2595026487648284
0.386,-0.44350766318332735,-0.5007653798666052,-1.5060700591288945,-0.11010460312125586,-0.19940208882933302,-2.3106969384157625,-0.22020920722374593,-0.16344245462670204,-4.299549228368452,0.2164923190981595,0.18183751820136165,-1.994626222529656,-0.1835076721833273,-0.1875467557306716,-2.5983047683582967,0.6797907687950199,0.5966243242617124,-3.991839220181283,0.0,0.08740634673194092,3.045344158650819
0.388,-0.41367381341889314,-0.5027750296557592,-0.8745775377329843,-0.0922042937461832,-0.2037611209659686,-2.020310920858639,-0.18440858746469466,-0.17098732063481675,-3.7045492705353404,0.2463261835534351,0.17748781167670158,-2.045485171566754,-0.15367382244656488,-0.1919293287185864,-1.9533831910628274,0.7155913899227099,0.5894860070209424,-3.242272229311518,0.0,0.09295234117670158,2.5747351119463353
0.39,-0.3834787057646357,-0.5039240601251785,-0.4709337353698239,-0.07408722550399427,-0.20720821137601142,-1.6956008405968588,-0.14817445003624657,-0.17749690613279392,-3.21103929889624,0.27652129023536426,0.17327628711756307,-2.056147260157544,-0.12347871553857159,-0.19537546782960494,-1.545169923158972,0.7518255407659473,0.5841254519923846,-2.570855801341266,0.0,0.09793020348119943,2.4041417054740597
0.392,-0.3528114302226721,-0.5039221590259925,0.025121139846999055,-0.055686861659919026,-0.20951229396857277,-1.2448172499234404,-0.11137372329149797,-0.18326916471431948,-2.89857752673724,0.3071885657773279,0.16904203425968808,-2.245576765948724,-0.09281143222267206,-0.19768199993620036,-1.0777492388382561,0.7886262615303644,0.5798921441904537,-1.996726396869329,0.0,0.1025481987403119,2.0374426599619566
0.394,-0.32181226719852063,-0.5031612537315691,0.4818608187164461,-0.03708736150489144,-0.2098922748336484,-0.47722372613610586,-0.0741747220371033,-0.18783175984120984,-2.4164302340226844,0.33818772880147935,0.16524034442722116,-1.8372325432022685,-0.061812269499045565,-0.19882288411342156,-0.5106074258431001,0.8258252900613219,0.5768504141058601,-1.4062923796767488,0.0,0.10634988857277883,1.9134293039565218
0.396,-0.29051546100011927,-0.5016182698889684,0.8909339858825215,-0.018309284349630337,-0.20950809441129417,0.27131608141248803,-0.036618568699260674,-0.19169830861485196,-1.7948737499958214,0.36948453499988076,0.16176212288741643,-1.565989446966452,-0.030515473916050563,-0.1984448434776743,0.18288157344412606,0.8633814111886478,0.5749139809567813,-0.8776595345415472,0.0,0.10944473311258357,1.4623433577565663
0.398,-0.2591100339580753,-0.4989263033688805,1.2581622359979945,0.0005339736931872321,-0.2075849951006252,0.8589208651068775,0.0010679473863744642,-0.19476930424772915,-1.4701671344568834,0.40088996204192473,0.15907486175227084,-1.3410888686438598,0.0008899561553120534,-0.19767244575227083,0.5286309131423852,0.9010679232729871,0.5741507687286775,-0.2615939347361095,0.0,0.11213199424772916,1.3098037484347058
0.4,-0.22774395200011915,-0.4955098408126696,1.7685628694663207,0.019353625260486177,-0.20492732783697062,1.3044200352066768,0.038707250493446144,-0.19666723410156894,-0.9156714825258936,0.4322560444403003,0.15717693189843104,-1.037567312695411,0.0322560421099857,-0.19577451589843106,0.9907103078912352,0.9387072232366539,0.574909563031615,0.31162619775533795,0.0,0.11402992410156895,0.7586320692710865
0.402,-0.19649419405374166,-0.4912992150610032,2.2037465664129634,0.038103482238083894,-0.20148294318432025,1.5694650067061837,0.07620696350321735,-0.19744284050768499,-0.21768476145931126,0.46350581794625834,0.15526037580733942,-0.7855601329573454,0.06350580394625834,-0.19347764225366376,1.2332934430084594,0.9762069616917303,0.5764373836310019,0.9794773435698796,0.0,0.11480553050768497,0.41245901888919334
0.404,-0.1654905297929883,-0.4863321253844508,2.604234521090585,0.056705683265442404,-0.1980400191733238,1.8624962798330955,0.11341136650417362,-0.197448969,0.21661976628174037,0.49450948137896494,0.15410629646005705,-0.7503400853630527,0.09450946839398998,-0.19042318242225392,1.6382763867582026,1.013411335290484,0.579106447328816,1.5143764298573468,0.0,0.1151909342489301,0.017214651581312412
0.406,-0.13484264626433082,-0.4801857150908004,3.123552378782031,0.07509441135990942,-0.19343234427264028,2.0715908968910157,0.15018882174675247,-0.19630628406998446,0.5678353108113412,0.5251573355436777,0.1525707167727001,-0.4636905678010528,0.12515735873566916,-0.18658266095083145,2.019810330952147,1.0501887847398403,0.5833243923919129,2.1447932517587036,0.0,0.11481445670271563,-0.18546525016233997
0.408,-0.10470330942064532,-0.47328231194991055,3.5592614662908764,0.09317801761959757,-0.1888266511427549,2.4181931991205725,0.18635603526586497,-0.19477385304758496,0.9031920229381037,0.5552967013926657,0.152559519,-0.03117465894132382,0.15529669539266577,-0.1823624014805009,2.263552283612164,1.0863560702925348,0.5886897700908765,2.9138181488300536,0.0,0.11404916976636852,-0.3975831316375671
0.41,-0.07520453633729499,-0.46565049440738104,3.989180912607571,0.11087727667554076,-0.18348575713611012,2.7063325281486885,0.22175455432564772,-0.1924872050259879,1.2470400777811794,0.5847954675609698,0.1533176291611487,0.33385754754289787,0.18479546158640361,-0.1770241071361101,2.6544478384296903,1.121754591063228,0.5951739913508959,3.412696950680313,0.0,0.1125267874324196,-0.7354637579747241
0.412,-0.046480750065932754,-0.4572246061860853,4.262391207594472,0.1281115440528898,-0.17736122306742913,3.0578315500397903,0.2562230881057796,-0.1890504904807005,1.7303331528766976,0.6135192497765946,0.15446350768012868,0.7058281452426733,0.21351924509154002,-0.17127833712044319,2.860893490130212,1.156223151778509,0.6028275006657136,3.872397658728139,0.0,0.11061472621384322,-1.0769877799768883
0.414,-0.018412779216409887,-0.4479811982508986,4.576294476669063,0.1449523389916398,-0.17004909097963097,3.3701016255494847,0.2899046779570047,-0.18481826868607718,2.1034800418504673,0.641587213415741,0.1563818690989696,1.2164174702782171,0.24158722280986505,-0.16435247809561465,3.5694832008811406,1.1899046847452528,0.611680947003355,4.496775522489337,0.0,0.10792476603930026,-1.2765747146091542
0.416,0.008641584909589694,-0.43753711435831943,5.114849541104321,0.16118494714575382,-0.1626931504843638,3.706473854420148,0.3223698933195372,-0.18017319261255668,2.470982355017427,0.6686415636573234,0.15946989085509666,1.5663998732072095,0.2686415876573235,-0.1569974308049654,3.693262085973741,1.222369927665792,0.621738861370733,5.008533889252567,0.0,0.10483058751515875,-1.6046943790993078
0.418,0.03460259794517283,-0.427162691870591,5.483185429889776,0.1767615551215733,-0.15462295541515728,4.1092725001435895,0.35352311021454114,-0.17440722595972355,3.0092834436179694,0.6946025681740167,0.16216292284532888,1.5968901007489276,0.2946025921740167,-0.14854600724034794,4.317004661359986,1.2535230871859357,0.6324981172478551,5.678260268602479,0.0,0.10175727568315061,-1.7025822767799093
0.42,0.059383495536370144,-0.4156567668999049,5.882002108232762,0.1916300991042213,-0.14541954250071326,4.349004668232287,0.38326019723694255,-0.1675027702505944,3.333735446167618,0.7193834747048653,0.16599957424964337,2.047798839371612,0.3193834978498688,-0.1397222766000951,4.604292558680219,1.2832601749469355,0.6443894140038041,6.140427696856396,0.0,0.0983029136493105,-1.829099138160723
0.422,0.08291040825603807,-0.403799163086052,6.014419376483215,0.2057462527758477,-0.13623886896713946,4.630196467664066,0.4114925055516954,-0.1598522695822695,3.8078098985858153,0.7429104259657346,0.17059000176217493,2.306470281109456,0.3429104208259369,-0.12977712833427896,5.059183360994327,1.3114925389710885,0.6570116748125295,6.499526058851064,0.0,0.09409572009621749,-1.9281462571666668
0.424,0.10504150931759657,-0.39124538553120564,6.333681576329078,0.2190249074281116,-0.12634810013368797,4.9377777435897166,0.4380498148562232,-0.15186418941170213,4.120113853289362,0.7650414839077253,0.17591601920496455,2.6000102392237587,0.36504150710300426,-0.11950619996737588,5.292200395695744,1.3380497608562232,0.6707059309677305,6.911693782138298,0.0,0.08915080818049646,-2.63173658075
0.426,0.12577539778275904,-0.3781946077472855,6.457493152612576,0.23146524163252655,-0.11560369265099629,5.299221718438969,0.4629304832650531,-0.14342084561114427,4.283856311527383,0.785775394186956,0.18167146678749552,3.0189947698296145,0.385775388186956,-0.10761595867092232,5.65009620213984,1.362930430881841,0.6860515032128625,7.408301546892376,0.0,0.08301696151485503,-3.122258584969693
0.428,0.14498357777738263,-0.3651920877549323,6.6078816974406935,0.24299014114177336,-0.10489628752507725,5.529097021875922,0.4859802822835467,-0.13386843527442358,4.5997488002422156,0.804983587970128,0.18816713912253386,3.2742396683960067,0.40498358277738267,-0.09614040555645353,6.086109039385667,1.3859802890908013,0.7013482008794866,7.674075074223318,0.0,0.07651849187746612,-3.242090342353102
0.43,0.1625083092849964,-0.35168362312772655,6.795630570856993,0.2535049829691314,-0.09326884156584626,5.719697308402659,0.5070099659382628,-0.12448135412294413,4.9464470134375365,0.8225082912541277,0.19492183238936195,3.5650189228473113,0.42250831398348887,-0.0837625053278899,6.265002957711769,1.4070100006460877,0.7171098562726,8.10297323101283,0.0,0.07013505672961623,-3.252171073811501
0.432,0.17851111849462364,-0.3373009488193923,6.9096601902812,0.26310667712544805,-0.08120883199491588,5.925729393316669,0.5262133542258065,-0.11362417071214138,5.339079530133398,0.8385111441182795,0.20267775824621714,3.8413004830654884,0.4385111098458781,-0.07054723790715409,6.47460067652766,1.4262133317311827,0.7345807318517129,8.330984347368116,0.0,0.06314370184396563,-3.237467671585401
0.434,0.19275437950220736,-0.32282689481316323,7.185136635326815,0.2716526199406992,-0.06908055084094432,6.09597074959938,0.5433052389087221,-0.1030548321865983,5.338365943647669,0.8527543905022075,0.21050299243996662,4.011500899942291,0.45275438450220734,-0.05724606982818648,6.760754919715631,1.443305271629877,0.7518015667342316,8.790262638149517,0.0,0.0564847230664123,-3.3707516807959936
0.436,0.20518776321237678,-0.30862912370613405,7.372398371255707,0.2791126720829077,-0.05641664538873039,6.328432508621256,0.5582253441658154,-0.0919247775417261,5.807340155552782,0.8651877742123768,0.21856245702032812,4.305351230276035,0.46518776821237673,-0.043814273781383736,6.869136405940085,1.4582252618548521,0.7698358967343081,9.125572060094152,0.0,0.04881160004386591,-3.7224654767899428
0.438,0.21574469498177676,-0.2940938006134094,7.373919896820613,0.2854468021421892,-0.043411406373038516,6.468021059625535,0.5708936042843784,-0.07968410592261056,5.832295075778174,0.8757447059817768,0.22736067828281026,4.312958857103424,0.47574469998177676,-0.02966123388837375,6.984776146008559,1.4708935817662152,0.7878136711808131,9.27407484741512,0.0,0.04154441413659059,-3.7331161557442942
0.44,0.22449904249922517,-0.27850853004473,7.502962130539853,0.2906994167722017,-0.030147085989769215,6.489872425839876,0.5813988335746811,-0.0671995831015941,6.15386948669831,0.884499053045059,0.23672297967380443,4.558020891868665,0.48449904704505903,-0.015604192877468474,7.089719837617416,1.4813988695746811,0.8077169425712587,9.83902303668927,0.0,0.03336473249440875,-3.9335486816547705
0.442,0.23129165617385092,-0.2643226132892425,7.553624307063405,0.29477498778030486,-0.01712178902232249,6.6485167149558295,0.5895499765304835,-0.05493940476038946,6.328863426991214,0.8912916526257443,0.245926457573498,4.617342653677512,0.4912916466257442,-0.001064436472809309,7.24495154893422,1.48955001072291,0.8276263125974829,10.18413996126217,0.0,0.026086054912134886,-3.874632596429114
0.444,0.23614340524027677,-0.24866331801075656,7.529206826086291,0.2976860523753281,-0.003367932123580734,6.729840512355205,0.5953721047215461,-0.041951231106131234,6.35238951954691,0.896143415366977,0.2562444386507709,4.9820705079138285,0.49614341024027675,0.013079487997968209,7.089567208780806,1.4953720807215463,0.8478885394405402,10.34886372283901,0.0,0.018443284583602247,-3.847982924744233
0.446,0.23904269742388343,-0.23367138681642735,7.496792302047674,0.2994256223933183,0.010091181349454336,6.817628929872602,0.5988512438163724,-0.02926050490695003,6.417054208117748,0.8990426784238834,0.26663304031924184,5.3378533919027,0.49904270242388343,0.027682330914417002,7.321815313470764,1.4988512198163724,0.8690410727695578,10.45540897409466,0.0,0.010755684967375072,-3.8874904890673174
0.448,0.23997664964531548,-0.2192549702415853,7.557075123596209,0.2999860045174474,0.023398429702814475,6.901087555488685,0.5999720090112333,-0.016693006848363008,6.603493537340035,0.8999766306453155,0.2773534574165422,5.414313329522917,0.4999766546453155,0.04135899623090178,7.18948716785606,1.4999719850112332,0.8901106534096496,10.703601437680184,0.0,0.003361849420907524,-3.906604554694888
0.45,0.23893598782072428,-0.20368644844868533,7.4934993222391855,0.29936159644424526,0.03779838978286684,6.884164980495335,0.5987231919146647,-0.003070519873621714,6.690377932128074,0.8989359696059519,0.28826686838592025,5.534200168680238,0.49893599282072426,0.05614815307803223,6.968370659246819,1.4987231679146646,0.9123084830585241,10.652204227601358,0.0,-0.004807095562340966,-3.6423062587523325
0.452,0.2359170805533484,-0.18942223649191905,7.354665848811205,0.29755025728095635,0.05090657668238956,6.698469730853346,0.5951005145904603,0.010412942290075422,6.685002160402131,0.8959170911251338,0.2990542000336406,5.442521051755776,0.49591708512513377,0.07002503290302886,7.007533060734347,1.4951004923033189,0.9331219068492758,10.578168379358313,0.0,-0.011751092948880642,-3.6476387779855144
0.454,0.2309619285613951,-0.17478245641770335,7.296062651548804,0.2945771506731964,0.06439112720334927,6.746981288375119,0.5891543023198758,0.023899099203349282,6.738634519650001,0.8909619249591496,0.3098421483901914,5.341502086540909,0.49096191895914953,0.08427974186555023,7.022959732443541,1.4891543383198758,0.9535452263461723,10.40999967852201,0.0,-0.019070699763875598,-3.641551167204306
0.456,0.22404238920678166,-0.16054178508002834,7.136331593144712,0.2904254245477692,0.07747677797060906,6.518063856119924,0.5808508490955384,0.03698755560965534,6.509296153868272,0.8840424002067817,0.32100621051203965,5.6874607619362605,0.4840423942067817,0.09813712542917846,7.002100699361426,1.4808508833894112,0.9750969488150378,10.364774772665722,0.0,-0.0263817508950661,-3.573425308175047
0.458,0.21524703085903082,-0.14686855499220963,6.844749329204202,0.28514820430837007,0.09001033608250708,6.420348559020774,0.5702964086167401,0.05028026534478282,6.537093950225213,0.8752470418590309,0.33240104118909347,5.595301247528329,0.47524703585903083,0.11180941097592069,6.7241189596078845,1.470296383030837,0.9952267458646128,10.181064764926345,0.0,-0.03283831785682247,-3.302997317862016
0.46,0.20457422435146047,-0.1338704136819855,6.622373538229664,0.27874454902184753,0.10262082468329177,6.270190144211376,0.5574890980185229,0.06289649406388789,6.502226526919843,0.8645742353514605,0.34348536125590784,5.529768423268614,0.4645742293514604,0.12518705259232868,6.630223423121957,1.457489017039183,1.015100591555991,10.004081632286901,0.0,-0.039334514973756084,-3.2997781279374183
0.462,0.19211051415590308,-0.12126996355900979,6.344414616978814,0.27126630040802197,0.11411785070915371,6.094397620202994,0.5425325998372925,0.07512655984905008,6.357741412543235,0.852110525474633,0.35386644289395514,5.421157542554174,0.45211051885842185,0.13779228448036845,6.5154966016255615,1.4425326345623732,1.0340060427448474,9.76888279876949,0.0,-0.045634735220495104,-3.2574585461653425
0.464,0.17779145609291244,-0.10857755928658536,6.098006248268292,0.2626748798475283,0.12639265436585367,5.928268432554878,0.5253497596950566,0.08743508836585366,6.1191397174817075,0.8377914810744491,0.36498866404268293,5.538894094878049,0.4377914474097677,0.15048473071341462,6.279459395304878,1.4253497370530077,1.0532281977439024,9.29478719739634,0.0,-0.052164444030487804,-3.1123550926585364
0.466,0.16177671220097747,-0.09722754566005323,5.691705327124365,0.2530660244591727,0.13772630433994676,5.622747329573675,0.5061320489183454,0.09988631058674087,6.003821248624487,0.821776693858982,0.3759006582576821,5.265616779766029,0.4217767172009774,0.16220726842221145,5.911838494915558,1.406132084260341,1.0715656977945802,8.984704491809339,0.0,-0.058035285201306554,-2.791639743595935
0.468,0.1440879287511042,-0.08669139994699263,5.273611795150792,0.24245275184290319,0.14864077078542903,5.421255521724192,0.48490550368580637,0.1115909166921215,5.767066693825124,0.8040879394234213,0.38680427178542903,5.308691398090525,0.4040879334234213,0.17351090753104198,5.476799045694664,1.3849055083750745,1.0887334477925694,8.69017527703437,0.0,-0.06311919493936827,-2.4933742821983538
0.47,0.12477170023512511,-0.07673680423109842,4.988813364681882,0.2308630233083922,0.15897778486733238,5.117322533115549,0.4617260466167844,0.12307108019258203,5.7453187242639085,0.7847716957215372,0.3967639247689016,5.180209351673324,0.38477169042188436,0.1849850621626248,5.5041653123851635,1.3617259926167844,1.1055693966305278,8.224348101757489,0.0,-0.068470849467903,-2.686266824355207
0.472,0.10387361561506275,-0.06729526758468372,4.490699528308726,0.21832417133950985,0.1688175835328292,4.830081018207658,0.4366483426790197,0.13449112514019926,5.4804325244275605,0.763873590852361,0.40660959004681313,4.7799806472586726,0.3638736140274955,0.19563532473340534,5.386488531351699,1.3366482911536162,1.1213332984238387,7.724121432379547,0.0,-0.07359335780794622,-2.472346879459969
0.474,0.08156015922350697,-0.05957707084090096,3.96670423079335,0.2049361033403266,0.17730121474007865,4.488266724558098,0.4098722066503755,0.14567863534143724,5.391303477613872,0.7415601769821194,0.41624556483804076,4.639128623077584,0.3415601718904518,0.20642931288880945,5.166940263871648,1.3098722408337107,1.1363695906392564,7.335358597860922,0.0,-0.07860764283124776,-2.435475357463354
0.476,0.05796114610052406,-0.05230383173951565,3.445207160851388,0.19077668909695092,0.18495218826048435,3.965647324267218,0.3815533772241544,0.1560251064568222,5.2992391898732425,0.7179611238585041,0.424681368924749,4.43718731009687,0.31796114785850405,0.21601575732463082,4.870013184578736,1.281553353254407,1.1497792443887773,6.82300032815381,0.0,-0.08320925059621972,-2.3957455665546368
0.478,0.03313630958816568,-0.04584596791046498,3.2023659257739703,0.1758817819528994,0.19141005208953502,3.2672087708803508,0.3517635638766864,0.16590613272285681,5.069784961855313,0.6931362798501776,0.4330392833288335,4.114299815775932,0.2931363038501775,0.22550832970047305,4.605388692439021,1.2517635425943197,1.1623151438074304,6.357488754167071,0.0,-0.08776993905965155,-2.1769409086845504
0.48,0.00731595846524128,-0.03990499561647629,2.841986330263759,0.16038957151337793,0.1973510243835237,2.966973672884389,0.3207791420488533,0.17556067440048462,4.810429586689512,0.6673159377746058,0.44083657861474557,3.879463412380409,0.2673159614431438,0.23367762830460367,4.338059712638283,1.2207791773859293,1.1738250850771894,5.683996108406369,0.0,-0.09222566731221876,-2.2079565497106266
0.482,-0.01979860056033453,-0.034888785139856805,2.423430742591408,0.14412084615005974,0.2023672348601432,2.4778867587007163,0.2882416923001195,0.18553747149642003,4.856249728935561,0.6402013926086021,0.44852009277565635,3.596592689010024,0.2402014012707288,0.24211867616515514,3.9680174520682576,1.1882416997240144,1.1853451682754177,5.250639492543198,0.0,-0.09645607847064439,-2.1596158465293556
0.484,-0.0478643682253002,-0.030209669301959837,2.160917954332688,0.12728137299036973,0.20666583232107427,2.120873132732156,0.2545627460068957,0.19451520801911446,4.624899258924994,0.6121356318793247,0.4551633984381805,3.3086817524860876,0.21213562685316845,0.24953979511976773,3.5993897189820956,1.1545628102483654,1.1947407543960804,4.84926776671667,0.0,-0.10073601032107428,-2.1946478520766997
0.486,-0.07663659713865997,-0.026790486424655924,1.6394947323164333,0.11001804043031171,0.2100821348042583,1.9196127520185862,0.22003608183697598,0.20322476567380307,4.237869817677567,0.5833634070268721,0.4612267993534878,3.046418585146806,0.1833634010268721,0.2556108023534878,3.1007486487784965,1.1200361178133285,1.2030785644318316,4.10637027151841,0.0,-0.10452694081731562,-1.9922236510312903
0.488,-0.10625883201003225,-0.02441132821642064,1.1377410641063803,0.09224470408204945,0.21399521518958156,1.7639827482125168,0.18448940813865997,0.21109562503001097,3.828025715461876,0.5537411782268005,0.4671192569352202,2.7276649911978774,0.15374117298996776,0.2615032589355862,2.623957256863487,1.0844894412561807,1.210941605681225,3.524125006018543,0.0,-0.10844877018958154,-1.92189901346578
0.49,-0.13649145110901942,-0.022896247551894563,0.6240834545914333,0.07410512839461456,0.21588918170345964,1.211363131092257,0.14821025581651376,0.21829035955848436,3.5670760878171337,0.5235085307368045,0.4716640783443163,2.3661585438484347,0.12350855369998809,0.26529049040691927,2.2217429791828662,1.048210217034791,1.217379692047776,3.068566235708402,0.0,-0.11185697515156508,-1.8631462650609556
0.492,-0.1671387631947481,-0.022495963344444446,0.004594676055555524,0.05571674321364069,0.2166736359111111,0.35746146338888896,0.11143348640054658,0.22483517894444444,3.1845434823444445,0.4928612488052519,0.47589692561111113,1.9569363486888889,0.0928612348052519,0.2691350457555556,1.7244564482555556,1.0114334562025904,1.2220178762666667,2.4884822422777777,0.0,-0.11493729984444445,-1.592260614988889
0.494,-0.19806624520901736,-0.023234766262543758,-0.41287870224387396,0.03716025142303117,0.21556801779988333,-0.4455191591038507,0.07432050186949797,0.23047745364527422,2.8825346503395566,0.46193376641601236,0.4792853252129522,1.7441438057362895,0.06193375269724006,0.2721481212753792,1.5564648970647608,0.9743205002367357,1.2257816211505252,1.6555379596446909,0.0,-0.11794276866277713,-1.429718898756126
0.496,-0.2292811129443447,-0.02476875057788823,-0.8647593658729543,0.01843132858168761,0.21326658743956842,-1.1989352660986785,0.03686265716337522,0.23556725853133714,2.2506782760113953,0.4307188830556553,0.4824148041557764,1.4145410906463813,0.030718880969479355,0.2745101541732331,1.1293164380623106,0.9368626292495511,1.227792093762759,0.8662659633753181,0.0,-0.12030483217323311,-1.2758373069146565
