zhaobohao-byte/Y1_1Pace/data/Atom3motors/raw_csv/Step_y1_1_leftleg_aligned.csv
time,des_dof_pos_left_ankle_pitch_joint,dof_pos_left_ankle_pitch_joint,dof_vel_left_ankle_pitch_joint,dof_tau_left_ankle_pitch_joint,des_dof_pos_left_ankle_roll_joint,dof_pos_left_ankle_roll_joint,dof_vel_left_ankle_roll_joint,dof_tau_left_ankle_roll_joint,des_dof_pos_left_hip_pitch_joint,dof_pos_left_hip_pitch_joint,dof_vel_left_hip_pitch_joint,dof_tau_left_hip_pitch_joint,des_dof_pos_left_hip_roll_joint,dof_pos_left_hip_roll_joint,dof_vel_left_hip_roll_joint,dof_tau_left_hip_roll_joint,des_dof_pos_left_hip_yaw_joint,dof_pos_left_hip_yaw_joint,dof_vel_left_hip_yaw_joint,dof_tau_left_hip_yaw_joint,des_dof_pos_left_knee_joint,dof_pos_left_knee_joint,dof_vel_left_knee_joint,dof_tau_left_knee_joint,des_dof_pos_waist_yaw_joint,dof_pos_waist_yaw_joint,dof_vel_waist_yaw_joint,dof_tau_waist_yaw_joint
0.0,0.239999995,-0.266084909,-0.196079254,0.334537506,0.300000012,-0.009649545,-0.00151062,0.250156403,0.600000024,0.018908262,0.046691895,-1.515220642,0.899999976,0.341296434,0.061798096,3.114120483,0.5,-0.009325743,0.075531006,0.461982727,1.5,0.879503489,-0.054626465,1.667201996,0.0,0.006632566,-0.05569458,-0.298282623
0.002,0.239999995,-0.26367596433292906,1.6868279119223772,11.458907340314129,0.300000012,-0.00844819516919345,0.5259733136804123,1.1536779394032746,0.600000024,0.0201221663232262,0.9851923933899333,12.462968348316554,0.899999976,0.34366047030685265,1.6693961222171012,16.014945317922983,0.5,-0.006916797332929048,1.854880016767738,11.865158541099454,1.5,0.8811007547028502,1.094645867879321,19.513434211498485,0.0,0.006632566,0.018500703171012736,-0.3781807655385082
0.004,0.239999995,-0.25699506871969063,3.3612925502919695,5.98151674655348,0.300000012,-0.005289034434265319,1.5032775606754314,0.7587230317475312,0.600000024,0.024098960145984533,2.277947456219155,9.229228783688043,0.899999976,0.3475484687552647,1.8988084136440215,14.608283243251993,0.5,-0.0002485505708506841,3.267293563526472,6.33273430378953,1.5,0.8850385689302795,1.964990905246044,16.84519643238632,0.0,0.006632566,-0.10146767956823319,-0.3603512554492564
0.006,0.239999995,-0.24893182615765766,4.193327917228782,5.0302747416593165,0.300000012,-0.0010427149604077762,2.197630733646278,0.6696334680595069,0.600000024,0.030247341429587484,2.9827950293755334,8.455740321611666,0.899999976,0.3509938024004267,1.7968434148148411,17.053270745330252,0.5,0.007433011159791371,4.107694250014699,6.154325532539118,1.5,0.8900748603985301,2.836339134812233,15.091947509652679,0.0,0.006632566,0.07719905434945472,-0.3746173376981982
0.008,0.239999995,-0.24012818150980392,4.66006589125251,4.483887819685079,0.300000012,0.004318583638689622,2.5729656339689146,0.48972230074390244,0.600000024,0.037134731527498806,3.4786804770203252,8.0402656421198,0.899999976,0.3544566655164993,1.5872150060624104,18.063328623873982,0.5,0.015825900575801053,4.269111253110474,6.03151167083142,1.5,0.89697205855165,3.3801425736245814,13.63918011343209,0.0,0.006622756975848876,0.07718385843065519,-0.32205901273959825
0.01,0.239999995,-0.2301064173794485,5.046167042338793,4.430768090774334,0.300000012,0.010492949291892529,2.9467524500108415,0.3352039456391704,0.600000024,0.04482679533796842,3.917875671403135,8.869479467271507,0.899999976,0.3591043391219656,2.56949796600766,16.62126978170363,0.5,0.024265127206457692,4.101420780213292,7.63697561340667,1.5,0.9050809338477492,4.170211514386048,11.427000206803323,0.0,0.006238391556799434,-0.09949259086165449,-0.29342607872920107
0.012,0.239999995,-0.21947260087981288,5.3914541828196,4.358421172436848,0.300000012,0.0173542842936308,3.495123013981288,0.21567414054767903,0.600000024,0.05241931978373516,3.928489037663548,12.267843825895646,0.899999976,0.3648274034147775,3.02864359884143,14.615226757717524,0.5,0.03184550277581864,3.8024452352192633,9.004884231851145,1.5,0.9141982801384191,4.616913562995322,11.60197063342977,0.0,0.005839676267242413,-0.35488627920690896,0.18916586241381791
0.014,0.239999995,-0.2079013466624955,5.557482414162435,3.605491209670196,0.300000012,0.02621352903814222,4.080988616364337,0.07660980909421249,0.600000024,0.060525807061364456,3.997609164267236,13.871384093546144,0.899999976,0.37255516806136446,3.9427650522245217,11.888766155948863,0.5,0.03919735706136446,3.669983256417519,9.729153287165804,1.5,0.9242602703375046,5.04237908511539,10.444434923808688,0.0,0.004295716361929973,-0.8048373804232944,0.8804177240925279
0.016,0.239999995,-0.19662564461904763,5.927001523173887,2.3776814469433107,0.300000012,0.034367516961570595,4.287040264297172,0.14619890730445162,0.600000024,0.06867979592922782,4.189730229179974,13.374579349346462,0.899999976,0.3807091569615706,4.1700466343754625,10.799314202800455,0.5,0.04735131510657596,3.920460398904762,8.630768389104666,1.5,0.9355111734390739,5.5634625360594345,7.819940655197756,0.0,0.002747259261248359,-0.9231291693492064,1.4785617865637906
0.018,0.239999995,-0.1839536296415634,6.240232429630124,1.2324853214318399,0.300000012,0.04322551537273594,4.456204690238322,0.1742847562669209,0.600000024,0.07752500195710199,4.496120463943756,12.330648278265015,0.899999976,0.3895287811258341,4.450540195259294,10.361931739720685,0.5,0.056195598957102,4.467597128509056,7.451590855166825,1.5,0.9474412651553861,5.951071180618684,6.543042822479505,0.0,0.0012112285071496664,-0.7150369908236415,1.586264865923737
0.02,0.239999995,-0.1712750057019962,6.382289257499525,0.7313962141835789,0.300000012,0.052811364750356464,4.702184409035171,-0.012677819562143536,0.600000024,0.08672758467324145,4.465746682136526,12.74363930831963,0.899999976,0.3979523378387595,4.189403698698551,10.906548617250357,0.5,0.06542348102851711,4.759898104543725,6.290767273632961,1.5,0.9601081606532795,6.3228732560742635,5.7290844991754994,0.0,-0.00033515879028041826,-0.6794315090442016,1.5852752220939879
0.022,0.239999995,-0.15790004738987917,6.6098941809125495,0.6565748502601986,0.300000012,0.06238507805586793,4.8117969322631895,-0.20015551424345018,0.600000024,0.095928722587989,4.703352209926307,13.060472357531284,0.899999976,0.4059838125500658,4.093056758579256,10.996510038253618,0.5,0.07539091357746142,5.11816678491231,4.891035015386649,1.5,0.9731343705995933,6.563739997474339,3.8994517764691947,0.0,-0.0022587280027515253,-0.8118750625364278,2.213523681150975
0.024,0.239999995,-0.144812876878264,6.5238452603623465,0.07532394377393585,0.300000012,0.07239209400655777,4.955547823193633,-0.09694151596089186,0.600000024,0.10592391067604626,4.812708112541433,12.589187921507452,0.899999976,0.4140410429241684,3.8432817441842135,11.067803764948492,0.5,0.08618096873363539,5.264133261898295,4.0390925035327285,1.5,0.9870036231132705,6.973136222553952,3.3334365477907473,0.0,-0.004568595751877906,-1.0899451207674975,3.303030453439013
0.026,0.239999995,-0.13178016147192084,6.477211257072016,-0.362442412661023,0.300000012,0.08236803026588768,4.953638482599857,0.07355223818504829,0.600000024,0.11555491280386312,4.92022837555908,10.687890049549184,0.899999976,0.4213445578599022,3.928731302699654,11.465388568300465,0.5,0.09732107730833432,5.6355714372514605,2.709287709459878,1.5,1.0011996205000597,7.152615750810302,2.2236243046037916,0.0,-0.006870393405985453,-1.1599428042109217,3.612720745214141
0.028,0.239999995,-0.11912513215630863,6.525517156325516,-0.15100257477825985,0.300000012,0.09231381528998593,4.7839145879538,0.11151606692483583,0.600000024,0.1262799934440666,5.197179075037406,9.917270381539753,0.899999976,0.42898894085717637,3.582219644506801,11.430971319879221,0.5,0.10881266702450751,5.666553799945943,2.1702743421679176,1.5,1.0154013756113978,7.1615606582487095,0.9686792981437616,0.0,-0.009146350819183864,-0.874830065551712,3.382026788661234
0.03,0.239999995,-0.10667348891276957,6.208976432586746,-0.0934048184555367,0.300000012,0.10138694818403197,4.719959896207535,-0.09427095766367823,0.600000024,0.1364735596543494,5.221252581046159,9.879346564429609,0.899999976,0.4357840367695663,3.496809010486673,11.919182793593167,0.5,0.11976085965495518,5.581435430749334,1.6808483894546886,1.5,1.0297480385397384,7.336634024927187,1.5023332058721832,0.0,-0.010669760413859947,-0.6954225949359099,3.2853230086845167
0.032,0.239999995,-0.09422952859100131,5.904609514352071,-0.5711075504958826,0.300000012,0.11149408397135696,4.9011743945272706,-0.11727442095870629,0.600000024,0.14699468484759518,5.148855191482277,9.047375624622509,0.899999976,0.4428108505569877,3.430443380946294,12.221950019185822,0.5,0.13107548813820266,5.608090486059912,1.318593157366392,1.5,1.0445696982144648,7.361856572409357,-0.031198899391216135,0.0,-0.012982018661892827,-1.0596004859058359,3.532921586906552
0.034,0.239999995,-0.08273420161487131,5.718732279307794,-0.8223141477564347,0.300000012,0.12072336778205434,4.8455087897886076,0.022628579946258342,0.600000024,0.15736308418410389,5.181678041272283,9.457303064803384,0.899999976,0.45010722594983316,3.686875942654671,11.128175628543731,0.5,0.14258211521222594,5.639937507742016,0.8813448643739276,1.5,1.0595584063017158,7.443941524371306,0.7354728903852479,0.0,-0.014557413659318398,-0.9734957666788608,3.819030421933508
0.036,0.239999995,-0.07201070295090563,5.375913603670639,-0.37601000037940896,0.300000012,0.13029711431363203,4.80778828920448,0.09756749968207817,0.600000024,0.16771631704909437,4.977030140745472,9.70935494649857,0.899999976,0.4574195015781697,3.844847320365586,10.0447391349061,0.5,0.15371572349952337,5.583103327265968,0.5537042990681601,1.5,1.0749364955915157,7.7841592965023825,-1.0032339125019065,0.0,-0.017228994185891324,-1.1620091870772165,4.496063798979027
0.038,0.239999995,-0.06168206341588172,5.088583673875283,-0.05357252930797663,0.300000012,0.13948793407964707,4.643430588853702,0.004498264728866101,0.600000024,0.17805783329939193,5.020337507439609,8.980370387239775,0.899999976,0.4654596248599022,3.8097128273433882,9.69889915789317,0.5,0.16521985927137237,5.646311536710623,0.30937099770346965,1.5,1.0914266009765112,8.39982008293168,-3.6645022447597473,0.0,-0.01951658875772028,-1.0320167219742458,4.662801519464409
0.04,0.239999995,-0.05209483295643984,4.835034645977161,-0.03958647668048034,0.300000012,0.14830861221026606,4.527287476026136,-0.16531392026677655,0.600000024,0.18802924612385213,4.898910430147398,8.997574165282552,0.899999976,0.47312959996939014,3.7811577915027077,9.366372323233813,0.5,0.17671250736472804,5.721591530246527,0.05377984770190723,1.5,1.1079036040993644,8.123412501513775,-4.465319103766424,0.0,-0.021446604793972215,-1.024288330759595,4.191721303446904
0.042,0.239999995,-0.04262616944562591,4.749550442576728,-0.31747572466698887,0.300000012,0.15702685621544224,4.347056158688255,-0.09227270197873369,0.600000024,0.1978931769745046,5.106904548318753,8.09000316595795,0.899999976,0.48072767747317546,3.9842649807136294,8.408429360398864,0.5,0.1877048040343161,5.5938378098475114,-0.09577733981464476,1.5,1.123816458908168,7.991254660117811,-5.074186250247584,0.0,-0.023729778179192845,-1.0197707596196228,4.682984816748429
0.044,0.239999995,-0.03331255305301406,4.612887671473195,-0.5342773200452704,0.300000012,0.16593889610185847,4.292890173529068,0.07698254800679057,0.600000024,0.2083860904828449,5.071595996553371,7.252342721815701,0.899999976,0.48929003779258995,4.169626941279843,7.223867296708602,0.5,0.19897543717357635,5.552049222264951,-0.3003360489948773,1.5,1.1397364162041934,7.874438741848821,-5.810482458967835,0.0,-0.026450317803550154,-1.286675287534072,5.423238339462355
0.046,0.239999995,-0.02448196010162214,4.466948851666985,-0.306982579264313,0.300000012,0.1739901419923664,4.148753204175096,0.14428491065028626,0.600000024,0.21872428795849236,5.234679267021947,5.725432268131202,0.899999976,0.4981085007705153,4.302770366974714,6.521771535699427,0.5,0.2100808840524809,5.5103304037776715,-0.8649701376979961,1.5,1.1550734040448474,7.590716476283874,-6.136916505933207,0.0,-0.029120465812022902,-1.312756865962309,5.044710930821565
0.048,0.239999995,-0.015299445923357234,4.497939561527801,-0.147769928,0.300000012,0.18202145839050193,3.941304779169742,0.11666010781062654,0.600000024,0.2287127359473375,5.158506913228753,5.840943627124956,0.899999976,0.5069448626365346,4.37047601028024,6.0471451929073705,0.5,0.22083619454120137,5.4944189861461155,-1.2835860643011636,1.5,1.170392525190314,7.415870084287058,-5.605732495204419,0.0,-0.031422828962971674,-1.1776041467680733,5.007059177409545
0.05,0.239999995,-0.0069677795761415254,4.246015510459,-0.1550254995311977,0.300000012,0.18920996362777912,3.7386912203294287,-0.04594224820894095,0.600000024,0.23892047886732012,5.038148851664117,5.677684521971313,0.899999976,0.5160259651620847,4.658761086333731,5.30158297032393,0.5,0.23180114557255557,5.42045210799474,-1.7863571921025578,1.5,1.184762647517332,7.417762110971552,-6.780826591848434,0.0,-0.033700439239541004,-1.2737436637580684,5.5036944137398995
0.052,0.239999995,0.0018527265412844037,4.178156915584058,-0.508871646646372,0.300000012,0.19650955676218276,3.58372410572632,-0.005861283768259264,0.600000024,0.24892161875372334,5.035726126592636,4.355100116880972,0.899999976,0.5252582999746217,4.557597251750149,4.5041774212249495,0.5,0.242571112470392,5.4762958795679735,-2.18778678494972,1.5,1.1989765404869535,7.101170734381151,-5.87496899565638,0.0,-0.036384332274871915,-1.2174158243960442,5.397405909611581
0.054,0.239999995,0.0095283795182534,4.023936419509663,-0.6847542012366977,0.300000012,0.20341026981603436,3.495151249388929,-0.025090598138153185,0.600000024,0.25888951775709856,5.0807730436258645,3.5812179706332614,0.899999976,0.5344598364259127,4.5810009816198995,4.269394386434979,0.5,0.2532890657346695,5.363141154660463,-2.467597020697447,1.5,1.2123880283008828,6.678642539670007,-6.105661270503937,0.0,-0.03869286517275113,-1.1777421838549271,5.368922793377714
0.056,0.239999995,0.017591436399642644,3.932443188039309,-0.8618162540958904,0.300000012,0.21031241674449075,3.404305178998809,0.10304037928111971,0.600000024,0.26887194617867777,4.886173660907088,3.9940071806634907,0.899999976,0.5436730329309113,4.689544037511019,3.7107777030547946,0.5,0.2632625880547945,4.9805264130303755,-2.7792901615181655,1.5,1.225423090241215,6.474696246589041,-6.077582545217391,0.0,-0.0413716309029184,-1.32826667080405,5.631222624106015
0.058,0.239999995,0.025624277871914132,4.0304451565466906,-0.719521403075492,0.300000012,0.2168204931277281,3.223832639447943,0.18772235790411448,0.600000024,0.27882997036028623,4.854585638955277,3.5717434701384616,0.899999976,0.5528734719466905,4.607291329408945,3.2989917724880145,0.5,0.2728461403602862,5.007010359028265,-2.745610853114848,1.5,1.2376816793452594,6.148331193385331,-5.05555065336458,0.0,-0.04367128548837209,-1.1339252612422184,5.914908041778891
0.06,0.239999995,0.03292559233373523,3.7557608871868817,-0.688345346361225,0.300000012,0.22294339687581385,3.070879698672052,0.22071387870026526,0.600000024,0.2884170850004823,4.722568598521341,2.8629127440407522,0.899999976,0.5620680791249095,4.401572338906679,3.316150959314203,0.5,0.2824332550004823,4.791769830336147,-2.8206291127475285,1.5,1.2495714114584038,5.929158614943815,-5.401287757234145,0.0,-0.04598373243790692,-1.1146772468975161,6.027471096602845
0.062,0.239999995,0.040656009339200765,3.736316231425547,-0.5568222565236679,0.300000012,0.22837345920694577,2.8411669785203375,0.14767048254341103,0.600000024,0.29773811119053284,4.590900843875714,2.7224628253380114,0.899999976,0.5705998453434824,4.398491610011418,3.484826920930899,0.5,0.2917149573434824,4.5165785796296385,-2.813252388362036,1.5,1.261192759758801,5.853743169962893,-5.002328368235966,0.0,-0.048685661070409135,-1.3658282376816127,6.15874644318637
0.064,0.239999995,0.04753180778034067,3.47464741197374,-0.7239933132583392,0.300000012,0.23371778935379703,2.6568405944276083,0.07526130874733854,0.600000024,0.30729257342938254,4.624289530226402,3.074161414810149,0.899999976,0.5790174375092264,4.184064879777502,3.1498001144914833,0.5,0.3001324892810504,4.3968874086724625,-2.781901100748403,1.5,1.2722656909116397,5.399672739651171,-4.054239875054649,0.0,-0.0509810055748758,-1.170648558828247,6.256467655079489
0.066,0.239999995,0.054004100539158426,3.266820184641316,-0.7775167532361427,0.300000012,0.23866713402062226,2.550906378821671,0.03085826969173918,0.600000024,0.31642933825569197,4.529820478527953,2.2193293576539515,0.899999976,0.5873950254986292,4.156718871603409,2.9643749582353083,0.5,0.30849902207736324,4.113216777339016,-2.6344373963309096,1.5,1.2825273416484682,5.173595327173084,-4.53697091045655,0.0,-0.05326500027118846,-1.0149365429551795,6.154976781693289
0.068,0.239999995,0.06050631884587984,3.1625349924210404,-0.9185127676117312,0.300000012,0.24365347226074568,2.4841479092035144,0.009824298798860128,0.600000024,0.3256352416008074,4.628560185335313,0.8638131808283068,0.899999976,0.5958149028340062,3.9448802414502495,2.9953363875507004,0.5,0.31654568483400614,3.990780534222275,-2.6542009535153173,1.5,1.2921165858221326,4.963930423570648,-4.44824109297934,0.0,-0.05555866598812634,-0.9914283541040133,5.878105616507006
0.07,0.239999995,0.06623709723841059,2.9156213474039734,-0.8468571846092715,0.300000012,0.24860631228476823,2.3642348486092715,0.05442391924503311,0.600000024,0.33479649023841057,4.571743188264901,1.483510730741722,0.899999976,0.603455624,3.8692567330198675,2.990389691688742,0.5,0.3241787702847682,3.79267976797351,-2.756864484490066,1.5,1.3016519972847682,4.6907788077483445,-3.08257776202649,0.0,-0.0574686087615894,-0.9420433041456954,5.825866610940397
0.072,0.239999995,0.07194726211302566,2.7833766405098204,-0.536172762778648,0.300000012,0.25279290310447045,2.218228317326304,0.11614827311953248,0.600000024,0.3435472905986263,4.440782977235691,1.714764884422822,0.899999976,0.6110641997318954,3.8836874759746958,3.0132289973076274,0.5,0.33140599657790093,3.643467591565851,-2.5866977965048803,1.5,1.3104018625986265,4.349103308840101,-2.633022419543921,0.0,-0.05937168537100855,-0.8563467661231474,5.893117065283528
0.074,0.239999995,0.07775112929747581,2.728811007718094,-0.3129061799379571,0.300000012,0.25704751517244634,2.1410001347348433,0.19934684839962255,0.600000024,0.3520727774074074,4.251405449224581,0.7999982896963906,0.899999976,0.618426834883699,3.7145652775668787,3.207418931440434,0.5,0.33838224868483135,3.547445951769049,-2.7554172460238266,1.5,1.3189187575661712,4.097437385864119,-3.006030546689785,0.0,-0.06129198090375088,-0.8186325184569474,5.843420390618306
0.076,0.239999995,0.08306251237131157,2.5831674530169817,-0.1811381244165964,0.300000012,0.26084390185812356,1.9811348578205468,0.27555622778814887,0.600000024,0.36043005582199206,4.275138728252318,-0.03931928752908587,0.899999976,0.6256364054980128,3.502953590147778,3.2518543222430445,0.5,0.3452114389814525,3.433249564700831,-2.590259952812116,1.5,1.3268919238132002,4.006212066029146,-3.329533728508973,0.0,-0.06244059812670119,-0.7509870909798868,5.757849964952788
0.078,0.239999995,0.08809063362787391,2.502642038145058,0.05289413075171842,0.300000012,0.26471037268535197,1.7890429963080112,0.29139075599644465,0.600000024,0.3693340855799953,4.26374498511069,0.5639803693094335,0.899999976,0.6326015391039346,3.3985766930677888,3.282269802645532,0.5,0.3517978581039346,3.2419904569790234,-2.7808746131228963,1.5,1.3350130166374734,3.8613397747846645,-2.544865821256459,0.0,-0.06436061794252193,-0.7095261478644229,5.687241916506636
0.08,0.239999995,0.09266721669652868,2.33987462032554,0.034843749302517,0.300000012,0.26813631919157815,1.6962421980804008,0.3001966596331862,0.600000024,0.37772404223142075,4.239482964517476,0.7520637291018728,0.899999976,0.6390910977264702,3.3829121057853992,3.184159686256233,0.5,0.35827487038315636,3.1130874759292615,-2.6157601402978647,1.5,1.3422523211519743,3.637207377122987,-1.768401802846475,0.0,-0.06550500471955147,-0.736890304824168,5.156532669124061
0.082,0.239999995,0.09726732360115956,2.2395986590782706,-0.0196475993498007,0.300000012,0.27120145894794057,1.619053369312115,0.25066986587389783,0.600000024,0.38617095472424207,4.215414608177316,-0.12264919039509603,0.899999976,0.6459964540856384,3.42548920230366,2.9653246095199903,0.5,0.3644118047763015,2.8987426741496556,-2.3782206229684744,1.5,1.349156723624834,3.4007483872584854,-2.134739503585457,0.0,-0.06665052184853243,-0.40831201660405847,5.089319905015341
0.084,0.239999995,0.10155356752490147,2.0839452813188823,-0.16990541712815,0.300000012,0.2739208289474501,1.3970145371679206,0.18088190267693777,0.600000024,0.3947076660161233,4.17763440440965,-1.0924576165335007,0.899999976,0.6525798262536725,3.2822952123243763,2.753954838071062,0.5,0.37024073025367255,2.913623594086946,-2.45329709185919,1.5,1.3557623852459095,3.2979155217983998,-2.477661791268721,0.0,-0.06742722919622597,-0.4142419043379912,4.944667417839126
0.086,0.239999995,0.10615345244677304,2.047418966908073,-0.21435377415432244,0.300000012,0.27661093114289115,1.3511457917811385,0.12238529479161706,0.600000024,0.4027770474286735,4.150239844921171,-0.4926794900793046,0.899999976,0.6583553672155275,3.160729198378662,2.8703835702945937,0.5,0.3760040671950464,2.8577862150473923,-2.5042198912657776,1.5,1.3622710963062634,3.1096139817699453,-2.3134760657025484,0.0,-0.06819620892974518,-0.36168599172326743,4.634010238538938
0.088,0.239999995,0.11036769689182493,2.1058070393228734,-0.3356116441090008,0.300000012,0.27928108565483073,1.2602009945540875,0.07052143185549133,0.600000024,0.41082270951362515,3.8929577505813375,0.05782756317836499,0.899999976,0.6644731598587944,3.101005192080099,3.004187229956235,0.5,0.38173989829314614,2.7356461067745665,-2.4388683861601983,1.5,1.368005109440958,2.9055498469000822,-1.5667001112460777,0.0,-0.0689502074178365,-0.2930361953534269,4.638169325458299
0.09,0.239999995,0.1145435672964512,2.083153234942765,-0.3698054164648106,0.300000012,0.28155875611757675,1.1574167559537578,0.09121998588827818,0.600000024,0.41878031015545464,3.86185530554905,-0.8890724605210898,0.899999976,0.6701686845366233,2.846631051543673,2.8652078238063092,0.5,0.38705506635523956,2.7483620069088306,-2.632259991589198,1.5,1.3733289705366234,2.765164267327996,-0.8711164214628988,0.0,-0.06932967793870234,-0.2705373682816346,4.328904806097503
0.092,0.239999995,0.1187646660565813,2.0566549109231684,-0.3713614650869565,0.300000012,0.2838575675282906,1.0957930601584276,0.06895028311137581,0.600000024,0.42609391329600954,3.6470817048409767,-1.9519800729934484,0.899999976,0.6759268913889219,2.8452349395491363,2.9895705087724838,0.5,0.39244727358487197,2.649171768562835,-2.919110869227516,1.5,1.3790698022227514,2.6367879811334127,-0.6346072098445503,0.0,-0.06971487878737344,-0.2535164619755807,4.205115921762358
0.094,0.239999995,0.12259782435570149,1.8838610297927163,-0.20372849326674625,0.300000012,0.28577413620907466,1.0303534755602388,-0.007115267608716418,0.600000024,0.43375362998638806,3.692936106194627,-1.9024098352275822,0.899999976,0.6812944067773135,2.6543925913287163,2.781798542206209,0.5,0.398180133927403,2.6866047606183883,-2.951881819877612,1.5,1.3836701390774926,2.3316775460721195,-0.9634193552462089,0.0,-0.07009800184991044,-0.16319770230961195,4.109137665657911
0.096,0.239999995,0.12644053940521469,2.0205653855458676,-0.09925347896651118,0.300000012,0.2876769616056692,0.8734143101727067,-0.009929549561535703,0.600000024,0.44104419813252005,3.6332622230184186,-1.3719682592777178,0.899999976,0.6866640609873221,2.589606398949049,2.7641911040757083,0.5,0.4031748339873221,2.4927929320630304,-3.357074441620739,1.5,1.388271818902165,2.184790515288243,-1.2619082271490252,0.0,-0.07048198904257864,-0.12599668125260138,3.9922364223897855
0.098,0.239999995,0.1302785913850746,1.8093341996835821,0.048007076973134326,0.300000012,0.28883182404179103,0.6942968566597015,-0.0036073341313432833,0.600000024,0.44798284247761194,3.5081455226119407,-1.5226434511820897,0.899999976,0.6916570000567165,2.560711191731343,3.0183952327014927,0.5,0.4081780983402985,2.4389916039432835,-3.2686379844656717,1.5,1.3924954706955224,2.101920039474627,-1.3050827025552239,0.0,-0.070856333,-0.12534213830746269,3.860119902331343
0.1,0.239999995,0.1337365095738058,1.7644097257224949,0.17611223418723812,0.300000012,0.28998385358529866,0.6140922790735065,0.06076928308511912,0.600000024,0.45526083367987547,3.421347442932479,-2.149120417385131,0.899999976,0.6962787996268407,2.431830519469412,3.1658719911881956,0.5,0.4131739026268407,2.4310955119560638,-3.138566872858374,1.5,1.3963492686913683,1.8419905277756496,-1.0373057680603377,0.0,-0.070856333,0.053924539742727165,3.5772624108465223
0.102,0.239999995,0.13720316737264712,1.6467282266025731,0.20424023037955683,0.300000012,0.2911272008036693,0.482833660447939,0.11455898445985227,0.600000024,0.4618091503056946,3.3548522901241364,-3.0315522637295684,0.899999976,0.7012737413995711,2.4385213977438647,2.9398026435194184,0.5,0.41816884439957114,2.367571553317608,-3.2551140755194186,1.5,1.4005617292644748,1.8489220106106743,-0.3968918646109126,0.0,-0.070856333,-0.15653279820705265,3.4073160981841792
0.104,0.239999995,0.14064212287584973,1.5376157584757304,0.15544227619594514,0.300000012,0.29188214815480024,0.391678247039833,0.09854363329314252,0.600000024,0.46832763705307096,3.259345544385808,-2.918302642686106,0.899999976,0.7058745742790697,2.3301206647685153,2.782994110602266,0.5,0.4227696161004174,2.4533302068491354,-3.1103243279899817,1.5,1.4040120926039354,1.8207454499689923,0.08833493034597495,0.0,-0.07084403384519976,0.022410584186642817,3.3045462547351225
0.106,0.239999995,0.1436998375934822,1.4056422441645142,0.25552757390597464,0.300000012,0.292265812426554,0.39829965268762824,0.1384112576235365,0.600000024,0.47484113078551604,3.100354387900905,-2.5919739482774893,0.899999976,0.7104823330464696,2.352673566772722,2.633414496922631,0.5,0.42736294265274594,2.1912851210976463,-3.3178811098525047,1.5,1.4074669804794206,1.6645073958800243,0.4119583575182861,0.0,-0.070460369573446,0.0813151056049487,3.2719354495447193
0.108,0.239999995,0.14641738328216114,1.3424423194497204,0.2882817049641795,0.300000012,0.29267095480387956,0.22090700382387243,0.12000317262882304,0.600000024,0.4810340371224563,3.0115429389472808,-2.3504493560126147,0.899999976,0.715123372559443,2.2737899263320243,2.5093625839364515,0.5,0.43163323515756274,2.211115954934666,-3.052081828211115,1.5,1.4109261082821611,1.6333612645292157,0.6059869926835654,0.0,-0.070072424441866,0.2069652365976437,2.9645781220097582
0.11,0.239999995,0.14909849446317297,1.2522792213174168,0.24061351507890652,0.300000012,0.29342083231992355,0.2344982089785126,0.1420390470995583,0.600000024,0.48677900324626955,3.0086757880771158,-2.9238571585805184,0.899999976,0.7193520221746448,2.200219382576698,2.31465415834344,0.5,0.4358462317859616,2.098022118359198,-3.271409644802793,1.5,1.413607178351319,1.4948716522274086,0.753377387170228,0.0,-0.06967311824829892,0.21383679040826073,2.859784943387012
0.112,0.239999995,0.15177047062461319,1.2246046361650798,0.2771159624992859,0.300000012,0.293787688,0.128274507327184,0.1524939212117353,0.600000024,0.49254095508962153,2.7875944770970005,-3.397884137872292,0.899999976,0.7239613926012854,2.2800895124665557,2.3864862903674124,0.5,0.44005383748476556,2.0769405820157107,-3.188477666015949,1.5,1.4162612642201855,1.147191222204118,1.0323064454607236,0.0,-0.06890445457581529,0.2748085643801476,2.6718858022572007
0.114,0.239999995,0.15406859772446782,1.2261941589416407,0.263296219943315,0.300000012,0.293787688,0.08259730655010762,0.1840242728065056,0.600000024,0.49825465062927526,2.7398772702843814,-3.7188988533790956,0.899999976,0.7285255482312845,2.2319039600877777,2.181313910448218,0.5,0.44388618923128437,2.0283879896055965,-3.408884221322411,1.5,1.4181939447675198,1.0530957136488879,0.9561823491490073,0.0,-0.06815523489117435,0.3938411358067448,2.562195045249462
0.116,0.239999995,0.1563924254302148,1.2281465956994952,0.09165020855628596,0.300000012,0.293787688,0.08918817704484094,0.18587494773083696,0.600000024,0.5032700908604296,2.6608792972747977,-3.682937941483742,0.899999976,0.7323873035984271,2.0681519600590446,1.992078244098251,0.5,0.44773057364690694,1.9517751694127246,-3.2252216230349804,1.5,1.4204829882103531,0.9982413702568377,0.7800436423413546,0.0,-0.06775357778013852,0.41670359284188285,2.496207618577415
0.118,0.239999995,0.15902662621446473,1.2094771504088793,-0.004122790368540399,0.300000012,0.29379940115335956,-0.01367130114798902,0.18140446998424634,0.600000024,0.508561889588495,2.5815577682327246,-3.353449563496718,0.899999976,0.7365450331284162,2.0627561084480246,2.147714956703664,0.5,0.45149884267454354,1.901767663849266,-3.314558127881728,1.5,1.4223842661839121,1.0227797842156583,0.7606468367118988,0.0,-0.06698548639276763,0.46824894830385483,2.3195599309995227
0.12,0.239999995,0.16134326256955536,1.266812599207057,-0.050462909123018235,0.300000012,0.294171065,0.04917243478972464,0.16946455673310287,0.600000024,0.5139133742939563,2.4990948515436884,-2.890850059101562,0.899999976,0.7407572751770175,2.029055578821433,2.151264067857552,0.5,0.4549547216864942,1.7469087696990104,-3.125258715683037,1.5,1.4246645700979854,0.9842444900514961,0.755784232265109,0.0,-0.06584534901895339,0.4819992602537847,2.1689713101127666
0.122,0.239999995,0.16402673849517874,1.3464170114483773,-0.1316700070809031,0.300000012,0.294171065,0.0886273101491063,0.18386694089546096,0.600000024,0.5185147938224365,2.312309802170273,-3.1457007979851834,0.899999976,0.7446032911026575,1.9910236552882172,1.869073569053857,0.5,0.45839360121495765,1.7118357369828316,-3.2539211993117356,1.5,1.4261983766074788,0.8706866864332079,0.7777871379486124,0.0,-0.06506694611230009,0.3677171838773518,2.0495547151214724
0.124,0.239999995,0.16667724986925025,1.3406971220474466,-0.10987110974827961,0.300000012,0.294171065,0.04068132960992394,0.1687139254056501,0.600000024,0.5230580944512858,2.3480015216436074,-3.635447259260775,0.899999976,0.748754316032959,1.9089555284418689,1.8947620719061935,0.5,0.46142941103295904,1.5879149415686344,-2.9243025176523,1.5,1.427719752876494,0.7951269910699021,1.023845809314379,0.0,-0.06393088556356392,0.6252854363288664,1.774120665065918
0.126,0.239999995,0.1693851250692124,1.3478417499337707,-0.14084840987649164,0.300000012,0.294171065,-0.019270321539976133,0.1779526435316229,0.600000024,0.5277181941682577,2.2916024931342482,-4.12212348148389,0.899999976,0.7522491501187352,1.7833221093866347,1.9108048095650358,0.5,0.4649125791121719,1.678825690208234,-3.115181096663484,1.5,1.4296378880495226,0.7998855426867542,1.1984903678287588,0.0,-0.06275395294391409,0.48838094858293557,1.6096497490936754
0.128,0.239999995,0.17168806762678634,1.236563773710169,-0.15822284546958781,0.300000012,0.294171065,-0.00802411045600567,0.19127637554104168,0.600000024,0.5323130506378883,2.1752676168992555,-4.0989463716970596,0.899999976,0.7557040413129797,1.645642831539152,2.1826714798789415,0.5,0.4679718520192512,1.5646758242333767,-3.076737642844337,1.5,1.4307898069717728,0.7190130579258297,1.5689656003811268,0.0,-0.061230323059407114,0.6601001063727413,1.4473884565719854
0.13,0.239999995,0.17396899259608223,1.089821402386492,0.06258199906970316,0.300000012,0.294171065,-0.021848893607018388,0.18019917718423267,0.600000024,0.5364863175295037,2.179080065528422,-3.9222338081360415,0.899999976,0.7591172999115491,1.5938536514433361,2.2299204321754598,0.5,0.47064224258670834,1.467028009980531,-3.010696588489965,1.5,1.4319383779557746,0.6139427795639948,2.160920150330369,0.0,-0.06008175304422546,0.6218303253874535,1.1686411539901453
0.132,0.239999995,0.17627762408033903,1.1337366939899725,0.043374078113763884,0.300000012,0.294171065,0.013778074457443,0.16613133628506627,0.600000024,0.540353032160678,2.0073825040122952,-3.5446245554038436,0.899999976,0.7621987321999523,1.4609187887032349,2.5258170813346066,0.5,0.47372274219995225,1.5247803820262624,-3.143038802823803,1.5,1.4334733047429868,0.5699590397415543,2.2970741924295095,0.0,-0.05853524757323624,0.8170477156755402,1.0320885888279814
0.134,0.239999995,0.17819745933706674,1.0082880480179202,0.2561908167274228,0.300000012,0.294171065,0.01948074282232964,0.15696237703725538,0.600000024,0.5441807249678142,1.9298852828079462,-2.9059317014975243,0.899999976,0.7648870745551756,1.4027834676471351,2.473644248185923,0.5,0.47641108455517567,1.4096501030745108,-2.9725009995254656,1.5,1.4346255869244282,0.5583644514174723,2.477797420329403,0.0,-0.05699918836925254,0.6230421676812073,0.9520849987633813
0.136,0.239999995,0.1800870470289645,0.9255065900858074,0.31602152526611155,0.300000012,0.294171065,0.01472736100615496,0.1554116877418537,0.600000024,0.547604344416365,1.7490657857896452,-2.598677402660029,0.899999976,0.7675441402226647,1.2540180694576395,2.4764997023816075,0.5,0.47906815022266475,1.236099765129978,-2.8102755629131067,1.5,1.4357565326705286,0.619026859166546,2.635529037921434,0.0,-0.05547306844786387,0.7582572449561912,0.7460295833772629
0.138,0.239999995,0.18163951621880908,0.8555629491665879,0.42941885602693763,0.300000012,0.294171065,0.018656444399574666,0.15993582278520793,0.600000024,0.5514611474376182,1.8034819578249055,-2.828857040107987,0.899999976,0.7702612026037334,1.3489180205349716,2.5661953028757085,0.5,0.4817603600526938,1.272706519007089,-3.03428412588327,1.5,1.4365447263849245,0.5198274941049149,2.8832256986493383,0.0,-0.053544199781190925,0.8631484795649811,0.5114489807351134
0.14,0.239999995,0.18316090449598466,0.8614737867053818,0.474224917725878,0.300000012,0.294171065,-0.03936949176231572,0.14516405496835671,0.600000024,0.5545039239919692,1.5905152635360182,-2.7027505204100444,0.899999976,0.7729147013664149,1.3246598274004555,2.7007587141817093,0.5,0.48367100336641494,1.1160864916857247,-2.815052699399257,1.5,1.4376860040607695,0.41496022395373366,2.944470710210236,0.0,-0.05201364431367614,0.9170698531522234,0.4388450196890807
0.142,0.239999995,0.1847035785347696,0.7376617599912627,0.48239205064548174,0.300000012,0.294171065,0.017454547543147816,0.14905293283076004,0.600000024,0.5575892720695392,1.6226394741176542,-3.345741540813046,0.899999976,0.7752394569010174,1.235774341076481,2.466457173982286,0.5,0.4859845627324955,1.1097910051909037,-2.805785862594375,1.5,1.4388432215055655,0.4764232581613405,2.9860082380002395,0.0,-0.050084610296708555,0.9524486913514064,0.1202759667712747
0.144,0.239999995,0.18623139613334921,0.6333483778604484,0.5411149529835401,0.300000012,0.294171065,-0.01921452123807252,0.1265908889587309,0.600000024,0.5606703316001909,1.5582478066011451,-3.468881059562023,0.899999976,0.7779228796335877,1.1584873052447517,2.521725428686069,0.5,0.4882830924668416,1.0482474758079676,-2.8177101483470897,1.5,1.439985219966603,0.5602821809200859,2.9990145852285304,0.0,-0.04817189969990458,1.0828607569821087,0.0792674578096374
0.146,0.239999995,0.18739588233428675,0.6529410097861995,0.576701802937433,0.300000012,0.294171065,0.04919083900035753,0.14843769432856632,0.600000024,0.5637406336685735,1.464206924226314,-4.043746825564534,0.899999976,0.7802251610321773,1.3175140386889523,2.5420492104379693,0.5,0.4902146769706829,1.0223353044933858,-2.7883404205616733,1.5,1.4407661249882018,0.5981267719806936,2.9579462508087238,0.0,-0.04661098002931713,0.9087534858530568,-0.030525848803360744
0.148,0.239999995,0.18891720397341122,0.5008609058182902,0.6555327117177775,0.300000012,0.294171065,-0.02594639081364016,0.1354535137942053,0.600000024,0.5667960759881959,1.568493152271253,-3.774287420888637,0.899999976,0.7825267870975319,1.137814012953261,2.3919791652322644,0.5,0.4924897830147848,0.9552652134348396,-2.6675445059452723,1.5,1.4419032338986528,0.434480364285561,2.793618697960415,0.0,-0.04433587398521521,0.8268910270654585,-0.10569320176177417
0.15,0.239999995,0.1900681343618126,0.6601163639112579,0.7195508560061364,0.300000012,0.2941838231206042,0.022629115579183384,0.14200436194784047,0.600000024,0.569481336339155,1.3276549766360632,-3.75305951302785,0.899999976,0.7848277892185508,1.0983471814031154,2.353411088088034,0.5,0.49403683935048387,0.9350730963896625,-2.402337773365353,1.5,1.4426836171092754,0.5425354139884352,2.750893932976634,0.0,-0.04278881764951616,0.9315668520233656,-0.1933970272338919
0.152,0.239999995,0.19120682728642796,0.4864231399267277,0.5742994082081598,0.300000012,0.2945455039850125,-0.0368758178376353,0.140352249,0.600000024,0.572140101346378,1.372929529454621,-3.540848839386345,0.899999976,0.7871069973313904,1.0264967025587013,2.4305445271548707,0.5,0.4959266303014155,0.9450760840358036,-2.5320368821623647,1.5,1.443814272029975,0.42515827404246465,2.7970253484845964,0.0,-0.040899026698584515,0.8832227215245629,-0.24176569498584513
0.154,0.239999995,0.19236364626424993,0.4449200466792273,0.5848197272432626,0.300000012,0.294171065,-0.040639511806105415,0.1402706310331505,0.600000024,0.5748109715211066,1.2671161226556165,-3.2454948139181967,0.899999976,0.7894034285211066,1.167366838221798,2.188459065855712,0.5,0.49745788826424997,0.8095838100083473,-2.449810493339614,1.5,1.4445794452568568,0.4257936243260195,2.876766536826139,0.0,-0.03936776873575006,0.7137448507553065,-0.2247597226126878
0.156,0.239999995,0.1938905314016888,0.6603865353534379,0.574044599424608,0.300000012,0.294171065,0.011910635287092883,0.13646065023642942,0.600000024,0.5771142420892642,1.249532738628468,-2.9017118719215924,0.899999976,0.7917066990892642,1.132754000038601,2.060515032553679,0.5,0.4989930976308806,0.8789941307201448,-2.5106373456151987,1.5,1.4453475064583836,0.3735000164451146,2.9237242864270203,0.0,-0.03782423513992762,0.8106076291423402,-0.38495385667671894
0.158,0.239999995,0.1950548921173524,0.6100559265273703,0.5237640186379249,0.300000012,0.294171065,-0.01715657254239714,0.13411491491592128,0.600000024,0.5794420937209303,1.077793752952415,-2.813313764057961,0.899999976,0.7940217626053668,1.0535838723552773,2.107030387443649,0.5,0.5005325428604651,0.6439282478794276,-2.1971932380661894,1.5,1.4461231564880144,0.40813595624257604,2.858868300184615,0.0,-0.03587143627906977,1.2005370684597494,-0.5843214150862254
0.16,0.239999995,0.19619266162747437,0.5765040035450751,0.49941039348831384,0.300000012,0.294171065,0.024559015531004057,0.1268678100025042,0.600000024,0.5817323827771286,1.1142563111424995,-2.1695756142698546,0.899999976,0.7959534786880516,1.0546320707861914,2.0167623188400903,0.5,0.5016841723440257,0.7103595684124732,-2.144545015813618,1.5,1.4469041331496542,0.2716986096455998,2.8412650216870974,0.0,-0.03356820950632006,1.0883800867367042,-0.800010149610422
0.162,0.239999995,0.19697314363424126,0.5025796232270959,0.5010166414966395,0.300000012,0.294171065,-0.007519258552175451,0.13206228416554652,0.600000024,0.5836499490739299,0.9712729036582951,-2.144512663420587,0.899999976,0.7982552892769721,1.1222656381772198,1.864365197410329,0.5,0.5028350936342413,0.7070138404379201,-2.0962543734966395,1.5,1.4480283662617617,0.33348635832224977,2.642076728762292,0.0,-0.03126728866430845,1.3371707243919349,-1.1765094053675273
0.164,0.239999995,0.19810317150202478,0.4958393989279419,0.4859506136070748,0.300000012,0.2941798777395188,-0.005110727974154359,0.12759867822594093,0.600000024,0.5855386128878037,0.8460272064288947,-2.389006779649238,0.899999976,0.8005232596273225,0.9905298454518818,1.8450543701077893,0.5,0.5039739561482849,0.5666437426544784,-2.0803549496773464,1.5,1.4484174074790377,0.2793448449830872,2.663016370064436,0.0,-0.028980770893639828,1.240830505774059,-1.4451226526944974
0.166,0.239999995,0.1988776100949608,0.46328089601319233,0.4750445434114571,0.300000012,0.2945460126269313,0.055317230288328974,0.14825386461255052,0.600000024,0.5870799698410981,0.8866961069956026,-2.3292880952819113,0.899999976,0.8024476311899216,1.0333123812521987,1.7466658953193486,0.5,0.5051238900949608,0.4917345297478013,-2.0369503314956026,1.5,1.4491749653730686,0.30551650264761115,2.6538351771123128,0.0,-0.02630727081007844,1.217644242371167,-1.626033688671381
0.168,0.239999995,0.20003274666969625,0.6064861021179143,0.37046156432001914,0.300000012,0.29417840060392253,0.030691614145419755,0.13883129006577372,0.600000024,0.5889850016696963,0.8390700383291079,-2.4604363158012434,0.899999976,0.8047358792736188,1.0773264591736427,1.760050191282229,0.5,0.5062716910657737,0.4763115879380531,-2.061668069499163,1.5,1.4495572668579289,0.11913823358813681,2.803136839813681,0.0,-0.024004333283664196,1.117180766754365,-1.655394780180818
0.17,0.239999995,0.20155489305444602,0.6035605780301949,0.29798994139336665,0.300000012,0.29454591947277703,0.0799281815316215,0.14820398816963862,0.600000024,0.5905242143164527,0.8467273292237281,-2.572852826927247,0.899999976,0.8066596558436757,0.962014067969805,1.6229122098947932,0.5,0.507417796054446,0.5254349253038516,-1.9488697374035902,1.5,1.4499512890544461,0.2338563294894199,2.8374647230683547,0.0,-0.021319016606871136,1.2445423794850214,-1.8475520409482882
0.172,0.239999995,0.2023269066665478,0.6048591715366143,0.33190611567641465,0.300000012,0.2941784937269377,0.030567489961483594,0.1363414583597242,0.600000024,0.5920468696665477,0.892170114324893,-2.544174649291607,0.899999976,0.8085720231204232,0.9570786499317642,1.7529592198997859,0.5,0.5081749337269377,0.44678867319733717,-1.8197675094147645,1.5,1.4507084267269377,0.1989782062429862,2.8485808570481455,0.0,-0.019024365152639087,1.1844205378386827,-2.245583976671422
0.174,0.239999995,0.20346846167095084,0.5200015750007141,0.2536234546153755,0.300000012,0.2945480546645246,0.0729129934140188,0.12780551102891824,0.600000024,0.5932012152362253,0.8046180501708913,-2.7249560763235747,0.899999976,0.8104846684493634,0.8596403488167321,1.7570149344284185,0.5,0.5085636725652742,0.3908621833516601,-1.7017721252765678,1.5,1.451084375,0.2738591884316316,2.957443476978698,0.0,-0.016729384198500535,1.1619504387627038,-2.4386912347049865
0.176,0.239999995,0.20423961120362258,0.5433242981929679,0.21158895779318102,0.300000012,0.294171065,0.006922170744998225,0.1187730080800284,0.600000024,0.5947330008613709,0.7223180520512608,-2.7979612649168937,0.899999976,0.812394380861371,0.9368256962340477,1.807465220344501,0.5,0.5093300273154966,0.26957181114502193,-1.7288420421685806,1.5,1.4510958265458742,0.13745340435231443,2.9197433308292884,0.0,-0.01442551094992305,1.1627033042902806,-2.525093738136261
0.178,0.239999995,0.2053828302218603,0.39978965126529137,0.21740752894124743,0.300000012,0.29417416383689227,-0.03409304460586319,0.13264109841947158,0.600000024,0.5962538705106768,0.5986812502661358,-2.863221606021595,0.899999976,0.8139183570587526,0.8801866005929545,1.9286271384945108,0.5,0.5100884505480758,0.28563743009494513,-1.5186607447338643,1.5,1.451852083,0.2052771645817348,3.045294828940282,0.0,-0.011758324422487634,1.3116969982271687,-3.0230316427587165
0.18,0.239999995,0.20653989847827126,0.49344691889899717,0.1346520473635387,0.300000012,0.294554442,0.04525992974725406,0.12998760383655683,0.600000024,0.5974176552381806,0.6259980788284384,-2.9021606992390163,0.899999976,0.8154710099773161,0.7529461520408309,1.9241914502743553,0.5,0.5104773187391356,0.2279705967691022,-1.4874302449133239,1.5,1.4518597267391355,0.11783342484945082,2.9591003242935767,0.0,-0.009049529543576885,1.3308711265999285,-3.0380637157220627
0.182,0.239999995,0.20730792955556895,0.48391448462307135,0.13608058356521213,0.300000012,0.294554442,0.01875383125024108,0.12438742872324011,0.600000024,0.5985706265736499,0.6300612696252411,-2.853094960845709,0.899999976,0.8170079660075941,0.6730614368677676,2.0280788792726616,0.5,0.510853052,0.21772767113488428,-1.2889966426221071,1.5,1.4522437319965045,0.16401755639633558,3.0057752387146817,0.0,-0.006743608415260367,1.1604600979274349,-3.1973096131059546
0.184,0.239999995,0.20809644756643192,0.46051604384493255,0.051885252401098245,0.300000012,0.294554442,0.06825897840957384,0.1177526290729378,0.600000024,0.5997217713934583,0.6443657617770084,-2.904942438388564,0.899999976,0.8185457625664319,0.6448934622974812,2.052048347052047,0.5,0.5108655001967292,0.09400033027121882,-1.1752776957827384,1.5,1.4526312851967291,0.14279644940348574,2.922480082273845,0.0,-0.004404844702876925,1.2937559140276949,-3.638294402862839
0.186,0.239999995,0.20923612389959456,0.5159004461094682,-0.021033722476269973,0.300000012,0.294554442,0.01497974546792273,0.13225586916980683,0.600000024,0.6005026116067256,0.43163140412974005,-2.8433487034257094,0.899999976,0.8196984545728595,0.6470263671748151,2.068461071512998,0.5,0.511236429,0.14497450148604818,-1.1171672269902218,1.5,1.453015229740997,0.151435981622466,2.8408320404393037,0.0,-0.001728565060815645,1.1302151627443358,-3.824736567257095
0.188,0.239999995,0.21001518778467618,0.4153418090479014,0.020984959825136613,0.300000012,0.294554442,-0.026867352805022667,0.14431320423369376,0.600000024,0.6016529898179281,0.47829926050401117,-2.6936087551196373,0.899999976,0.8208488318179281,0.5403698534515754,2.2679685121376587,0.5,0.511236429,0.16221653740437159,-1.0953196647073598,1.5,1.4533992930318569,0.1620299516406232,2.7809990059712826,0.0,0.0005712706026043484,1.1855161925278457,-3.451971561042669
0.19,0.239999995,0.21113475718565303,0.5338863303396092,0.007958803915395614,0.300000012,0.294554442,0.11303369846448999,0.1227409734366063,0.600000024,0.6027725601768351,0.48021275949499526,-2.4028937379337463,0.899999976,0.8219717827740706,0.5690030342747856,2.389677852734032,0.5,0.5112398095884175,0.021151023316253577,-1.0457267509699715,1.5,1.4537733025884176,0.16185432930529076,2.6376858390750715,0.0,0.0028171799428026692,1.2918424838231648,-3.7259366428493803
0.192,0.239999995,0.21190445192463278,0.4289168323486636,-0.023889112661931132,0.300000012,0.294554442,-0.02963247620659764,0.11217201038309656,0.600000024,0.6035357839643631,0.42924225574139174,-2.356066683391765,0.899999976,0.8231214739246329,0.6371816230666988,2.3414770941288228,0.5,0.511619806,0.08232452845774138,-0.962679893573802,1.5,1.454156529964363,0.20816623420876473,2.842270665657838,0.0,0.005117505866120877,1.1396149190479172,-3.9565709482147846
0.194,0.239999995,0.21306002729554802,0.5318908783399469,-0.05558263303338979,0.300000012,0.294554442,-0.018706518925114927,0.11431396142136463,0.600000024,0.6039301399351561,0.3399716898998306,-2.1828900225315753,0.899999976,0.8242770669351561,0.6441897145277038,2.43617506815848,0.5,0.511619806,-0.01249124052504234,-0.9292753357127994,1.5,1.454543789796637,0.17522973537031214,2.570397889168159,0.0,0.007442886147350593,1.1971861932066294,-3.802547129831478
0.196,0.239999995,0.2138505016300716,0.37960442173556086,-0.06104648918806682,0.300000012,0.294554442,0.08120550598663484,0.11569862031264917,0.600000024,0.6047088914730311,0.32198795878663483,-2.0456144562639618,0.899999976,0.8250558184730311,0.2961477765403341,2.4343947631541765,0.5,0.511619806,0.17491797172267304,-0.9481057465942722,1.5,1.4549336337365155,0.12809343231742243,2.5904923946916467,0.0,0.009778235839618139,0.9715621490238664,-3.8424731671756565
0.198,0.239999995,0.21500264363225652,0.4840569251681965,-0.06131173912254142,0.300000012,0.294554442,-0.003490686458457504,0.11904112885719395,0.600000024,0.6054634030864227,0.2680991560936941,-1.9167298265134105,0.899999976,0.8258233088762665,0.36470478904994635,2.5149775270313506,0.5,0.5116327847898439,0.1797356704132793,-0.9317388472803672,1.5,1.4553173627898437,0.08622520686959113,2.442245479080343,0.0,0.01206861854237692,1.2838792499803313,-3.9691896508989153
0.2,0.239999995,0.2161277023371374,0.5518238672415596,-0.010428130620066572,0.300000012,0.294554442,-0.0016676918487874464,0.10809242630290061,0.600000024,0.6058606096067523,0.2504431985463623,-1.8231655401802187,0.899999976,0.8265779703033761,0.2974177846509748,2.6918336650860675,0.5,0.512003183,0.14517078403518782,-0.9480400355649072,1.5,1.45570073651165,0.2424801855577746,2.4554707283927724,0.0,0.01398720172515454,0.9738768148449833,-3.943449797601522
0.202,0.239999995,0.21652195038821284,0.3388019058866619,-0.07244567211453114,0.300000012,0.2945663635056073,0.023658932890002385,0.10254948242209497,0.600000024,0.6066133689136244,0.36266314739036026,-1.7245597516036746,0.899999976,0.8269721878272489,0.22859602108589835,2.6833941489949895,0.5,0.512003183,0.0368499210474827,-0.8962390784044381,1.5,1.4560840135056072,0.3403749618911954,2.425297050188499,0.0,0.01591167307372942,0.9677617483987115,-3.84274620507707
0.204,0.239999995,0.21729002582352944,0.3150837506771793,-0.0512047756378455,0.300000012,0.29492665200106305,0.053520132098157334,0.1223366043065202,0.600000024,0.606996974967399,0.14457779808858967,-1.6260933348206945,0.899999976,0.8277272489433026,0.24333337695570517,2.7850812024362153,0.5,0.512003183,-0.11989774648724309,-0.837278654191708,1.5,1.4564806048235293,0.2498249052696669,2.306139353009922,0.0,0.018214113644932674,1.1406193837586818,-3.7909116619776757
0.206,0.239999995,0.21805011715926015,0.2679696663941869,0.011130023586596205,0.300000012,0.29456321246480904,0.011305641202978622,0.1068905569365842,0.600000024,0.6073779327172711,0.08108597528441028,-1.5425118457593083,0.899999976,0.828107306441989,0.23872167264064376,2.8036593452029788,0.5,0.512003183,-0.028779659910401153,-0.8557393916615421,1.5,1.457231925694451,0.2994662484343022,2.1337524205880376,0.0,0.0204874432426135,0.9998110338220034,-4.092005770014893
0.208,0.239999995,0.2188224492509741,0.27846563358950266,-0.05157039795713959,0.300000012,0.294938773,-0.0004162889708915884,0.10120600988792115,0.600000024,0.6077636336254871,0.2659620547630071,-1.4554106654338759,0.899999976,0.828505009250974,0.10782777865528305,2.875709177534724,0.5,0.512003183,0.01235304447467339,-0.781097699390557,1.5,1.457617653176255,0.17766139632500572,2.1164819168585836,0.0,0.022405831052716024,0.9839453792768738,-3.9590634425505384
0.21,0.239999995,0.21955959104629844,0.37968879195989,0.0054645835371304186,0.300000012,0.294938773,0.002488270089388035,0.10654570452589962,0.600000024,0.6081322045231492,0.027139068000573002,-1.414922869151272,0.899999976,0.8292421510462984,0.21785263140992434,3.0584360297680497,0.5,0.512003183,-0.008184243703758882,-0.7979969534158835,1.5,1.4579871412302317,0.3519386210649782,2.0777544598373825,0.0,0.023881031799679122,1.05142503974788,-4.107988118107953
0.212,0.239999995,0.22033829142565597,0.3429195413673469,0.10071069889212828,0.300000012,0.294938773,0.0245912513819242,0.1104250931516035,0.600000024,0.608519316,0.2362908342244898,-1.302974634553936,0.899999976,0.8296352389912537,0.2471984440116618,3.077548524956268,0.5,0.512003183,-0.024483016256559766,-0.7805067787142856,1.5,1.4583787328688047,0.2852648741749271,1.8910215501516034,0.0,0.025825000734693876,0.8809789761778426,-4.132085294069971
0.214,0.239999995,0.2211109117837515,0.40020163787634405,0.13287341248267623,0.300000012,0.294938773,0.010993656890681002,0.10727819506690561,0.600000024,0.6085287291003584,0.20011089265352447,-1.3299663776541217,0.899999976,0.8300267177592593,0.3710849678428913,3.2115843171774197,0.5,0.512003183,0.08988010155197132,-0.7685411926744324,1.5,1.4591504291248507,0.2743372001935484,1.9581859024342891,0.0,0.027778629161887693,0.8421689881093191,-4.055422640837515
0.216,0.239999995,0.22150543574970147,0.26543768448220684,0.15148853875925483,0.300000012,0.294938773,0.02766776315118223,0.11705238792834965,0.600000024,0.608903646,0.2794279934595176,-1.3170221034447098,0.899999976,0.8304109856477191,0.109100342,3.2369042188361594,0.5,0.512003183,-0.06386078338309052,-0.8539090378461905,1.5,1.4595458572574636,0.36890036214377836,1.7358138500690232,0.0,0.029690542033914497,0.8667797225177932,-4.304297902448531
0.218,0.239999995,0.22226349397363082,0.28873383991480733,0.1278006614178499,0.300000012,0.294938773,0.026544628896551726,0.10906362223935091,0.600000024,0.6089145330020285,0.19545925348275864,-1.3005154515395536,0.899999976,0.8307959229736308,0.1111370189208925,3.0267669180588235,0.5,0.512003183,0.08502375195131845,-0.725489053356998,1.5,1.4603138749472617,0.3033888318985801,1.8263922217160242,0.0,0.031227532985801217,0.8420969672150102,-4.154402100332658
0.22,0.239999995,0.22264722753147353,0.22510697239771102,0.15988396566309013,0.300000012,0.294938773,0.0207366291509299,0.11949481634907011,0.600000024,0.6092982675314735,0.1288712217918455,-1.2855779461945636,0.899999976,0.831168413,0.17818008054363377,3.0118707297918457,0.5,0.512003183,0.14322784865879828,-0.7932290499270386,1.5,1.4610701265100143,0.4148072238919886,1.570909327834764,0.0,0.032763422104434906,0.8606988312460657,-4.073052008989985
0.222,0.239999995,0.22304135170423847,0.32516313713134604,0.19837279203353517,0.300000012,0.29494975468863527,-0.008182584518397765,0.09364777635002329,0.600000024,0.6096813826886354,0.1793595562149511,-1.3201809333858874,0.899999976,0.8311794220156031,0.09035271278132279,3.149675475719143,0.5,0.512003183,-0.038600045675826734,-0.7403525661539357,1.5,1.4614651493772706,0.26104818897391713,1.5374602386439218,0.0,0.034307845097112245,0.838088529006055,-4.0325354625442476
0.224,0.239999995,0.22378926105827252,0.2521528910822385,0.2378201286765207,0.300000012,0.29532215,0.03874379178345499,0.08915017041301702,0.600000024,0.610053778,0.08378253518771289,-1.2878310209087591,0.899999976,0.8315549360582725,0.07585383844501216,2.97690445296472,0.5,0.512003183,0.024375287587347933,-0.7913502430648419,1.5,1.4622121320582724,0.45160340928540144,1.608468327056326,0.0,0.036178251174817516,0.8246268484336984,-4.1049140873883205
0.226,0.239999995,0.22418017798166648,0.18559177330144555,0.23204690472276412,0.300000012,0.29532215,0.033277019940651076,0.10166380782853449,0.600000024,0.6100635341734635,0.16569081422223528,-1.2303624749728523,0.899999976,0.8319458529816665,0.13501361252086028,2.998240092167352,0.5,0.512003183,0.14596455271489012,-0.7504917272031966,1.5,1.4626030731988484,0.48590034931813375,1.5792693704228464,0.0,0.03736075814384769,0.7987772138827124,-4.07016345946821
0.228,0.239999995,0.22455824677140776,0.19288663993963318,0.2624207284258472,0.300000012,0.2953177262401312,0.01588863600668043,0.12507325849605247,0.600000024,0.6104425317714077,0.18618438702732903,-1.2598550896147211,0.899999976,0.832319498,0.24961994137070329,3.0636510732276205,0.5,0.512003183,-0.021268431306935506,-0.6918670179588242,1.5,1.4629864955197378,0.19610981629624682,1.368000119305721,0.0,0.03886955028774444,0.6226836784127292,-3.998476218649338
0.23,0.239999995,0.224937201,0.1802739789956005,0.29660998456064214,0.300000012,0.29495021504839475,0.038457166891438764,0.0977487016197384,0.600000024,0.610821486,0.007155394525089179,-1.186201120222711,0.899999976,0.832319498,0.12805270063769322,3.1645136606243756,0.5,0.512003183,-0.07821843997717004,-0.7154262396604043,1.5,1.4637558440483946,0.29468906584149823,1.4576934055548159,0.0,0.040041707617717005,0.6936379611286563,-4.362400819658026
0.232,0.239999995,0.2249478140267739,0.16267846268483613,0.31332976454280226,0.300000012,0.29532215,-0.003196986198823389,0.11504106025381199,0.600000024,0.6108320727102893,0.07350119838107817,-1.1441301539811501,0.899999976,0.832319498,0.04769493643366551,3.196879351987514,0.5,0.5120137960543883,-0.06338406403745948,-0.7371798812302797,1.5,1.4641489787646778,0.4379624493276504,1.3164807776609437,0.0,0.041200811185256335,0.551173643798055,-4.114985749990875
0.234,0.239999995,0.22533471785467746,0.1634697723751488,0.3058110439139491,0.300000012,0.29532215,0.043288381465960486,0.09622830180242799,0.600000024,0.611204863,0.1561402538697929,-1.100638868950488,0.899999976,0.8323326848546775,-0.016921600839919067,3.248006344196977,0.5,0.512387514,0.04059705988002856,-0.6425725119983337,1.5,1.4649086738546775,0.3673603022357772,1.4126140211269937,0.0,0.04273246056403237,0.6403875665642704,-3.9645043447378003
0.236,0.239999995,0.22571753925844576,0.02535782109943894,0.4240862553127611,0.300000012,0.29532215,0.02833679511257013,0.09320854301766743,0.600000024,0.611204863,0.10437871094234213,-1.0787583845043573,0.899999976,0.832702875,0.04373891735907843,3.2485049087355855,0.5,0.512387514,0.0023390916784051573,-0.7168204353550197,1.5,1.465304157948669,0.172256157744658,1.4641108935528233,0.0,0.04388095620711472,0.564908362806494,-4.086053056707532
0.238,0.239999995,0.226088285,0.20935129576216088,0.4071542435928438,0.300000012,0.29532215,0.016508599871141255,0.10130079749321796,0.600000024,0.6112177289025958,-0.059141933559869034,-1.0563308392442703,0.899999976,0.832702875,0.04855656388224976,3.3899735894731053,0.5,0.512387514,0.006375076151309635,-0.7501013267682414,1.5,1.466059437902596,0.2901274928963985,1.5256173159413005,0.0,0.0450327457234565,0.6369835059732226,-4.01397523781174
0.24,0.239999995,0.226088285,0.19471977464710813,0.37918809511998564,0.300000012,0.29532215,-0.015684509258172673,0.09638396484241409,0.600000024,0.61158824,0.1261273274142019,-0.9706013058264878,0.899999976,0.832702875,-0.025312944264638967,3.454693628071249,0.5,0.512387514,0.07965550208322356,-0.819820233699557,1.5,1.4664413341629743,0.2148268159800024,1.6135538259117472,0.0,0.046162278744461736,0.5029659853578015,-4.110873081883009
0.242,0.239999995,0.22609578044243303,0.10437354233671252,0.4255130497523534,0.300000012,0.29532215,-0.020802657771180302,0.09899290909847937,0.600000024,0.6115807445771181,0.04728894944170891,-0.9175374051136858,0.899999976,0.832702875,-0.03310914107892832,3.3866591316560464,0.5,0.512387514,0.049292738653874,-0.7276774829435192,1.5,1.4672042170745836,0.07690915161766836,1.5814502692078205,0.0,0.04731034149746561,0.5151409226828385,-4.128868092346126
0.244,0.239999995,0.226471663,0.096893311,0.4159198321935715,0.300000012,0.29532215,-0.028701782,0.10312792912116142,0.600000024,0.611204863,-0.13625569172051621,-0.880010317789461,0.899999976,0.8326907813773449,0.026014603766280318,3.662699688235034,0.5,0.5123996076226551,0.03399533819416896,-0.8292071518820647,1.5,1.467593127622655,0.33206489300131437,1.782633485715617,0.0,0.04809935096188314,0.522621155,-4.107081496381169
0.246,0.239999995,0.22648467715524023,0.09658329576022415,0.451685811906522,0.300000012,0.29532215,-0.029452018843686655,0.1015885939903422,0.600000024,0.611204863,-0.10932554506653154,-0.8830979612528913,0.899999976,0.832319498,-0.04315006168475021,3.580144912390127,0.5,0.512770891,0.022772746555025633,-0.838128184093478,1.5,1.4679903747696437,0.1798886959309646,1.8412761971094551,0.0,0.049240088769643496,0.5178675882609991,-4.061218924320138
0.248,0.239999995,0.226855993,0.08882665128596973,0.4411671124644177,0.300000012,0.29532215,-0.04808624306901895,0.10497791215782572,0.600000024,0.611204863,-0.01713986378591012,-0.8192840039173919,0.899999976,0.832319498,-0.07814549928596973,3.8082699818205987,0.5,0.5127839154898081,0.0030507054795565623,-0.8515956026570509,1.5,1.4687442219001072,0.35542638046155683,1.844752094458696,0.0,0.05001998487972344,0.3831733929836691,-3.912781685715818
0.25,0.239999995,0.226855993,0.11772849984680751,0.47547193601074,0.300000012,0.29532215,0.03237578778543609,0.10769860631889532,0.600000024,0.611204863,-0.06691905815555294,-0.815746307,0.899999976,0.8323066026329518,-0.10699602298961407,3.8934797728874067,0.5,0.513154268,0.15760074126307091,-0.8994378585137495,1.5,1.469128391367048,0.27881624147196976,1.844030273032928,0.0,0.05117068219013337,0.4109379124717337,-4.089900356174437
0.252,0.239999995,0.226855993,0.05903885269134478,0.5153418611813305,0.300000012,0.29532215,0.07907343504113018,0.11461510385443491,0.600000024,0.611204863,-0.20556427883118739,-0.8128065342932761,0.899999976,0.831936121,-0.049464545379470676,3.8107441099577968,0.5,0.513154268,0.23374106745207437,-0.811701090759299,1.5,1.4695080597879113,0.16176166215808296,1.8743306534306152,0.0,0.0522922357879113,0.44226847617060083,-3.840472028833691
0.254,0.239999995,0.22686514596080296,0.07135409572146335,0.4961452615354555,0.300000012,0.29532215,0.03942176028495071,0.11048582425715643,0.600000024,0.611204863,-0.03670268882123768,-0.6931530742994417,0.899999976,0.8319269680391971,-0.170835645808172,3.8156135713544366,0.5,0.5131634209608029,0.15448813423375699,-0.8717534438736192,1.5,1.4698914029608028,0.17373102329825393,1.884406870701746,0.0,0.052684731921605894,0.27906375871968164,-3.7581435922528805
0.256,0.239999995,0.22723937,0.08649316442414122,0.5002780210688215,0.300000012,0.29532215,0.06460807876252386,0.11208429413036737,0.600000024,0.6111970436456345,0.04482491066746183,-0.6969144838782204,0.899999976,0.8315449051878578,-0.2600737126473044,3.885105773757872,0.5,0.513537645,0.2599811794838979,-0.9168909087306775,1.5,1.4702734463543656,0.12874164526777196,1.9296078381439647,0.0,0.05344883816650763,0.3624952406221374,-3.8116965398895517
0.258,0.239999995,0.22723937,0.024226819065992295,0.4943651410836946,0.300000012,0.29532215,0.0003666189023362234,0.10866400710223988,0.600000024,0.610821486,-0.0731434317091763,-0.7054199702678227,0.899999976,0.8311603336436657,-0.18298947696604045,3.977938966447736,0.5,0.513545744461103,0.10365447550216762,-0.9714885995732176,1.5,1.4706571034611031,0.19765580807791425,1.8673446077365123,0.0,0.0542089673563343,0.22187605288330925,-3.8079353508953515
0.26,0.239999995,0.22725128323293892,-0.08761293225110554,0.567873493111151,0.300000012,0.29532215,0.04034862043994263,0.10551721563798255,0.600000024,0.610821486,-0.025181287226843554,-0.6846500574459184,0.899999976,0.830773093122027,-0.21158369374614558,3.9986627728085335,0.5,0.513921976,0.06498353014043266,-0.9108005710656149,1.5,1.471045248232939,0.09866011359435879,1.8109244791572845,0.0,0.054608121110911914,0.2859164465411737,-3.77920499780447
0.262,0.239999995,0.227622747,0.01288081269377534,0.5146256580870499,0.300000012,0.29532215,0.026890815374910566,0.11156872172334843,0.600000024,0.610808593966134,-0.003865745416646793,-0.707652507244932,0.899999976,0.8303878129997615,-0.17038240564345336,4.2458713340887195,0.5,0.5139348680002385,0.11621662146410684,-0.9967289820429287,1.5,1.4714424960004768,0.2521681683062247,1.8946097478585737,0.0,0.05536486500023849,0.2774883327774863,-3.6492652827088
0.264,0.239999995,0.227622747,0.05324141939277223,0.5749935419158345,0.300000012,0.29532215,0.030146078223014745,0.107027054,0.600000024,0.610438108,-0.06995384917641465,-0.7053884758207323,0.899999976,0.8300043525221114,-0.14011222161531145,4.338898030439372,0.5,0.514305353,0.09951335248834998,-0.9899416721640514,1.5,1.472183466,0.2135384872853067,1.8518294251421779,0.0,0.055748293303376134,0.20832546671326677,-3.497296549718973
0.266,0.239999995,0.227622747,0.02736909698817063,0.5708159000837615,0.300000012,0.29532215,-0.04230043143792568,0.10693378375230016,0.600000024,0.61042612208412,-0.03709758267821723,-0.6921482566275541,0.899999976,0.829632998,-0.3228823620585494,4.175793893402199,0.5,0.514305353,0.04072751136145298,-1.0359287925228822,1.5,1.4722074081421914,0.2894252835658979,1.8428690375270642,0.0,0.05613068319512487,0.29407481121997847,-3.58036850279675
0.268,0.239999995,0.227622747,0.04989995388739115,0.5736418528239293,0.300000012,0.29532215,0.004767321896695694,0.10373665224060598,0.600000024,0.6100409728514852,-0.04539589896480973,-0.7190024907159728,0.899999976,0.8296073876695694,-0.14171442602982226,4.19436591067458,0.5,0.5143181581485149,-0.03899933909626625,-0.9497877814648694,1.5,1.472963979148515,0.28391984122688774,1.8387095467264702,0.0,0.056502104,0.20741677258403912,-3.4556906031742813
0.27,0.239999995,0.227622747,0.10143694979816514,0.5922463097522936,0.300000012,0.29532215,0.0076006169187418085,0.095500928344692,0.600000024,0.609670401,-0.13363336728309305,-0.6741935405714287,0.899999976,0.8288531790393184,-0.24518535702490168,4.388944230912189,0.5,0.51468873,0.13317211657142858,-1.0132419688204457,1.5,1.4733476149606815,0.29270338631585846,1.8204490345373525,0.0,0.05651516796068152,0.13606788694102226,-3.4227431406408915
0.272,0.239999995,0.22763560985710884,0.05507024963081499,0.5470494535819155,0.300000012,0.29532215,-0.10037425137394408,0.10822557949101724,0.600000024,0.609670401,-0.18918677403164783,-0.6579069966834027,0.899999976,0.8284571082776918,-0.21370301905698988,4.275763047316597,0.5,0.51468873,0.07918712467495538,-1.0045234733583581,1.5,1.473717928,0.19822811904223678,1.802749494947412,0.0,0.05689837586519929,0.07755885477977395,-3.473139097643902
0.274,0.239999995,0.228006124,-0.006866455,0.5304534594756808,0.300000012,0.29532215,0.03733591594446426,0.11798734611880128,0.600000024,0.609670401,-0.07179371470008324,-0.6487895693559281,0.899999976,0.8277030763131169,-0.3252500114197883,4.292232032288262,0.5,0.5147008116868831,0.05129640490105839,-0.9684001146479961,1.5,1.473742121437983,-0.05426711777143537,1.7511996966617909,0.0,0.057269812,0.048065186,-3.2148708473348795
0.276,0.239999995,0.228006124,-0.006646263984568264,0.5746345868651196,0.300000012,0.29532215,-0.03471365531947226,0.11341108360996584,0.600000024,0.6096593364028743,0.00010522400318058655,-0.695847923242078,0.899999976,0.8273096518057487,-0.31071178305889974,4.475573116468017,0.5,0.515072107,0.009477830940275652,-1.0006375100806926,1.5,1.4744967005971257,0.14480804935481212,1.7448461348453292,0.0,0.0572808765971257,0.05119200873118153,-3.2681420318944516
0.278,0.239999995,0.228006124,0.003034156849725472,0.557278567588446,0.300000012,0.295328785195154,0.06787332638935308,0.1125073085210074,0.600000024,0.609287024,-0.03011849013487706,-0.7271901817063738,0.899999976,0.8265583752937455,-0.36750003879004534,4.595657953616137,0.5,0.515072107,-0.0014848336301026494,-1.011439863048341,1.5,1.474869013,0.1603776454450943,1.7702797963444736,0.0,0.057653189,0.15648562921389353,-3.1246077961859635
0.28,0.239999995,0.228006124,0.12780598164172013,0.5418934517201236,0.300000012,0.295698467908173,0.06095263065217391,0.10818292240686624,0.600000024,0.609287024,-0.1960174808370159,-0.6907184218136136,0.899999976,0.826166577816346,-0.3119812286987408,4.688049196596222,0.5,0.5150791836577572,0.21429474870539322,-1.020352537906985,1.5,1.474876072091827,0.1666884634691138,1.799891250909242,0.0,0.057653189,0.15789342049560465,-2.9730783737953193
0.282,0.239999995,0.228006124,-0.09387812099782135,0.5848117902592592,0.300000012,0.29532215,0.008329803191721132,0.10142072911111111,0.600000024,0.6092811772766885,-0.08558074684313725,-0.7592508904400872,0.899999976,0.8254022340501089,-0.3884501322745098,4.606892865941177,0.5,0.515456438,0.04774943035294118,-1.0920024200479304,1.5,1.4752582512570807,0.027324260814814816,1.7482151953006535,0.0,0.057653189,-0.006563938699346405,-3.064526368577342
0.284,0.239999995,0.22801770355667145,0.00564487593543759,0.5705156691047345,0.300000012,0.29532215,-0.005999857037302726,0.09800339577761835,0.600000024,0.608903646,0.004320185978479197,-0.6586066124476326,0.899999976,0.8246346841563845,-0.2955459802912482,4.664615775836442,0.5,0.515456438,0.12381990625968436,-1.0512342635078908,1.5,1.475636721,0.2668354794691535,1.775741243209469,0.0,0.057653189,0.014900853631276901,-2.845363140598278
0.286,0.239999995,0.22837776914597235,0.10828885544053861,0.5645074764366063,0.300000012,0.29532215,0.011415214398474737,0.096345901,0.600000024,0.608903646,-0.005417815469613918,-0.6674486430301477,0.899999976,0.8242375482704958,-0.2647552035395615,4.853625998297068,0.5,0.5154690923647521,0.05938618155255005,-0.9956035924412535,1.5,1.4756493753647522,0.027338314292540515,1.736081464652407,0.0,0.057640534635247855,0.06925008477776455,-2.961043705683865
0.288,0.239999995,0.22801841900221834,-0.048956483678925855,0.60594787836007,0.300000012,0.29532215,0.007351449870286048,0.09657825504740222,0.600000024,0.6088913510297723,-0.04836168563152364,-0.6167282415788675,0.899999976,0.8234838080297723,-0.5214892277542323,4.923352535501343,0.5,0.515839815,0.12234511327425569,-1.080187384819381,1.5,1.476020098,0.10373491465113836,1.8205571547481612,0.0,0.057269812,-0.1568220888558085,-2.8537055460056044
0.29,0.239999995,0.228390455,-0.028442931361317366,0.5745537764268264,0.300000012,0.29532215,0.031208265385508978,0.1035445631673054,0.600000024,0.608519316,-0.06327659441353294,-0.6887228640898203,0.899999976,0.8231073193873054,-0.1650993437302994,4.785127345092215,0.5,0.515839815,0.10596141711293412,-1.0039736847057485,1.5,1.476024551601078,0.09258476123988023,1.7512603435282634,0.0,0.057269812,-0.07817365338826347,-2.8527186343663473
0.292,0.239999995,0.228390455,0.08328560788222517,0.6168707301023288,0.300000012,0.29532215,-0.012605028438156148,0.0981670722473754,0.600000024,0.608519316,-0.1732836453060215,-0.631230482464583,0.899999976,0.8227158116110775,-0.2566152355850127,4.965073198486786,0.5,0.515839815,-0.031731266343188125,-1.0352975786233862,1.5,1.476403475,9.684636454688057e-05,1.7363613755354168,0.0,0.05726350464920961,-0.173366362018704,-2.856853904724991
0.294,0.239999995,0.228390455,0.09005371190409484,0.5511515386576867,0.300000012,0.29532215,-0.013852777105962645,0.10515754487715517,0.600000024,0.6085084371267959,-0.007439590467313219,-0.6533788720840518,0.899999976,0.8219507350840517,-0.3151619355506466,4.752294737816451,0.5,0.515839815,-0.056711284691451154,-1.0885066326584052,1.5,1.476414353873204,0.09821896212284484,1.7108355551580459,0.0,0.056885481,-0.1784597389619253,-2.7094443982165948
0.296,0.239999995,0.228390455,0.06255676018576369,0.5939841075255753,0.300000012,0.29532215,-0.02088265280767855,0.11420648924466437,0.600000024,0.608135939,-0.08722749172850841,-0.5489468865391677,0.899999976,0.8215647861911292,-0.21181707482961729,4.793647808171456,0.5,0.5158523397762013,0.014864265867294623,-1.0246120486822463,1.5,1.476786852,0.1255574639244068,1.6989645832245142,0.0,0.05687295622379874,0.003676063620484082,-2.547519474227972
0.298,0.239999995,0.228390455,-0.008549281357142856,0.5680855448928571,0.300000012,0.29532215,0.02953909692142857,0.11123542800142856,0.600000024,0.6081233423271428,-0.1671937673,-0.5651286529099999,0.899999976,0.8211687396542857,-0.18543297893857144,4.813636684405714,0.5,0.516223192,0.07180568138,-1.06027596586,1.5,1.4767994800185715,0.05524291983428571,1.6654049460114284,0.0,0.056502104,-0.09449998591714286,-2.588605390651429
0.3,0.239999995,0.228390455,-0.09578266511174785,0.6174597314297994,0.300000012,0.29532215,-0.03214143710601719,0.097177134252149,0.600000024,0.607752562,-0.17271303651862463,-0.5726162052836676,0.899999976,0.8204150654469914,-0.3204799199512894,4.714310599323783,0.5,0.5162352755157593,0.09660474935530086,-1.0469824239226362,1.5,1.477171183,0.006393011902578796,1.7193791847936963,0.0,0.056490020484240684,-0.2006305380687679,-2.5766295735759313
0.302,0.239999995,0.228390455,0.12175674601418694,0.5685398936151645,0.300000012,0.29532215,0.044510586520743925,0.10943532985228899,0.600000024,0.607752562,-0.10449260565236052,-0.5836993150149022,0.899999976,0.8200301886007392,-0.29730534783047213,4.728323337002981,0.5,0.516606569,0.0868814128158083,-1.0631964688900812,1.5,1.477183843399261,0.1527217308357177,1.6922150588166427,0.0,0.05610606660073915,-0.11038222063292799,-2.530126645517406
0.304,0.239999995,0.228390455,-0.0037712925472120707,0.600410461,0.300000012,0.29532215,-0.051457660535305906,0.10508613840044795,0.600000024,0.607752562,-0.04509251835081929,-0.5474968829573265,0.899999976,0.8196344347331133,-0.2684432925770364,4.645240461231168,0.5,0.516619118768596,0.06488739236201815,-1.0733595027845102,1.5,1.47755456,0.05984318724213132,1.7265505733865378,0.0,0.05573535,-0.23628147794082283,-2.38452651306236
0.306,0.239999995,0.228390455,-0.13698834209191646,0.5997069156749095,0.300000012,0.29532215,-0.008965338885687624,0.11064426818359967,0.600000024,0.6077443783800304,-0.033314281460982156,-0.62772790032719,0.899999976,0.8188845130585559,-0.2867851288674909,4.799132404634434,0.5,0.5169909,0.15849098176472648,-1.153241604140091,1.5,1.47755456,0.10781315045375015,1.6964657651925814,0.0,0.05572716640137642,-0.20350317025813602,-2.4123137436373496
0.308,0.239999995,0.228390455,-0.08621820998856876,0.5674553215099731,0.300000012,0.29532215,0.01862769180811851,0.10019236190610055,0.600000024,0.6073692287192347,-0.00763245636906567,-0.5703880001293596,0.899999976,0.8185084318302811,-0.24796376465099731,4.935666021685058,0.5,0.5169909,0.2540512618592092,-1.1123858511577045,1.5,1.47755456,0.19561102416691942,1.778886507141024,0.0,0.05535201771911816,-0.05418650010241455,-2.32200554607302
0.31,0.239999995,0.228390455,0.01722007969978245,0.5502172556683587,0.300000012,0.29532215,0.014692731011360888,0.1031627332446217,0.600000024,0.607369184,-0.010966059358955766,-0.6433814874024656,0.899999976,0.8181181523894127,-0.23599775147739907,4.9875557656654586,0.5,0.5169943288008219,0.08881356595213923,-1.1950868573937636,1.5,1.47755456,-0.1509024820988639,1.7082712645366207,0.0,0.054964213199178144,-0.18593033387067925,-2.179418161477399
0.312,0.239999995,0.228390455,-0.020381382218045113,0.5885733119323308,0.300000012,0.29532215,0.02369667005263158,0.10107452038345864,0.600000024,0.6073605149022556,-0.10858707820300753,-0.6160336260451128,0.899999976,0.8173496073984963,-0.2623918862857143,5.013464103263158,0.5,0.517374277,0.038909912,-1.2287407492406015,1.5,1.47755456,0.06798722664661655,1.7951693140827067,0.0,0.05457561739849624,-0.24483854235338345,-2.2056470883609025
0.314,0.239999995,0.228390455,-0.07520425482662019,0.5992856742165444,0.300000012,0.29532215,-0.019086510079716245,0.10222563396909944,0.600000024,0.606984854,-0.040806307089695806,-0.6122337455440664,0.899999976,0.8169566014358542,-0.2271417232386678,5.006022639635926,0.5,0.5173834039262956,0.0371299339949501,-1.2236083900722616,1.5,1.47755456,-0.014706522817842974,1.7874846986289528,0.0,0.054191761073704464,-0.23989401257412526,-2.164079227285079
0.316,0.239999995,0.228390455,0.00164471922235434,0.5996947092116528,0.300000012,0.29532215,-0.03711886417241379,0.09823320154458977,0.600000024,0.606984854,-0.07273202074197384,-0.6724122689322235,0.899999976,0.8161948618204519,-0.25061173514982166,5.097079321357907,0.5,0.5177699621795481,-0.030420386971462546,-1.1900297883662307,1.5,1.47755456,-0.02652555661117717,1.839556277394768,0.0,0.05380517219262782,-0.15838042864209273,-2.2165820819334128
0.318,0.239999995,0.228390455,0.025410994628229662,0.6404982278441388,0.300000012,0.29532215,-0.016934002984569377,0.10330364718421053,0.600000024,0.606984854,-0.01110971267416268,-0.5465229165962919,0.899999976,0.8158009270857656,-0.28394396138935407,5.087344635058254,0.5,0.518141031,0.1323819096742823,-1.2084335759894735,1.5,1.47755456,0.06589777080813397,1.8465362802223684,0.0,0.05342176123528708,-0.1304336068778708,-2.0842142350412676
0.32,0.239999995,0.228390455,-0.06365436599344224,0.5164224913566233,0.300000012,0.29532215,0.004507844672230834,0.09376346933134613,0.600000024,0.6069721920912126,-0.007244194207106236,-0.5386383182051985,0.899999976,0.815056086,-0.2572711113222845,4.874993411251698,0.5,0.518141031,0.09183973530893048,-1.0811374729672112,1.5,1.47755456,0.056587482862286875,1.8437089435929415,0.0,0.05303714109121259,-0.2753521836677,-2.0330868218862523
0.322,0.239999995,0.22840320073200668,0.01663048046973308,0.5683618507897997,0.300000012,0.29533489573200666,-0.02390603138560534,0.10564588657709724,0.600000024,0.606601477,-0.06874442486415634,-0.35676230348510485,0.899999976,0.8150433402679933,-0.08640720149368446,4.90538113047724,0.5,0.518141031,-0.010480235467469018,-1.0976998592900382,1.5,1.47755456,0.09404216778527169,1.8652602777681124,0.0,0.05265368026799333,-0.18559701891956626,-2.0280493531713537
0.324,0.239999995,0.228773832,0.03404084079754601,0.6257671514725084,0.300000012,0.29569332319458275,0.025322427471698113,0.10272739247910638,0.600000024,0.6065892731945827,-0.10742141553073271,-0.269069341817803,0.899999976,0.814648301357333,-0.18276335976791297,5.078963014391481,0.5,0.518141031,0.01599329117930316,-1.054538135167612,1.5,1.4775667638054173,0.03015546765424239,1.870147670649265,0.0,0.05225861102106725,-0.2356063888828568,-1.8491698754414863
0.326,0.239999995,0.228773832,0.025056591498603863,0.5950340141391283,0.300000012,0.29532215,-0.046642772971105986,0.10189361735607624,0.600000024,0.6062181,-0.1352336798544373,-0.2937491568081826,0.899999976,0.8139047875255554,-0.2417537351920602,5.092817279555421,0.5,0.518141031,-0.031280518,-1.0663451052277528,1.5,1.477936773417992,-0.06439955440864392,1.7497995236777952,0.0,0.05151301383598397,-0.23127172363457568,-1.8034057894415443
0.328,0.239999995,0.228773832,-0.014753468276737809,0.6322834541800406,0.300000012,0.29532215,0.013497478571479671,0.09998928601061166,0.600000024,0.6062100091774174,-0.14975112467151544,-0.24660465804626208,0.899999976,0.813521624,-0.20590323540169309,5.099469732023489,0.5,0.518141031,-0.029090762594968404,-1.0992152023420771,1.5,1.4775626508225825,-0.06561960877989746,1.8144354291997138,0.0,0.05074047604411589,-0.2675331127266007,-1.7948057015242638
0.33,0.239999995,0.228773832,-0.024369547982698962,0.582340370583224,0.300000012,0.29532215,-0.037230780847989496,0.11013650450530964,0.600000024,0.6058265603800262,-0.22726148991098916,-0.17693392529960625,0.899999976,0.8135134816415702,-0.09902954956568429,5.003492213254146,0.5,0.518141031,0.07108572966638825,-0.9997798354526906,1.5,1.477937937,-0.03691439886063715,1.7631590052614246,0.0,0.05034797128314044,-0.4652588777425128,-1.800723832215726
0.332,0.239999995,0.22876532572277228,0.08028265390647739,0.61024940458726,0.300000012,0.29532215,-0.0123427076245974,0.09607980879028988,0.600000024,0.605450392,-0.0851683452643445,-0.18768692,0.899999976,0.8131297407005845,-0.26545951027782416,5.087765656214959,0.5,0.518141031,0.006832599161517356,-1.07561419875498,1.5,1.477937937,-0.0066281658737921976,1.7142784271178575,0.0,0.049588995722772276,-0.3508410166230467,-1.7233591770580938
0.334,0.239999995,0.22839932241163716,-0.047598102622696065,0.6080500688012287,0.300000012,0.29533101741163714,-0.0011845109490422842,0.10305337180231297,0.600000024,0.6054415245883628,-0.2181047513693531,-0.18798338277990603,0.899999976,0.8127371121340803,-0.16836867536610048,4.961472847609685,0.5,0.518141031,0.007352287699313335,-1.0513522666187205,1.5,1.477937937,0.06447870066461872,1.7711485947462955,0.0,0.04919636811095048,-0.2462132269508493,-1.5873867840263824
0.336,0.239999995,0.228773832,-0.08875505020014136,0.6056869786242195,0.300000012,0.295705527,0.01583217912368948,0.09790847793591707,0.600000024,0.605054414907763,-0.1118037684761456,-0.2011662781393568,0.899999976,0.811974561907763,-0.4116972359104724,4.888652425647662,0.5,0.518141031,0.0868995138824361,-0.9793741955523618,1.5,1.477937937,0.062338923728707744,1.7527199499948167,0.0,0.048421216815525976,-0.3083358230167276,-1.7403356876814702
0.338,0.239999995,0.228773832,0.017734363853129143,0.5990272681262511,0.300000012,0.2956972520110937,0.1089781963976848,0.10612645258856868,0.600000024,0.604683638,-0.139234259622935,-0.22017163686989027,0.899999976,0.811603785,-0.2898603638719402,4.832347753509948,0.5,0.5181493265804895,-0.06895517243060412,-0.9781976822170505,1.5,1.477937937,-0.10072039376787653,1.737098252731822,0.0,0.047671367419510426,-0.5082290882543109,-1.6568712148878573
0.34,0.239999995,0.228773832,0.09062762109423714,0.5870524981225791,0.300000012,0.29532215,0.002869963800661314,0.10436811775531411,0.600000024,0.604683638,-0.017570888345772317,-0.1984362574789797,0.899999976,0.811591379996221,-0.24789558571846956,4.926282162044402,0.5,0.5185129261598961,0.0864943413615966,-1.021621040989608,1.5,1.477937937,0.12656799704770902,1.7521414826601323,0.0,0.04727052205715636,-0.2732172264367029,-1.4383659918034954
0.342,0.239999995,0.228773832,-0.049056323260298504,0.6152043789665671,0.300000012,0.29532215,-0.044320241796417914,0.11403159370328358,0.600000024,0.6046747116101493,-0.0038386561056716418,-0.19177536510089552,0.899999976,0.8112114806101492,-0.1075726411480597,4.841889226283582,0.5,0.518141031,-0.04345384292298508,-1.0335594885671642,1.5,1.477937937,-0.09168559484,1.7734884350155224,0.0,0.04651965161014925,-0.3423486395976119,-1.4612678229719402
0.344,0.239999995,0.228773832,0.03999844394582393,0.6355505915959367,0.300000012,0.29532215,0.0597530393476298,0.10336218894130925,0.600000024,0.604300261,0.022462406146726864,-0.2088866477404063,0.899999976,0.8108274868171557,-0.045268315112866817,4.826657250311512,0.5,0.518141031,-0.10343426775846501,-1.0000401966365688,1.5,1.477937937,0.042852053248307,1.7768834115169299,0.0,0.04613568148081264,-0.2682605600361174,-1.4411526202121896
0.346,0.239999995,0.228773832,0.1390294093899409,0.5918599153478471,0.300000012,0.29532215,0.013617444997105295,0.11024095901254373,0.600000024,0.604300261,-0.15969154391231458,-0.18004225055083825,0.899999976,0.8104527,-0.11576710344313111,4.900862884473767,0.5,0.518141031,-0.0008623208188397058,-1.0311313140521048,1.5,1.477946260225184,0.012445142263297551,1.7671571308838498,0.0,0.04574515683801713,-0.22798817737691474,-1.4490515742359185
0.348,0.239999995,0.228773832,-0.02417831021848146,0.6022841508716892,0.300000012,0.29532215,0.013053690029782225,0.1005841821783402,0.600000024,0.6042876837171277,-0.05450438537304297,-0.24948991967027664,0.899999976,0.810440153936904,-0.14124748315197175,4.8200499969515,0.5,0.518141031,-0.00404227669711595,-0.9839128478208359,1.5,1.478308767936904,0.03590760436845203,1.6546773234587404,0.0,0.04496902387380812,-0.28564035250005887,-1.3224034275193643
0.35,0.239999995,0.228773832,0.004272111590389016,0.5926974056910755,0.300000012,0.29532215,-0.03165158243935927,0.08704232430434783,0.600000024,0.60391593,-0.0877060748375286,-0.28792564198398174,0.899999976,0.810069323,-0.14262802125171625,4.905332840034324,0.5,0.518141031,0.03379804280549199,-0.987146896951945,1.5,1.477937937,0.005509226100686499,1.771081876389016,0.0,0.04421155108009153,-0.1398382210594966,-1.3252505597597253
0.352,0.239999995,0.228773832,-0.0475136525334832,0.5904187782336725,0.300000012,0.29532215,0.020005529430194038,0.09174920017581638,0.600000024,0.60391593,-0.11931510915522953,-0.1798678922891623,0.899999976,0.8100576656539281,-0.0697112258419309,4.721465896864766,0.5,0.518152717354354,0.01242902436441079,-1.0393033117399433,1.5,1.477949594346072,-0.00449077756519167,1.7467662180331283,0.0,0.04343633930785613,-0.2920599619744439,-1.2039904052072883
0.354,0.239999995,0.228773832,-0.07706633776197283,0.5519690526904932,0.300000012,0.29532215,0.03114113753562068,0.09553813437502978,0.600000024,0.6039070694879676,-0.0239245305899452,-0.223704206281868,0.899999976,0.809685946,-0.12639190876816772,4.8940307972311174,0.5,0.5185164794393614,0.13829100197259947,-1.0200518484529426,1.5,1.478321314,0.11144192253752681,1.7154442010688586,0.0,0.042675156927329046,-0.19392550035072673,-1.078011862033119
0.356,0.239999995,0.228773832,-0.01054746372624912,0.5480152370297912,0.300000012,0.2953306035392916,0.00630175151513019,0.11510093291531785,0.600000024,0.603532553,-0.12134443611118931,-0.2739625401728829,0.899999976,0.8096774924386582,-0.08410257026882477,4.760496304132536,0.5,0.518141031,0.018287817552193292,-0.9734275110281493,1.5,1.478321314,-0.039408766322308234,1.742517488722965,0.0,0.04190828492141684,-0.36487812628618344,-1.1098288446401594
0.358,0.239999995,0.228773832,0.09684700069947631,0.5633503680476077,0.300000012,0.2957031999079981,-0.004568537758985956,0.0943549000920019,0.600000024,0.603532553,-0.20962432156807903,-0.20214641198357533,0.899999976,0.809302568,-0.12527750491859083,4.8353999400089265,0.5,0.5181433638827659,0.05130218418995477,-1.0471415189745297,1.5,1.478321314,0.03978167134277553,1.7527614147846942,0.0,0.04115377802523209,-0.5410682489122828,-1.0452110002921924
0.36,0.239999995,0.228773832,0.08906385880840664,0.6111534100762464,0.300000012,0.29532215,-0.010683613619012707,0.1181084097877566,0.600000024,0.6035308197462121,-0.003959006769916911,-0.1712570973714565,0.899999976,0.809302568,-0.025515029668866082,4.785212396433407,0.5,0.5185236244331622,0.08140686971566471,-0.9783130094426931,1.5,1.478321314,0.0077646060657380256,1.6714187463206256,0.0,0.04038726349242424,-0.31332358313819647,-1.0195246272237293
0.362,0.239999995,0.228773832,0.045013428,0.5594817121610691,0.300000012,0.29532215,-0.03353376606433302,0.11179941698651845,0.600000024,0.6031601477637181,-0.000267154218543046,-0.18161732891367077,0.899999976,0.8092915689626301,-0.10239062550094608,4.798514006208372,0.5,0.5181520300659886,0.030363474883396406,-0.9714748274325923,1.5,1.478321314,0.03820038553145695,1.7909246458178807,0.0,0.03960200517029328,-0.2609110624302271,-0.8951993599917218
0.364,0.239999995,0.228773832,0.042051042299773356,0.624465710007038,0.300000012,0.2953301532178218,0.00816277908063939,0.10004927834128594,0.600000024,0.6035165465643564,0.05826775850554695,-0.16136411702135275,0.899999976,0.808918238,-0.18421951843802936,4.913934530496004,0.5,0.5185173388668735,-0.0011770359283072886,-0.9987860446100442,1.5,1.478321314,0.05911181664559227,1.7028711946266253,0.0,0.03884026156435644,-0.34015211709543125,-0.9416526025006561
0.366,0.239999995,0.228773832,-0.09299582397400429,0.6193466966627712,0.300000012,0.29569729806367756,0.03615316619580253,0.11305975213093251,0.600000024,0.602765799,-0.1689205550002385,-0.13011503214643455,0.899999976,0.8089100090636775,-0.13057818160410206,4.822509229981397,0.5,0.518141031,-0.02020634109587408,-0.9791495467669925,1.5,1.478321314,-0.017675522171237776,1.7446172240732172,0.0,0.03807303565036966,-0.4397843716143573,-0.8162692911731457
0.368,0.239999995,0.228773832,0.08344314027096619,0.6312243766020936,0.300000012,0.29533059158236075,0.008914979510768861,0.0961350283561545,0.600000024,0.602765799,-0.03524635276765732,-0.17480556138334735,0.899999976,0.808534861,-0.20352101242124895,4.8696150436146075,0.5,0.5181494935884972,-0.0004745074040428351,-1.0168382619684757,1.5,1.478321314,-0.056675853482493085,1.767668095923475,0.0,0.037304922835278545,-0.34942026207664545,-0.7418275260321261
0.37,0.239999995,0.228773832,0.027423364141390016,0.6316675974373059,0.300000012,0.295705527,0.024016827497969906,0.1052412033226654,0.600000024,0.602765799,0.034762647624074515,-0.09160368201791258,0.899999976,0.808534861,-0.1238139914093623,4.765358192142584,0.5,0.518513429105326,0.07551314908550275,-1.06525627217626,1.5,1.478321314,0.013987138013135897,1.7576627450948172,0.0,0.036531215830905184,-0.3157610761721997,-0.8214383644330069
0.372,0.239999995,0.228773832,0.004916380033317581,0.5799728217946597,0.300000012,0.29569307087110114,0.0030666918295132323,0.09010594376654064,0.600000024,0.602765799,-0.10887033838067108,-0.12093224939957467,0.899999976,0.808534861,-0.01263393141989603,4.76197348414095,0.5,0.518141031,-0.06938891029111531,-1.0000705687133742,1.5,1.478321314,-0.012188292013114367,1.7790021188833884,0.0,0.03576243174220227,-0.3400297561461484,-0.6871466959195416
0.374,0.239999995,0.228773832,0.08312401757272293,0.6258661984058178,0.300000012,0.29532215,-0.010718415391988555,0.1078611718464473,0.600000024,0.6027566578936576,-0.10506746549117787,-0.09805145399952313,0.899999976,0.808534861,-0.0461732998769671,4.694270891338102,0.5,0.5181501948292799,-0.10858443949117787,-0.9921846841130186,1.5,1.478321314,0.10314647345493562,1.7272338707901764,0.0,0.035002285088221265,-0.44465361746447307,-0.5867291564120172
0.376,0.239999995,0.228773832,0.07841032294681861,0.6318342488414056,0.300000012,0.29533125201804367,-0.014608399205128205,0.1067633218300095,0.600000024,0.602382421,-0.046298904657169994,-0.17613545166286798,0.899999976,0.8085257589819563,0.027078101855650523,4.753692378899335,0.5,0.518525362,0.10048847217853751,-0.9737967465963913,1.5,1.478321314,-0.030050639709401708,1.7112777249990503,0.0,0.03423467796391263,-0.37349212247388414,-0.5676048472051282
0.378,0.239999995,0.2287812792810219,-0.052775577522251,0.5699373793966329,0.300000012,0.295705527,0.06746926672239228,0.09614274040440311,0.600000024,0.602382421,-0.05368363152743113,-0.15254118989392512,0.899999976,0.8081589312810219,-0.14329462002295737,4.853474081976925,0.5,0.5185178961870732,0.1220033060987756,-0.9674041329397222,1.5,1.478321314,0.15132425603108077,1.7174941306584648,0.0,0.03347121490605133,-0.26616656940487404,-0.6172518529027549
0.38,0.239999995,0.229154476448325,0.018026143507483963,0.6397770954746971,0.300000012,0.29570279444832503,0.04115497676336422,0.10737816919458304,0.600000024,0.602382421,0.023405424179615112,-0.13479514993014968,0.899999976,0.808534861,-0.020980019041339986,4.530422017755524,0.5,0.518141031,0.07912981832430506,-0.9697544809322879,1.5,1.478321314,0.10228928992017106,1.7608859579009266,0.0,0.032712954896650034,-0.33763796544975055,-0.5243150648973628
0.382,0.239999995,0.228773832,0.08434386840649909,0.6134970573776823,0.300000012,0.29532215,-0.047947447109748624,0.09679043692826488,0.600000024,0.602382421,-0.15891054090312692,-0.1637484900766401,0.899999976,0.808534861,-0.0734325715812385,4.550201961450644,0.5,0.518141031,-0.057282205172900065,-0.9969315799423666,1.5,1.478321314,0.024636161330472105,1.8024508129914163,0.0,0.031947431475168604,-0.28967430357265483,-0.4840038818129982
0.384,0.239999995,0.228773832,-0.012098316480286739,0.5888556425577061,0.300000012,0.29533424217777776,-0.074268726590681,0.10154023429749104,0.600000024,0.602382421,0.03027015570609319,-0.12535612271612903,0.899999976,0.808534861,0.07739924996630825,4.592797210189247,0.5,0.518141031,-0.07106931411684589,-0.9722757642917563,1.5,1.478321314,0.0031950477663082438,1.736452615106093,0.0,0.030776396644444443,-0.42968692621792115,-0.49603010603225806
0.386,0.239999995,0.228773832,-0.12224731944767582,0.6389402782455305,0.300000012,0.295705527,0.04054139468462455,0.10352292287461264,0.600000024,0.6023695031144218,0.030115066147318233,-0.066833496,0.899999976,0.808534861,-0.0499246114965435,4.688912729506078,0.5,0.518141031,0.01599626657353993,-0.9896017594288439,1.5,1.478321314,0.03619792112705602,1.7831123404927294,0.0,0.03000802322693683,-0.4324789942991657,-0.45973020235589984
0.388,0.239999995,0.228773832,-0.014149887074985216,0.6398221276428149,0.300000012,0.29569278555269074,0.004331039552927262,0.10060539506469544,0.600000024,0.601998091,-0.025532438931401537,-0.06938951959219397,0.899999976,0.808534861,0.027366651933530453,4.635027901709994,0.5,0.518141031,-0.07065360741797752,-1.0270957602356003,1.5,1.478321314,0.0482443748807806,1.7966646002865758,0.0,0.02924063610538143,-0.38752339147806036,-0.394966125
0.39,0.239999995,0.228773832,0.081877979699679,0.6032851151087861,0.300000012,0.2953319497925336,-0.0018710184086315538,0.0881276852842706,0.600000024,0.601998091,-0.03074663185530853,-0.14355438803982878,0.899999976,0.808534861,0.003653963503507312,4.549691379078944,0.5,0.518141031,-0.017469598706693616,-0.9746868010789442,1.5,1.478321314,-0.01221766254714065,1.7303414903074545,0.0,0.028479741029009627,-0.4506755379277137,-0.3957524488122697
0.392,0.239999995,0.228773832,-0.026762853089668158,0.5876984863120734,0.300000012,0.295705527,-0.015018149596846317,0.10053148495975524,0.600000024,0.601998091,-0.00541882756719228,-0.13443154144998823,0.899999976,0.808534861,0.055487729868674986,4.5353522567076965,0.5,0.518141031,-0.012427348573782065,-0.962110041917863,1.5,1.478321314,0.02009896742386444,1.8338693420353023,0.0,0.02770567145610732,-0.3841109242339374,-0.4244370129301012
0.394,0.239999995,0.228773832,-0.09441066668758377,0.6080675585357621,0.300000012,0.295705527,0.010615080680760326,0.09695462477446083,0.600000024,0.601998091,-0.04135847640575119,-0.04933778125819423,0.899999976,0.808534861,0.04701768965115146,4.516675261729012,0.5,0.518141031,0.07657850234884855,-1.019440286449007,1.5,1.478321314,-0.07343122654051419,1.8352516301620567,0.0,0.026573761924942124,-0.4003366573683441,-0.3683840173695626
0.396,0.239999995,0.228773832,0.0028952321248655755,0.605428807429442,0.300000012,0.295705527,0.015682784177440554,0.11424577243398255,0.600000024,0.6019859973773449,0.00164913065623133,-0.12949749418592424,0.899999976,0.8085469546226551,0.0954300897370056,4.475037518785279,0.5,0.518141031,0.029850906636276736,-0.956385492465169,1.5,1.478321314,-0.0013660887205161907,1.7968198389226908,0.0,0.025789630754689926,-0.5254515695148764,-0.344740653183415
0.398,0.239999995,0.228773832,0.11179693931232877,0.6252866731717689,0.300000012,0.295705527,0.04925221412793329,0.09987949873091126,0.600000024,0.601614714,-0.031134945600833828,-0.13924683374520547,0.899999976,0.808918238,0.14136014387242404,4.467989044496606,0.5,0.518141031,0.032961255905658134,-0.9886487529964264,1.5,1.478321314,0.01847853801786778,1.8373116655967838,0.0,0.025021092698987495,-0.42594568433484215,-0.25045119986730197
0.4,0.239999995,0.228773832,0.016671465035066793,0.6443652274262882,0.300000012,0.295705527,0.058657610030057254,0.10294100346183206,0.600000024,0.601614714,-0.007414262002862595,-0.06523581798425572,0.899999976,0.808918238,0.06179008794775764,4.536343663973283,0.5,0.518141031,0.03536020506965649,-0.9402848161159351,1.5,1.478321314,-0.0865679539649332,1.7304196835345897,0.0,0.024253931666507633,-0.45557566635090646,-0.17229837313239502
0.402,0.239999995,0.228773832,0.07652921937932264,0.6120904357846702,0.300000012,0.295705527,-0.00623689580855615,0.096591586657041,0.600000024,0.601614714,-0.06889225741889482,-0.12536957159536544,0.899999976,0.8089311175080214,0.1033384489882353,4.423853169830303,0.5,0.518141031,-0.02099212261426025,-1.014228616844207,1.5,1.478321314,0.017043233986452765,1.8094622156427806,0.0,0.02347402731550802,-0.5029892675040999,-0.21044200458894832
0.404,0.239999995,0.228773832,-0.025824448647768967,0.6018086710376376,0.300000012,0.295705527,0.029922698015623146,0.11570147966836312,0.600000024,0.6016263301098355,0.030674734818558407,-0.12659222326512012,0.899999976,0.809302568,0.023882470114096343,4.393815934705172,0.5,0.518141031,0.05287434980376376,-0.9728544837870754,1.5,1.478321314,0.09313615918842466,1.7424414607919279,0.0,0.022338255874659724,-0.511199909092792,-0.08843966692330453
0.406,0.239999995,0.228773832,0.0016600512824606717,0.6460286026170462,0.300000012,0.29569675046618926,-0.0273719350834703,0.1059965073099319,0.600000024,0.6019893144661893,0.0432914663715661,-0.22080024774559756,0.899999976,0.809302568,-0.015905827232448932,4.31599545965344,0.5,0.518141031,-0.03602170510436722,-1.006979686578657,1.5,1.478321314,0.03442961782448932,1.8056076319389527,0.0,0.021585032466189244,-0.5816191785700869,-0.19185006382167177
0.408,0.239999995,0.228773832,-0.02503357734986945,0.6231805582402088,0.300000012,0.2953251529530026,-0.013698129624020889,0.09840849987467364,0.600000024,0.601614714,-0.048997843830287206,-0.14939253910966055,0.899999976,0.8093055709608356,0.05462287906005222,4.314011999104439,0.5,0.518141031,0.02201767551436031,-0.9626571217597911,1.5,1.478321314,-0.04512058291383812,1.7736039625039164,0.0,0.02120442609399478,-0.4290524779007833,-0.10410481168146214
0.41,0.239999995,0.228773832,-0.006936132368459302,0.5852688767602955,0.300000012,0.2957041803511386,-0.02664517240346415,0.08911928593241278,0.600000024,0.601614714,0.0452975335625,-0.16940853178706394,0.899999976,0.809685946,0.11195378749031008,4.3344253651257265,0.5,0.518141031,0.008537048531249999,-0.9236592584146076,1.5,1.478321314,0.07699980363493217,1.7987485039339872,0.0,0.02044098135125969,-0.36652746900920546,-0.13980935080777615
0.412,0.239999995,0.228773832,-0.02655582813336526,0.6526827875447144,0.300000012,0.29532953940464507,-0.014505606121513229,0.10001915376260027,0.600000024,0.601614714,-0.006131939830001197,-0.1786375250562672,0.899999976,0.809693335404645,0.05554752715263977,4.246017742849874,0.5,0.518141031,0.04847346229067401,-0.9927994098823177,1.5,1.478321314,0.18621076434730036,1.7163581305230455,0.0,0.019661191190709925,-0.23927443313468216,-0.0643360456189393
0.414,0.239999995,0.228773832,-0.016132072182577565,0.6286687147546539,0.300000012,0.295705527,-0.009661960169451074,0.11287792892804296,0.600000024,0.601614714,-0.1132750278940334,-0.18355131510572795,0.899999976,0.8100783355619332,0.05125778579582339,4.042720999379833,0.5,0.518141031,-0.013306737022076371,-1.0014707211052507,1.5,1.478321314,-0.013581706523866349,1.7037999283781622,0.0,0.01890018101109785,-0.26540605091181385,-0.12437109212207637
0.416,0.239999995,0.228773832,0.1054471801409517,0.6160620467047585,0.300000012,0.295705527,-0.011362869219778901,0.10748587369502524,0.600000024,0.601614714,0.010224012170511897,-0.16284569340759433,0.899999976,0.8104621673936554,0.18285735399555395,4.277179902291877,0.5,0.518141031,-0.21090119818228792,-1.00312919587491,1.5,1.478321314,-0.0318870190877193,1.7791218584317472,0.0,0.018505997164143237,-0.3562213635145398,-0.1559365370355684
0.418,0.239999995,0.228773832,0.07925834317748091,0.6258902735515267,0.300000012,0.2956930891965649,0.07475455484541985,0.10858356658969465,0.600000024,0.601614714,-0.03372664484351145,-0.12022062140076335,0.899999976,0.81083703,0.144059595759542,4.136396735580153,0.5,0.518141031,0.04712461558015268,-0.9842330113454199,1.5,1.478321314,-0.005822862458015267,1.788883267255725,0.0,0.01773325539312977,-0.35700718635114503,-0.13417749208015267
0.42,0.239999995,0.228773832,0.006029653506065651,0.5979002530770695,0.300000012,0.2953347802841342,0.006645555191246432,0.10386742448465747,0.600000024,0.601614714,-0.08374427573120836,-0.0734338299248335,0.899999976,0.81083703,0.1815774717045671,4.3080105109021165,0.5,0.518141031,0.021938864466460515,-0.9938990247829448,1.5,1.478321314,-0.13063609763534728,1.8119973058136298,0.0,0.016991377,-0.4626299238721456,-0.2179994559605138
0.422,0.239999995,0.228773832,-0.06327719011536627,0.5589579644677881,0.300000012,0.295705527,0.01067886979634932,0.09872595202254833,0.600000024,0.601614714,-0.07330434299152946,-0.05212891713230732,0.899999976,0.8108605394291338,0.07396574050501073,4.075345547906585,0.5,0.518141031,0.10370933992161775,-0.9369962198274875,1.5,1.478321314,-0.03257895316618945,1.7599465982201146,0.0,0.016967838350990215,-0.2709589128395371,-0.1524469157306132
0.424,0.239999995,0.228773832,-0.05712453862909908,0.6371839549842547,0.300000012,0.295705527,0.04490936961003907,0.09310059808275128,0.600000024,0.601614714,0.08417259451308157,-0.051670230365810345,0.899999976,0.811603785,0.2141031845200663,4.1784384736466205,0.5,0.518141031,0.028848541119095537,-1.0182417925512017,1.5,1.478321314,-0.029163236058955842,1.6846545674287912,0.0,0.016211687050432105,-0.31872129669101457,-0.19556039056280336
0.426,0.239999995,0.228773832,0.08627707751221547,0.619491886053033,0.300000012,0.295705527,0.015578415949588845,0.09838773153640806,0.600000024,0.601614714,-0.05795092021630318,-0.09255816719056131,0.899999976,0.8116131969487546,0.10785414400869979,4.237285720315814,0.5,0.518141031,0.0010251625154332022,-0.9933977783006793,1.5,1.478321314,0.0016936409734239063,1.771122586998093,0.0,0.01583088005124538,-0.19402892801823382,-0.1784507323063997
0.428,0.239999995,0.22878318827927388,0.02953212252500601,0.6351146284145227,0.300000012,0.295705527,-0.025950896633685983,0.0948141743157009,0.600000024,0.601614714,0.003490626698725655,-0.0958175639852128,0.899999976,0.811987162,0.001062778771820149,4.206206677269776,0.5,0.518141031,0.00991729588254388,-0.9372700317529454,1.5,1.478321314,-0.06379812757105073,1.7531721925776629,0.0,0.015447535438446743,-0.17237181454315942,-0.17633504122409233
0.43,0.239999995,0.2291446887022646,0.07879409470941598,0.6175359018152563,0.300000012,0.295705527,-0.034785074183551846,0.1015512455716329,0.600000024,0.6016021937022646,-0.015105510224791419,-0.08325318957377831,0.899999976,0.811999713420739,0.13683805147246722,4.167745172825507,0.5,0.518141031,-0.053658501651489866,-0.9641014310753278,1.5,1.478321314,-0.03674891077568534,1.749121069394279,0.0,0.015060063702264601,-0.14525275557020262,-0.21959799166674612
0.432,0.239999995,0.228773832,-0.0026667380863755665,0.6351003836184681,0.300000012,0.295705527,0.02539843477594846,0.09143985545717012,0.600000024,0.601231337,-0.004061135347411119,-0.0817790270870914,0.899999976,0.812371492,0.18809414934025293,4.300854419435695,0.5,0.518141031,-0.12255295655308995,-0.965342440858745,1.5,1.478321314,0.05881970118110236,1.7372683451961346,0.0,0.01467676622882367,-0.3095207596461465,-0.19723094851682177
