zhaobohao-byte/Y1_1Pace/data/Atom3motors/raw_csv/Step_y1_1_leftleg_aligned.csv
time,des_dof_pos_left_ankle_pitch_joint,dof_pos_left_ankle_pitch_joint,dof_vel_left_ankle_pitch_joint,des_dof_pos_left_ankle_roll_joint,dof_pos_left_ankle_roll_joint,dof_vel_left_ankle_roll_joint,des_dof_pos_left_hip_pitch_joint,dof_pos_left_hip_pitch_joint,dof_vel_left_hip_pitch_joint,des_dof_pos_left_hip_roll_joint,dof_pos_left_hip_roll_joint,dof_vel_left_hip_roll_joint,des_dof_pos_left_hip_yaw_joint,dof_pos_left_hip_yaw_joint,dof_vel_left_hip_yaw_joint,des_dof_pos_left_knee_joint,dof_pos_left_knee_joint,dof_vel_left_knee_joint,des_dof_pos_waist_yaw_joint,dof_pos_waist_yaw_joint,dof_vel_waist_yaw_joint
0.0,0.239999995,-0.266084909,-0.196079254,0.300000012,-0.009649545,-0.00151062,0.600000024,0.018908262,0.046691895,0.899999976,0.341296434,0.061798096,0.5,-0.009325743,0.075531006,1.5,0.879503489,-0.054626465,0.0,0.006632566,-0.05569458
0.002,0.239999995,-0.26367596433292906,1.6868279119223772,0.300000012,-0.00844819516919345,0.5259733136804123,0.600000024,0.0201221663232262,0.9851923933899333,0.899999976,0.34366047030685265,1.6693961222171012,0.5,-0.006916797332929048,1.854880016767738,1.5,0.8811007547028502,1.094645867879321,0.0,0.006632566,0.018500703171012736
0.004,0.239999995,-0.25699506871969063,3.3612925502919695,0.300000012,-0.005289034434265319,1.5032775606754314,0.600000024,0.024098960145984533,2.277947456219155,0.899999976,0.3475484687552647,1.8988084136440215,0.5,-0.0002485505708506841,3.267293563526472,1.5,0.8850385689302795,1.964990905246044,0.0,0.006632566,-0.10146767956823319
0.006,0.239999995,-0.24893182615765766,4.193327917228782,0.300000012,-0.0010427149604077762,2.197630733646278,0.600000024,0.030247341429587484,2.9827950293755334,0.899999976,0.3509938024004267,1.7968434148148411,0.5,0.007433011159791371,4.107694250014699,1.5,0.8900748603985301,2.836339134812233,0.0,0.006632566,0.07719905434945472
0.008,0.239999995,-0.24012818150980392,4.66006589125251,0.300000012,0.004318583638689622,2.5729656339689146,0.600000024,0.037134731527498806,3.4786804770203252,0.899999976,0.3544566655164993,1.5872150060624104,0.5,0.015825900575801053,4.269111253110474,1.5,0.89697205855165,3.3801425736245814,0.0,0.006622756975848876,0.07718385843065519
0.01,0.239999995,-0.2301064173794485,5.046167042338793,0.300000012,0.010492949291892529,2.9467524500108415,0.600000024,0.04482679533796842,3.917875671403135,0.899999976,0.3591043391219656,2.56949796600766,0.5,0.024265127206457692,4.101420780213292,1.5,0.9050809338477492,4.170211514386048,0.0,0.006238391556799434,-0.09949259086165449
0.012,0.239999995,-0.21947260087981288,5.3914541828196,0.300000012,0.0173542842936308,3.495123013981288,0.600000024,0.05241931978373516,3.928489037663548,0.899999976,0.3648274034147775,3.02864359884143,0.5,0.03184550277581864,3.8024452352192633,1.5,0.9141982801384191,4.616913562995322,0.0,0.005839676267242413,-0.35488627920690896
0.014,0.239999995,-0.2079013466624955,5.557482414162435,0.300000012,0.02621352903814222,4.080988616364337,0.600000024,0.060525807061364456,3.997609164267236,0.899999976,0.37255516806136446,3.9427650522245217,0.5,0.03919735706136446,3.669983256417519,1.5,0.9242602703375046,5.04237908511539,0.0,0.004295716361929973,-0.8048373804232944
0.016,0.239999995,-0.19662564461904763,5.927001523173887,0.300000012,0.034367516961570595,4.287040264297172,0.600000024,0.06867979592922782,4.189730229179974,0.899999976,0.3807091569615706,4.1700466343754625,0.5,0.04735131510657596,3.920460398904762,1.5,0.9355111734390739,5.5634625360594345,0.0,0.002747259261248359,-0.9231291693492064
0.018,0.239999995,-0.1839536296415634,6.240232429630124,0.300000012,0.04322551537273594,4.456204690238322,0.600000024,0.07752500195710199,4.496120463943756,0.899999976,0.3895287811258341,4.450540195259294,0.5,0.056195598957102,4.467597128509056,1.5,0.9474412651553861,5.951071180618684,0.0,0.0012112285071496664,-0.7150369908236415
0.02,0.239999995,-0.1712750057019962,6.382289257499525,0.300000012,0.052811364750356464,4.702184409035171,0.600000024,0.08672758467324145,4.465746682136526,0.899999976,0.3979523378387595,4.189403698698551,0.5,0.06542348102851711,4.759898104543725,1.5,0.9601081606532795,6.3228732560742635,0.0,-0.00033515879028041826,-0.6794315090442016
0.022,0.239999995,-0.15790004738987917,6.6098941809125495,0.300000012,0.06238507805586793,4.8117969322631895,0.600000024,0.095928722587989,4.703352209926307,0.899999976,0.4059838125500658,4.093056758579256,0.5,0.07539091357746142,5.11816678491231,1.5,0.9731343705995933,6.563739997474339,0.0,-0.0022587280027515253,-0.8118750625364278
0.024,0.239999995,-0.144812876878264,6.5238452603623465,0.300000012,0.07239209400655777,4.955547823193633,0.600000024,0.10592391067604626,4.812708112541433,0.899999976,0.4140410429241684,3.8432817441842135,0.5,0.08618096873363539,5.264133261898295,1.5,0.9870036231132705,6.973136222553952,0.0,-0.004568595751877906,-1.0899451207674975
0.026,0.239999995,-0.13178016147192084,6.477211257072016,0.300000012,0.08236803026588768,4.953638482599857,0.600000024,0.11555491280386312,4.92022837555908,0.899999976,0.4213445578599022,3.928731302699654,0.5,0.09732107730833432,5.6355714372514605,1.5,1.0011996205000597,7.152615750810302,0.0,-0.006870393405985453,-1.1599428042109217
0.028,0.239999995,-0.11912513215630863,6.525517156325516,0.300000012,0.09231381528998593,4.7839145879538,0.600000024,0.1262799934440666,5.197179075037406,0.899999976,0.42898894085717637,3.582219644506801,0.5,0.10881266702450751,5.666553799945943,1.5,1.0154013756113978,7.1615606582487095,0.0,-0.009146350819183864,-0.874830065551712
0.03,0.239999995,-0.10667348891276957,6.208976432586746,0.300000012,0.10138694818403197,4.719959896207535,0.600000024,0.1364735596543494,5.221252581046159,0.899999976,0.4357840367695663,3.496809010486673,0.5,0.11976085965495518,5.581435430749334,1.5,1.0297480385397384,7.336634024927187,0.0,-0.010669760413859947,-0.6954225949359099
0.032,0.239999995,-0.09422952859100131,5.904609514352071,0.300000012,0.11149408397135696,4.9011743945272706,0.600000024,0.14699468484759518,5.148855191482277,0.899999976,0.4428108505569877,3.430443380946294,0.5,0.13107548813820266,5.608090486059912,1.5,1.0445696982144648,7.361856572409357,0.0,-0.012982018661892827,-1.0596004859058359
0.034,0.239999995,-0.08273420161487131,5.718732279307794,0.300000012,0.12072336778205434,4.8455087897886076,0.600000024,0.15736308418410389,5.181678041272283,0.899999976,0.45010722594983316,3.686875942654671,0.5,0.14258211521222594,5.639937507742016,1.5,1.0595584063017158,7.443941524371306,0.0,-0.014557413659318398,-0.9734957666788608
0.036,0.239999995,-0.07201070295090563,5.375913603670639,0.300000012,0.13029711431363203,4.80778828920448,0.600000024,0.16771631704909437,4.977030140745472,0.899999976,0.4574195015781697,3.844847320365586,0.5,0.15371572349952337,5.583103327265968,1.5,1.0749364955915157,7.7841592965023825,0.0,-0.017228994185891324,-1.1620091870772165
0.038,0.239999995,-0.06168206341588172,5.088583673875283,0.300000012,0.13948793407964707,4.643430588853702,0.600000024,0.17805783329939193,5.020337507439609,0.899999976,0.4654596248599022,3.8097128273433882,0.5,0.16521985927137237,5.646311536710623,1.5,1.0914266009765112,8.39982008293168,0.0,-0.01951658875772028,-1.0320167219742458
0.04,0.239999995,-0.05209483295643984,4.835034645977161,0.300000012,0.14830861221026606,4.527287476026136,0.600000024,0.18802924612385213,4.898910430147398,0.899999976,0.47312959996939014,3.7811577915027077,0.5,0.17671250736472804,5.721591530246527,1.5,1.1079036040993644,8.123412501513775,0.0,-0.021446604793972215,-1.024288330759595
0.042,0.239999995,-0.04262616944562591,4.749550442576728,0.300000012,0.15702685621544224,4.347056158688255,0.600000024,0.1978931769745046,5.106904548318753,0.899999976,0.48072767747317546,3.9842649807136294,0.5,0.1877048040343161,5.5938378098475114,1.5,1.123816458908168,7.991254660117811,0.0,-0.023729778179192845,-1.0197707596196228
0.044,0.239999995,-0.03331255305301406,4.612887671473195,0.300000012,0.16593889610185847,4.292890173529068,0.600000024,0.2083860904828449,5.071595996553371,0.899999976,0.48929003779258995,4.169626941279843,0.5,0.19897543717357635,5.552049222264951,1.5,1.1397364162041934,7.874438741848821,0.0,-0.026450317803550154,-1.286675287534072
0.046,0.239999995,-0.02448196010162214,4.466948851666985,0.300000012,0.1739901419923664,4.148753204175096,0.600000024,0.21872428795849236,5.234679267021947,0.899999976,0.4981085007705153,4.302770366974714,0.5,0.2100808840524809,5.5103304037776715,1.5,1.1550734040448474,7.590716476283874,0.0,-0.029120465812022902,-1.312756865962309
0.048,0.239999995,-0.015299445923357234,4.497939561527801,0.300000012,0.18202145839050193,3.941304779169742,0.600000024,0.2287127359473375,5.158506913228753,0.899999976,0.5069448626365346,4.37047601028024,0.5,0.22083619454120137,5.4944189861461155,1.5,1.170392525190314,7.415870084287058,0.0,-0.031422828962971674,-1.1776041467680733
0.05,0.239999995,-0.0069677795761415254,4.246015510459,0.300000012,0.18920996362777912,3.7386912203294287,0.600000024,0.23892047886732012,5.038148851664117,0.899999976,0.5160259651620847,4.658761086333731,0.5,0.23180114557255557,5.42045210799474,1.5,1.184762647517332,7.417762110971552,0.0,-0.033700439239541004,-1.2737436637580684
0.052,0.239999995,0.0018527265412844037,4.178156915584058,0.300000012,0.19650955676218276,3.58372410572632,0.600000024,0.24892161875372334,5.035726126592636,0.899999976,0.5252582999746217,4.557597251750149,0.5,0.242571112470392,5.4762958795679735,1.5,1.1989765404869535,7.101170734381151,0.0,-0.036384332274871915,-1.2174158243960442
0.054,0.239999995,0.0095283795182534,4.023936419509663,0.300000012,0.20341026981603436,3.495151249388929,0.600000024,0.25888951775709856,5.0807730436258645,0.899999976,0.5344598364259127,4.5810009816198995,0.5,0.2532890657346695,5.363141154660463,1.5,1.2123880283008828,6.678642539670007,0.0,-0.03869286517275113,-1.1777421838549271
0.056,0.239999995,0.017591436399642644,3.932443188039309,0.300000012,0.21031241674449075,3.404305178998809,0.600000024,0.26887194617867777,4.886173660907088,0.899999976,0.5436730329309113,4.689544037511019,0.5,0.2632625880547945,4.9805264130303755,1.5,1.225423090241215,6.474696246589041,0.0,-0.0413716309029184,-1.32826667080405
0.058,0.239999995,0.025624277871914132,4.0304451565466906,0.300000012,0.2168204931277281,3.223832639447943,0.600000024,0.27882997036028623,4.854585638955277,0.899999976,0.5528734719466905,4.607291329408945,0.5,0.2728461403602862,5.007010359028265,1.5,1.2376816793452594,6.148331193385331,0.0,-0.04367128548837209,-1.1339252612422184
0.06,0.239999995,0.03292559233373523,3.7557608871868817,0.300000012,0.22294339687581385,3.070879698672052,0.600000024,0.2884170850004823,4.722568598521341,0.899999976,0.5620680791249095,4.401572338906679,0.5,0.2824332550004823,4.791769830336147,1.5,1.2495714114584038,5.929158614943815,0.0,-0.04598373243790692,-1.1146772468975161
0.062,0.239999995,0.040656009339200765,3.736316231425547,0.300000012,0.22837345920694577,2.8411669785203375,0.600000024,0.29773811119053284,4.590900843875714,0.899999976,0.5705998453434824,4.398491610011418,0.5,0.2917149573434824,4.5165785796296385,1.5,1.261192759758801,5.853743169962893,0.0,-0.048685661070409135,-1.3658282376816127
0.064,0.239999995,0.04753180778034067,3.47464741197374,0.300000012,0.23371778935379703,2.6568405944276083,0.600000024,0.30729257342938254,4.624289530226402,0.899999976,0.5790174375092264,4.184064879777502,0.5,0.3001324892810504,4.3968874086724625,1.5,1.2722656909116397,5.399672739651171,0.0,-0.0509810055748758,-1.170648558828247
0.066,0.239999995,0.054004100539158426,3.266820184641316,0.300000012,0.23866713402062226,2.550906378821671,0.600000024,0.31642933825569197,4.529820478527953,0.899999976,0.5873950254986292,4.156718871603409,0.5,0.30849902207736324,4.113216777339016,1.5,1.2825273416484682,5.173595327173084,0.0,-0.05326500027118846,-1.0149365429551795
0.068,0.239999995,0.06050631884587984,3.1625349924210404,0.300000012,0.24365347226074568,2.4841479092035144,0.600000024,0.3256352416008074,4.628560185335313,0.899999976,0.5958149028340062,3.9448802414502495,0.5,0.31654568483400614,3.990780534222275,1.5,1.2921165858221326,4.963930423570648,0.0,-0.05555866598812634,-0.9914283541040133
0.07,0.239999995,0.06623709723841059,2.9156213474039734,0.300000012,0.24860631228476823,2.3642348486092715,0.600000024,0.33479649023841057,4.571743188264901,0.899999976,0.603455624,3.8692567330198675,0.5,0.3241787702847682,3.79267976797351,1.5,1.3016519972847682,4.6907788077483445,0.0,-0.0574686087615894,-0.9420433041456954
0.072,0.239999995,0.07194726211302566,2.7833766405098204,0.300000012,0.25279290310447045,2.218228317326304,0.600000024,0.3435472905986263,4.440782977235691,0.899999976,0.6110641997318954,3.8836874759746958,0.5,0.33140599657790093,3.643467591565851,1.5,1.3104018625986265,4.349103308840101,0.0,-0.05937168537100855,-0.8563467661231474
0.074,0.239999995,0.07775112929747581,2.728811007718094,0.300000012,0.25704751517244634,2.1410001347348433,0.600000024,0.3520727774074074,4.251405449224581,0.899999976,0.618426834883699,3.7145652775668787,0.5,0.33838224868483135,3.547445951769049,1.5,1.3189187575661712,4.097437385864119,0.0,-0.06129198090375088,-0.8186325184569474
0.076,0.239999995,0.08306251237131157,2.5831674530169817,0.300000012,0.26084390185812356,1.9811348578205468,0.600000024,0.36043005582199206,4.275138728252318,0.899999976,0.6256364054980128,3.502953590147778,0.5,0.3452114389814525,3.433249564700831,1.5,1.3268919238132002,4.006212066029146,0.0,-0.06244059812670119,-0.7509870909798868
0.078,0.239999995,0.08809063362787391,2.502642038145058,0.300000012,0.26471037268535197,1.7890429963080112,0.600000024,0.3693340855799953,4.26374498511069,0.899999976,0.6326015391039346,3.3985766930677888,0.5,0.3517978581039346,3.2419904569790234,1.5,1.3350130166374734,3.8613397747846645,0.0,-0.06436061794252193,-0.7095261478644229
0.08,0.239999995,0.09266721669652868,2.33987462032554,0.300000012,0.26813631919157815,1.6962421980804008,0.600000024,0.37772404223142075,4.239482964517476,0.899999976,0.6390910977264702,3.3829121057853992,0.5,0.35827487038315636,3.1130874759292615,1.5,1.3422523211519743,3.637207377122987,0.0,-0.06550500471955147,-0.736890304824168
0.082,0.239999995,0.09726732360115956,2.2395986590782706,0.300000012,0.27120145894794057,1.619053369312115,0.600000024,0.38617095472424207,4.215414608177316,0.899999976,0.6459964540856384,3.42548920230366,0.5,0.3644118047763015,2.8987426741496556,1.5,1.349156723624834,3.4007483872584854,0.0,-0.06665052184853243,-0.40831201660405847
0.084,0.239999995,0.10155356752490147,2.0839452813188823,0.300000012,0.2739208289474501,1.3970145371679206,0.600000024,0.3947076660161233,4.17763440440965,0.899999976,0.6525798262536725,3.2822952123243763,0.5,0.37024073025367255,2.913623594086946,1.5,1.3557623852459095,3.2979155217983998,0.0,-0.06742722919622597,-0.4142419043379912
0.086,0.239999995,0.10615345244677304,2.047418966908073,0.300000012,0.27661093114289115,1.3511457917811385,0.600000024,0.4027770474286735,4.150239844921171,0.899999976,0.6583553672155275,3.160729198378662,0.5,0.3760040671950464,2.8577862150473923,1.5,1.3622710963062634,3.1096139817699453,0.0,-0.06819620892974518,-0.36168599172326743
0.088,0.239999995,0.11036769689182493,2.1058070393228734,0.300000012,0.27928108565483073,1.2602009945540875,0.600000024,0.41082270951362515,3.8929577505813375,0.899999976,0.6644731598587944,3.101005192080099,0.5,0.38173989829314614,2.7356461067745665,1.5,1.368005109440958,2.9055498469000822,0.0,-0.0689502074178365,-0.2930361953534269
0.09,0.239999995,0.1145435672964512,2.083153234942765,0.300000012,0.28155875611757675,1.1574167559537578,0.600000024,0.41878031015545464,3.86185530554905,0.899999976,0.6701686845366233,2.846631051543673,0.5,0.38705506635523956,2.7483620069088306,1.5,1.3733289705366234,2.765164267327996,0.0,-0.06932967793870234,-0.2705373682816346
0.092,0.239999995,0.1187646660565813,2.0566549109231684,0.300000012,0.2838575675282906,1.0957930601584276,0.600000024,0.42609391329600954,3.6470817048409767,0.899999976,0.6759268913889219,2.8452349395491363,0.5,0.39244727358487197,2.649171768562835,1.5,1.3790698022227514,2.6367879811334127,0.0,-0.06971487878737344,-0.2535164619755807
0.094,0.239999995,0.12259782435570149,1.8838610297927163,0.300000012,0.28577413620907466,1.0303534755602388,0.600000024,0.43375362998638806,3.692936106194627,0.899999976,0.6812944067773135,2.6543925913287163,0.5,0.398180133927403,2.6866047606183883,1.5,1.3836701390774926,2.3316775460721195,0.0,-0.07009800184991044,-0.16319770230961195
0.096,0.239999995,0.12644053940521469,2.0205653855458676,0.300000012,0.2876769616056692,0.8734143101727067,0.600000024,0.44104419813252005,3.6332622230184186,0.899999976,0.6866640609873221,2.589606398949049,0.5,0.4031748339873221,2.4927929320630304,1.5,1.388271818902165,2.184790515288243,0.0,-0.07048198904257864,-0.12599668125260138
0.098,0.239999995,0.1302785913850746,1.8093341996835821,0.300000012,0.28883182404179103,0.6942968566597015,0.600000024,0.44798284247761194,3.5081455226119407,0.899999976,0.6916570000567165,2.560711191731343,0.5,0.4081780983402985,2.4389916039432835,1.5,1.3924954706955224,2.101920039474627,0.0,-0.070856333,-0.12534213830746269
0.1,0.239999995,0.1337365095738058,1.7644097257224949,0.300000012,0.28998385358529866,0.6140922790735065,0.600000024,0.45526083367987547,3.421347442932479,0.899999976,0.6962787996268407,2.431830519469412,0.5,0.4131739026268407,2.4310955119560638,1.5,1.3963492686913683,1.8419905277756496,0.0,-0.070856333,0.053924539742727165
0.102,0.239999995,0.13720316737264712,1.6467282266025731,0.300000012,0.2911272008036693,0.482833660447939,0.600000024,0.4618091503056946,3.3548522901241364,0.899999976,0.7012737413995711,2.4385213977438647,0.5,0.41816884439957114,2.367571553317608,1.5,1.4005617292644748,1.8489220106106743,0.0,-0.070856333,-0.15653279820705265
0.104,0.239999995,0.14064212287584973,1.5376157584757304,0.300000012,0.29188214815480024,0.391678247039833,0.600000024,0.46832763705307096,3.259345544385808,0.899999976,0.7058745742790697,2.3301206647685153,0.5,0.4227696161004174,2.4533302068491354,1.5,1.4040120926039354,1.8207454499689923,0.0,-0.07084403384519976,0.022410584186642817
0.106,0.239999995,0.1436998375934822,1.4056422441645142,0.300000012,0.292265812426554,0.39829965268762824,0.600000024,0.47484113078551604,3.100354387900905,0.899999976,0.7104823330464696,2.352673566772722,0.5,0.42736294265274594,2.1912851210976463,1.5,1.4074669804794206,1.6645073958800243,0.0,-0.070460369573446,0.0813151056049487
0.108,0.239999995,0.14641738328216114,1.3424423194497204,0.300000012,0.29267095480387956,0.22090700382387243,0.600000024,0.4810340371224563,3.0115429389472808,0.899999976,0.715123372559443,2.2737899263320243,0.5,0.43163323515756274,2.211115954934666,1.5,1.4109261082821611,1.6333612645292157,0.0,-0.070072424441866,0.2069652365976437
0.11,0.239999995,0.14909849446317297,1.2522792213174168,0.300000012,0.29342083231992355,0.2344982089785126,0.600000024,0.48677900324626955,3.0086757880771158,0.899999976,0.7193520221746448,2.200219382576698,0.5,0.4358462317859616,2.098022118359198,1.5,1.413607178351319,1.4948716522274086,0.0,-0.06967311824829892,0.21383679040826073
0.112,0.239999995,0.15177047062461319,1.2246046361650798,0.300000012,0.293787688,0.128274507327184,0.600000024,0.49254095508962153,2.7875944770970005,0.899999976,0.7239613926012854,2.2800895124665557,0.5,0.44005383748476556,2.0769405820157107,1.5,1.4162612642201855,1.147191222204118,0.0,-0.06890445457581529,0.2748085643801476
0.114,0.239999995,0.15406859772446782,1.2261941589416407,0.300000012,0.293787688,0.08259730655010762,0.600000024,0.49825465062927526,2.7398772702843814,0.899999976,0.7285255482312845,2.2319039600877777,0.5,0.44388618923128437,2.0283879896055965,1.5,1.4181939447675198,1.0530957136488879,0.0,-0.06815523489117435,0.3938411358067448
0.116,0.239999995,0.1563924254302148,1.2281465956994952,0.300000012,0.293787688,0.08918817704484094,0.600000024,0.5032700908604296,2.6608792972747977,0.899999976,0.7323873035984271,2.0681519600590446,0.5,0.44773057364690694,1.9517751694127246,1.5,1.4204829882103531,0.9982413702568377,0.0,-0.06775357778013852,0.41670359284188285
0.118,0.239999995,0.15902662621446473,1.2094771504088793,0.300000012,0.29379940115335956,-0.01367130114798902,0.600000024,0.508561889588495,2.5815577682327246,0.899999976,0.7365450331284162,2.0627561084480246,0.5,0.45149884267454354,1.901767663849266,1.5,1.4223842661839121,1.0227797842156583,0.0,-0.06698548639276763,0.46824894830385483
0.12,0.239999995,0.16134326256955536,1.266812599207057,0.300000012,0.294171065,0.04917243478972464,0.600000024,0.5139133742939563,2.4990948515436884,0.899999976,0.7407572751770175,2.029055578821433,0.5,0.4549547216864942,1.7469087696990104,1.5,1.4246645700979854,0.9842444900514961,0.0,-0.06584534901895339,0.4819992602537847
0.122,0.239999995,0.16402673849517874,1.3464170114483773,0.300000012,0.294171065,0.0886273101491063,0.600000024,0.5185147938224365,2.312309802170273,0.899999976,0.7446032911026575,1.9910236552882172,0.5,0.45839360121495765,1.7118357369828316,1.5,1.4261983766074788,0.8706866864332079,0.0,-0.06506694611230009,0.3677171838773518
0.124,0.239999995,0.16667724986925025,1.3406971220474466,0.300000012,0.294171065,0.04068132960992394,0.600000024,0.5230580944512858,2.3480015216436074,0.899999976,0.748754316032959,1.9089555284418689,0.5,0.46142941103295904,1.5879149415686344,1.5,1.427719752876494,0.7951269910699021,0.0,-0.06393088556356392,0.6252854363288664
0.126,0.239999995,0.1693851250692124,1.3478417499337707,0.300000012,0.294171065,-0.019270321539976133,0.600000024,0.5277181941682577,2.2916024931342482,0.899999976,0.7522491501187352,1.7833221093866347,0.5,0.4649125791121719,1.678825690208234,1.5,1.4296378880495226,0.7998855426867542,0.0,-0.06275395294391409,0.48838094858293557
0.128,0.239999995,0.17168806762678634,1.236563773710169,0.300000012,0.294171065,-0.00802411045600567,0.600000024,0.5323130506378883,2.1752676168992555,0.899999976,0.7557040413129797,1.645642831539152,0.5,0.4679718520192512,1.5646758242333767,1.5,1.4307898069717728,0.7190130579258297,0.0,-0.061230323059407114,0.6601001063727413
0.13,0.239999995,0.17396899259608223,1.089821402386492,0.300000012,0.294171065,-0.021848893607018388,0.600000024,0.5364863175295037,2.179080065528422,0.899999976,0.7591172999115491,1.5938536514433361,0.5,0.47064224258670834,1.467028009980531,1.5,1.4319383779557746,0.6139427795639948,0.0,-0.06008175304422546,0.6218303253874535
0.132,0.239999995,0.17627762408033903,1.1337366939899725,0.300000012,0.294171065,0.013778074457443,0.600000024,0.540353032160678,2.0073825040122952,0.899999976,0.7621987321999523,1.4609187887032349,0.5,0.47372274219995225,1.5247803820262624,1.5,1.4334733047429868,0.5699590397415543,0.0,-0.05853524757323624,0.8170477156755402
0.134,0.239999995,0.17819745933706674,1.0082880480179202,0.300000012,0.294171065,0.01948074282232964,0.600000024,0.5441807249678142,1.9298852828079462,0.899999976,0.7648870745551756,1.4027834676471351,0.5,0.47641108455517567,1.4096501030745108,1.5,1.4346255869244282,0.5583644514174723,0.0,-0.05699918836925254,0.6230421676812073
0.136,0.239999995,0.1800870470289645,0.9255065900858074,0.300000012,0.294171065,0.01472736100615496,0.600000024,0.547604344416365,1.7490657857896452,0.899999976,0.7675441402226647,1.2540180694576395,0.5,0.47906815022266475,1.236099765129978,1.5,1.4357565326705286,0.619026859166546,0.0,-0.05547306844786387,0.7582572449561912
0.138,0.239999995,0.18163951621880908,0.8555629491665879,0.300000012,0.294171065,0.018656444399574666,0.600000024,0.5514611474376182,1.8034819578249055,0.899999976,0.7702612026037334,1.3489180205349716,0.5,0.4817603600526938,1.272706519007089,1.5,1.4365447263849245,0.5198274941049149,0.0,-0.053544199781190925,0.8631484795649811
0.14,0.239999995,0.18316090449598466,0.8614737867053818,0.300000012,0.294171065,-0.03936949176231572,0.600000024,0.5545039239919692,1.5905152635360182,0.899999976,0.7729147013664149,1.3246598274004555,0.5,0.48367100336641494,1.1160864916857247,1.5,1.4376860040607695,0.41496022395373366,0.0,-0.05201364431367614,0.9170698531522234
0.142,0.239999995,0.1847035785347696,0.7376617599912627,0.300000012,0.294171065,0.017454547543147816,0.600000024,0.5575892720695392,1.6226394741176542,0.899999976,0.7752394569010174,1.235774341076481,0.5,0.4859845627324955,1.1097910051909037,1.5,1.4388432215055655,0.4764232581613405,0.0,-0.050084610296708555,0.9524486913514064
0.144,0.239999995,0.18623139613334921,0.6333483778604484,0.300000012,0.294171065,-0.01921452123807252,0.600000024,0.5606703316001909,1.5582478066011451,0.899999976,0.7779228796335877,1.1584873052447517,0.5,0.4882830924668416,1.0482474758079676,1.5,1.439985219966603,0.5602821809200859,0.0,-0.04817189969990458,1.0828607569821087
0.146,0.239999995,0.18739588233428675,0.6529410097861995,0.300000012,0.294171065,0.04919083900035753,0.600000024,0.5637406336685735,1.464206924226314,0.899999976,0.7802251610321773,1.3175140386889523,0.5,0.4902146769706829,1.0223353044933858,1.5,1.4407661249882018,0.5981267719806936,0.0,-0.04661098002931713,0.9087534858530568
0.148,0.239999995,0.18891720397341122,0.5008609058182902,0.300000012,0.294171065,-0.02594639081364016,0.600000024,0.5667960759881959,1.568493152271253,0.899999976,0.7825267870975319,1.137814012953261,0.5,0.4924897830147848,0.9552652134348396,1.5,1.4419032338986528,0.434480364285561,0.0,-0.04433587398521521,0.8268910270654585
0.15,0.239999995,0.1900681343618126,0.6601163639112579,0.300000012,0.2941838231206042,0.022629115579183384,0.600000024,0.569481336339155,1.3276549766360632,0.899999976,0.7848277892185508,1.0983471814031154,0.5,0.49403683935048387,0.9350730963896625,1.5,1.4426836171092754,0.5425354139884352,0.0,-0.04278881764951616,0.9315668520233656
0.152,0.239999995,0.19120682728642796,0.4864231399267277,0.300000012,0.2945455039850125,-0.0368758178376353,0.600000024,0.572140101346378,1.372929529454621,0.899999976,0.7871069973313904,1.0264967025587013,0.5,0.4959266303014155,0.9450760840358036,1.5,1.443814272029975,0.42515827404246465,0.0,-0.040899026698584515,0.8832227215245629
0.154,0.239999995,0.19236364626424993,0.4449200466792273,0.300000012,0.294171065,-0.040639511806105415,0.600000024,0.5748109715211066,1.2671161226556165,0.899999976,0.7894034285211066,1.167366838221798,0.5,0.49745788826424997,0.8095838100083473,1.5,1.4445794452568568,0.4257936243260195,0.0,-0.03936776873575006,0.7137448507553065
0.156,0.239999995,0.1938905314016888,0.6603865353534379,0.300000012,0.294171065,0.011910635287092883,0.600000024,0.5771142420892642,1.249532738628468,0.899999976,0.7917066990892642,1.132754000038601,0.5,0.4989930976308806,0.8789941307201448,1.5,1.4453475064583836,0.3735000164451146,0.0,-0.03782423513992762,0.8106076291423402
0.158,0.239999995,0.1950548921173524,0.6100559265273703,0.300000012,0.294171065,-0.01715657254239714,0.600000024,0.5794420937209303,1.077793752952415,0.899999976,0.7940217626053668,1.0535838723552773,0.5,0.5005325428604651,0.6439282478794276,1.5,1.4461231564880144,0.40813595624257604,0.0,-0.03587143627906977,1.2005370684597494
0.16,0.239999995,0.19619266162747437,0.5765040035450751,0.300000012,0.294171065,0.024559015531004057,0.600000024,0.5817323827771286,1.1142563111424995,0.899999976,0.7959534786880516,1.0546320707861914,0.5,0.5016841723440257,0.7103595684124732,1.5,1.4469041331496542,0.2716986096455998,0.0,-0.03356820950632006,1.0883800867367042
0.162,0.239999995,0.19697314363424126,0.5025796232270959,0.300000012,0.294171065,-0.007519258552175451,0.600000024,0.5836499490739299,0.9712729036582951,0.899999976,0.7982552892769721,1.1222656381772198,0.5,0.5028350936342413,0.7070138404379201,1.5,1.4480283662617617,0.33348635832224977,0.0,-0.03126728866430845,1.3371707243919349
0.164,0.239999995,0.19810317150202478,0.4958393989279419,0.300000012,0.2941798777395188,-0.005110727974154359,0.600000024,0.5855386128878037,0.8460272064288947,0.899999976,0.8005232596273225,0.9905298454518818,0.5,0.5039739561482849,0.5666437426544784,1.5,1.4484174074790377,0.2793448449830872,0.0,-0.028980770893639828,1.240830505774059
0.166,0.239999995,0.1988776100949608,0.46328089601319233,0.300000012,0.2945460126269313,0.055317230288328974,0.600000024,0.5870799698410981,0.8866961069956026,0.899999976,0.8024476311899216,1.0333123812521987,0.5,0.5051238900949608,0.4917345297478013,1.5,1.4491749653730686,0.30551650264761115,0.0,-0.02630727081007844,1.217644242371167
0.168,0.239999995,0.20003274666969625,0.6064861021179143,0.300000012,0.29417840060392253,0.030691614145419755,0.600000024,0.5889850016696963,0.8390700383291079,0.899999976,0.8047358792736188,1.0773264591736427,0.5,0.5062716910657737,0.4763115879380531,1.5,1.4495572668579289,0.11913823358813681,0.0,-0.024004333283664196,1.117180766754365
0.17,0.239999995,0.20155489305444602,0.6035605780301949,0.300000012,0.29454591947277703,0.0799281815316215,0.600000024,0.5905242143164527,0.8467273292237281,0.899999976,0.8066596558436757,0.962014067969805,0.5,0.507417796054446,0.5254349253038516,1.5,1.4499512890544461,0.2338563294894199,0.0,-0.021319016606871136,1.2445423794850214
0.172,0.239999995,0.2023269066665478,0.6048591715366143,0.300000012,0.2941784937269377,0.030567489961483594,0.600000024,0.5920468696665477,0.892170114324893,0.899999976,0.8085720231204232,0.9570786499317642,0.5,0.5081749337269377,0.44678867319733717,1.5,1.4507084267269377,0.1989782062429862,0.0,-0.019024365152639087,1.1844205378386827
0.174,0.239999995,0.20346846167095084,0.5200015750007141,0.300000012,0.2945480546645246,0.0729129934140188,0.600000024,0.5932012152362253,0.8046180501708913,0.899999976,0.8104846684493634,0.8596403488167321,0.5,0.5085636725652742,0.3908621833516601,1.5,1.451084375,0.2738591884316316,0.0,-0.016729384198500535,1.1619504387627038
0.176,0.239999995,0.20423961120362258,0.5433242981929679,0.300000012,0.294171065,0.006922170744998225,0.600000024,0.5947330008613709,0.7223180520512608,0.899999976,0.812394380861371,0.9368256962340477,0.5,0.5093300273154966,0.26957181114502193,1.5,1.4510958265458742,0.13745340435231443,0.0,-0.01442551094992305,1.1627033042902806
0.178,0.239999995,0.2053828302218603,0.39978965126529137,0.300000012,0.29417416383689227,-0.03409304460586319,0.600000024,0.5962538705106768,0.5986812502661358,0.899999976,0.8139183570587526,0.8801866005929545,0.5,0.5100884505480758,0.28563743009494513,1.5,1.451852083,0.2052771645817348,0.0,-0.011758324422487634,1.3116969982271687
0.18,0.239999995,0.20653989847827126,0.49344691889899717,0.300000012,0.294554442,0.04525992974725406,0.600000024,0.5974176552381806,0.6259980788284384,0.899999976,0.8154710099773161,0.7529461520408309,0.5,0.5104773187391356,0.2279705967691022,1.5,1.4518597267391355,0.11783342484945082,0.0,-0.009049529543576885,1.3308711265999285
0.182,0.239999995,0.20730792955556895,0.48391448462307135,0.300000012,0.294554442,0.01875383125024108,0.600000024,0.5985706265736499,0.6300612696252411,0.899999976,0.8170079660075941,0.6730614368677676,0.5,0.510853052,0.21772767113488428,1.5,1.4522437319965045,0.16401755639633558,0.0,-0.006743608415260367,1.1604600979274349
0.184,0.239999995,0.20809644756643192,0.46051604384493255,0.300000012,0.294554442,0.06825897840957384,0.600000024,0.5997217713934583,0.6443657617770084,0.899999976,0.8185457625664319,0.6448934622974812,0.5,0.5108655001967292,0.09400033027121882,1.5,1.4526312851967291,0.14279644940348574,0.0,-0.004404844702876925,1.2937559140276949
0.186,0.239999995,0.20923612389959456,0.5159004461094682,0.300000012,0.294554442,0.01497974546792273,0.600000024,0.6005026116067256,0.43163140412974005,0.899999976,0.8196984545728595,0.6470263671748151,0.5,0.511236429,0.14497450148604818,1.5,1.453015229740997,0.151435981622466,0.0,-0.001728565060815645,1.1302151627443358
0.188,0.239999995,0.21001518778467618,0.4153418090479014,0.300000012,0.294554442,-0.026867352805022667,0.600000024,0.6016529898179281,0.47829926050401117,0.899999976,0.8208488318179281,0.5403698534515754,0.5,0.511236429,0.16221653740437159,1.5,1.4533992930318569,0.1620299516406232,0.0,0.0005712706026043484,1.1855161925278457
0.19,0.239999995,0.21113475718565303,0.5338863303396092,0.300000012,0.294554442,0.11303369846448999,0.600000024,0.6027725601768351,0.48021275949499526,0.899999976,0.8219717827740706,0.5690030342747856,0.5,0.5112398095884175,0.021151023316253577,1.5,1.4537733025884176,0.16185432930529076,0.0,0.0028171799428026692,1.2918424838231648
0.192,0.239999995,0.21190445192463278,0.4289168323486636,0.300000012,0.294554442,-0.02963247620659764,0.600000024,0.6035357839643631,0.42924225574139174,0.899999976,0.8231214739246329,0.6371816230666988,0.5,0.511619806,0.08232452845774138,1.5,1.454156529964363,0.20816623420876473,0.0,0.005117505866120877,1.1396149190479172
0.194,0.239999995,0.21306002729554802,0.5318908783399469,0.300000012,0.294554442,-0.018706518925114927,0.600000024,0.6039301399351561,0.3399716898998306,0.899999976,0.8242770669351561,0.6441897145277038,0.5,0.511619806,-0.01249124052504234,1.5,1.454543789796637,0.17522973537031214,0.0,0.007442886147350593,1.1971861932066294
0.196,0.239999995,0.2138505016300716,0.37960442173556086,0.300000012,0.294554442,0.08120550598663484,0.600000024,0.6047088914730311,0.32198795878663483,0.899999976,0.8250558184730311,0.2961477765403341,0.5,0.511619806,0.17491797172267304,1.5,1.4549336337365155,0.12809343231742243,0.0,0.009778235839618139,0.9715621490238664
0.198,0.239999995,0.21500264363225652,0.4840569251681965,0.300000012,0.294554442,-0.003490686458457504,0.600000024,0.6054634030864227,0.2680991560936941,0.899999976,0.8258233088762665,0.36470478904994635,0.5,0.5116327847898439,0.1797356704132793,1.5,1.4553173627898437,0.08622520686959113,0.0,0.01206861854237692,1.2838792499803313
0.2,0.239999995,0.2161277023371374,0.5518238672415596,0.300000012,0.294554442,-0.0016676918487874464,0.600000024,0.6058606096067523,0.2504431985463623,0.899999976,0.8265779703033761,0.2974177846509748,0.5,0.512003183,0.14517078403518782,1.5,1.45570073651165,0.2424801855577746,0.0,0.01398720172515454,0.9738768148449833
0.202,0.239999995,0.21652195038821284,0.3388019058866619,0.300000012,0.2945663635056073,0.023658932890002385,0.600000024,0.6066133689136244,0.36266314739036026,0.899999976,0.8269721878272489,0.22859602108589835,0.5,0.512003183,0.0368499210474827,1.5,1.4560840135056072,0.3403749618911954,0.0,0.01591167307372942,0.9677617483987115
0.204,0.239999995,0.21729002582352944,0.3150837506771793,0.300000012,0.29492665200106305,0.053520132098157334,0.600000024,0.606996974967399,0.14457779808858967,0.899999976,0.8277272489433026,0.24333337695570517,0.5,0.512003183,-0.11989774648724309,1.5,1.4564806048235293,0.2498249052696669,0.0,0.018214113644932674,1.1406193837586818
0.206,0.239999995,0.21805011715926015,0.2679696663941869,0.300000012,0.29456321246480904,0.011305641202978622,0.600000024,0.6073779327172711,0.08108597528441028,0.899999976,0.828107306441989,0.23872167264064376,0.5,0.512003183,-0.028779659910401153,1.5,1.457231925694451,0.2994662484343022,0.0,0.0204874432426135,0.9998110338220034
0.208,0.239999995,0.2188224492509741,0.27846563358950266,0.300000012,0.294938773,-0.0004162889708915884,0.600000024,0.6077636336254871,0.2659620547630071,0.899999976,0.828505009250974,0.10782777865528305,0.5,0.512003183,0.01235304447467339,1.5,1.457617653176255,0.17766139632500572,0.0,0.022405831052716024,0.9839453792768738
0.21,0.239999995,0.21955959104629844,0.37968879195989,0.300000012,0.294938773,0.002488270089388035,0.600000024,0.6081322045231492,0.027139068000573002,0.899999976,0.8292421510462984,0.21785263140992434,0.5,0.512003183,-0.008184243703758882,1.5,1.4579871412302317,0.3519386210649782,0.0,0.023881031799679122,1.05142503974788
0.212,0.239999995,0.22033829142565597,0.3429195413673469,0.300000012,0.294938773,0.0245912513819242,0.600000024,0.608519316,0.2362908342244898,0.899999976,0.8296352389912537,0.2471984440116618,0.5,0.512003183,-0.024483016256559766,1.5,1.4583787328688047,0.2852648741749271,0.0,0.025825000734693876,0.8809789761778426
0.214,0.239999995,0.2211109117837515,0.40020163787634405,0.300000012,0.294938773,0.010993656890681002,0.600000024,0.6085287291003584,0.20011089265352447,0.899999976,0.8300267177592593,0.3710849678428913,0.5,0.512003183,0.08988010155197132,1.5,1.4591504291248507,0.2743372001935484,0.0,0.027778629161887693,0.8421689881093191
0.216,0.239999995,0.22150543574970147,0.26543768448220684,0.300000012,0.294938773,0.02766776315118223,0.600000024,0.608903646,0.2794279934595176,0.899999976,0.8304109856477191,0.109100342,0.5,0.512003183,-0.06386078338309052,1.5,1.4595458572574636,0.36890036214377836,0.0,0.029690542033914497,0.8667797225177932
0.218,0.239999995,0.22226349397363082,0.28873383991480733,0.300000012,0.294938773,0.026544628896551726,0.600000024,0.6089145330020285,0.19545925348275864,0.899999976,0.8307959229736308,0.1111370189208925,0.5,0.512003183,0.08502375195131845,1.5,1.4603138749472617,0.3033888318985801,0.0,0.031227532985801217,0.8420969672150102
0.22,0.239999995,0.22264722753147353,0.22510697239771102,0.300000012,0.294938773,0.0207366291509299,0.600000024,0.6092982675314735,0.1288712217918455,0.899999976,0.831168413,0.17818008054363377,0.5,0.512003183,0.14322784865879828,1.5,1.4610701265100143,0.4148072238919886,0.0,0.032763422104434906,0.8606988312460657
0.222,0.239999995,0.22304135170423847,0.32516313713134604,0.300000012,0.29494975468863527,-0.008182584518397765,0.600000024,0.6096813826886354,0.1793595562149511,0.899999976,0.8311794220156031,0.09035271278132279,0.5,0.512003183,-0.038600045675826734,1.5,1.4614651493772706,0.26104818897391713,0.0,0.034307845097112245,0.838088529006055
0.224,0.239999995,0.22378926105827252,0.2521528910822385,0.300000012,0.29532215,0.03874379178345499,0.600000024,0.610053778,0.08378253518771289,0.899999976,0.8315549360582725,0.07585383844501216,0.5,0.512003183,0.024375287587347933,1.5,1.4622121320582724,0.45160340928540144,0.0,0.036178251174817516,0.8246268484336984
0.226,0.239999995,0.22418017798166648,0.18559177330144555,0.300000012,0.29532215,0.033277019940651076,0.600000024,0.6100635341734635,0.16569081422223528,0.899999976,0.8319458529816665,0.13501361252086028,0.5,0.512003183,0.14596455271489012,1.5,1.4626030731988484,0.48590034931813375,0.0,0.03736075814384769,0.7987772138827124
0.228,0.239999995,0.22455824677140776,0.19288663993963318,0.300000012,0.2953177262401312,0.01588863600668043,0.600000024,0.6104425317714077,0.18618438702732903,0.899999976,0.832319498,0.24961994137070329,0.5,0.512003183,-0.021268431306935506,1.5,1.4629864955197378,0.19610981629624682,0.0,0.03886955028774444,0.6226836784127292
0.23,0.239999995,0.224937201,0.1802739789956005,0.300000012,0.29495021504839475,0.038457166891438764,0.600000024,0.610821486,0.007155394525089179,0.899999976,0.832319498,0.12805270063769322,0.5,0.512003183,-0.07821843997717004,1.5,1.4637558440483946,0.29468906584149823,0.0,0.040041707617717005,0.6936379611286563
0.232,0.239999995,0.2249478140267739,0.16267846268483613,0.300000012,0.29532215,-0.003196986198823389,0.600000024,0.6108320727102893,0.07350119838107817,0.899999976,0.832319498,0.04769493643366551,0.5,0.5120137960543883,-0.06338406403745948,1.5,1.4641489787646778,0.4379624493276504,0.0,0.041200811185256335,0.551173643798055
0.234,0.239999995,0.22533471785467746,0.1634697723751488,0.300000012,0.29532215,0.043288381465960486,0.600000024,0.611204863,0.1561402538697929,0.899999976,0.8323326848546775,-0.016921600839919067,0.5,0.512387514,0.04059705988002856,1.5,1.4649086738546775,0.3673603022357772,0.0,0.04273246056403237,0.6403875665642704
0.236,0.239999995,0.22571753925844576,0.02535782109943894,0.300000012,0.29532215,0.02833679511257013,0.600000024,0.611204863,0.10437871094234213,0.899999976,0.832702875,0.04373891735907843,0.5,0.512387514,0.0023390916784051573,1.5,1.465304157948669,0.172256157744658,0.0,0.04388095620711472,0.564908362806494
0.238,0.239999995,0.226088285,0.20935129576216088,0.300000012,0.29532215,0.016508599871141255,0.600000024,0.6112177289025958,-0.059141933559869034,0.899999976,0.832702875,0.04855656388224976,0.5,0.512387514,0.006375076151309635,1.5,1.466059437902596,0.2901274928963985,0.0,0.0450327457234565,0.6369835059732226
0.24,0.239999995,0.226088285,0.19471977464710813,0.300000012,0.29532215,-0.015684509258172673,0.600000024,0.61158824,0.1261273274142019,0.899999976,0.832702875,-0.025312944264638967,0.5,0.512387514,0.07965550208322356,1.5,1.4664413341629743,0.2148268159800024,0.0,0.046162278744461736,0.5029659853578015
0.242,0.239999995,0.22609578044243303,0.10437354233671252,0.300000012,0.29532215,-0.020802657771180302,0.600000024,0.6115807445771181,0.04728894944170891,0.899999976,0.832702875,-0.03310914107892832,0.5,0.512387514,0.049292738653874,1.5,1.4672042170745836,0.07690915161766836,0.0,0.04731034149746561,0.5151409226828385
0.244,0.239999995,0.226471663,0.096893311,0.300000012,0.29532215,-0.028701782,0.600000024,0.611204863,-0.13625569172051621,0.899999976,0.8326907813773449,0.026014603766280318,0.5,0.5123996076226551,0.03399533819416896,1.5,1.467593127622655,0.33206489300131437,0.0,0.04809935096188314,0.522621155
0.246,0.239999995,0.22648467715524023,0.09658329576022415,0.300000012,0.29532215,-0.029452018843686655,0.600000024,0.611204863,-0.10932554506653154,0.899999976,0.832319498,-0.04315006168475021,0.5,0.512770891,0.022772746555025633,1.5,1.4679903747696437,0.1798886959309646,0.0,0.049240088769643496,0.5178675882609991
0.248,0.239999995,0.226855993,0.08882665128596973,0.300000012,0.29532215,-0.04808624306901895,0.600000024,0.611204863,-0.01713986378591012,0.899999976,0.832319498,-0.07814549928596973,0.5,0.5127839154898081,0.0030507054795565623,1.5,1.4687442219001072,0.35542638046155683,0.0,0.05001998487972344,0.3831733929836691
0.25,0.239999995,0.226855993,0.11772849984680751,0.300000012,0.29532215,0.03237578778543609,0.600000024,0.611204863,-0.06691905815555294,0.899999976,0.8323066026329518,-0.10699602298961407,0.5,0.513154268,0.15760074126307091,1.5,1.469128391367048,0.27881624147196976,0.0,0.05117068219013337,0.4109379124717337
0.252,0.239999995,0.226855993,0.05903885269134478,0.300000012,0.29532215,0.07907343504113018,0.600000024,0.611204863,-0.20556427883118739,0.899999976,0.831936121,-0.049464545379470676,0.5,0.513154268,0.23374106745207437,1.5,1.4695080597879113,0.16176166215808296,0.0,0.0522922357879113,0.44226847617060083
0.254,0.239999995,0.22686514596080296,0.07135409572146335,0.300000012,0.29532215,0.03942176028495071,0.600000024,0.611204863,-0.03670268882123768,0.899999976,0.8319269680391971,-0.170835645808172,0.5,0.5131634209608029,0.15448813423375699,1.5,1.4698914029608028,0.17373102329825393,0.0,0.052684731921605894,0.27906375871968164
0.256,0.239999995,0.22723937,0.08649316442414122,0.300000012,0.29532215,0.06460807876252386,0.600000024,0.6111970436456345,0.04482491066746183,0.899999976,0.8315449051878578,-0.2600737126473044,0.5,0.513537645,0.2599811794838979,1.5,1.4702734463543656,0.12874164526777196,0.0,0.05344883816650763,0.3624952406221374
0.258,0.239999995,0.22723937,0.024226819065992295,0.300000012,0.29532215,0.0003666189023362234,0.600000024,0.610821486,-0.0731434317091763,0.899999976,0.8311603336436657,-0.18298947696604045,0.5,0.513545744461103,0.10365447550216762,1.5,1.4706571034611031,0.19765580807791425,0.0,0.0542089673563343,0.22187605288330925
0.26,0.239999995,0.22725128323293892,-0.08761293225110554,0.300000012,0.29532215,0.04034862043994263,0.600000024,0.610821486,-0.025181287226843554,0.899999976,0.830773093122027,-0.21158369374614558,0.5,0.513921976,0.06498353014043266,1.5,1.471045248232939,0.09866011359435879,0.0,0.054608121110911914,0.2859164465411737
0.262,0.239999995,0.227622747,0.01288081269377534,0.300000012,0.29532215,0.026890815374910566,0.600000024,0.610808593966134,-0.003865745416646793,0.899999976,0.8303878129997615,-0.17038240564345336,0.5,0.5139348680002385,0.11621662146410684,1.5,1.4714424960004768,0.2521681683062247,0.0,0.05536486500023849,0.2774883327774863
0.264,0.239999995,0.227622747,0.05324141939277223,0.300000012,0.29532215,0.030146078223014745,0.600000024,0.610438108,-0.06995384917641465,0.899999976,0.8300043525221114,-0.14011222161531145,0.5,0.514305353,0.09951335248834998,1.5,1.472183466,0.2135384872853067,0.0,0.055748293303376134,0.20832546671326677
0.266,0.239999995,0.227622747,0.02736909698817063,0.300000012,0.29532215,-0.04230043143792568,0.600000024,0.61042612208412,-0.03709758267821723,0.899999976,0.829632998,-0.3228823620585494,0.5,0.514305353,0.04072751136145298,1.5,1.4722074081421914,0.2894252835658979,0.0,0.05613068319512487,0.29407481121997847
0.268,0.239999995,0.227622747,0.04989995388739115,0.300000012,0.29532215,0.004767321896695694,0.600000024,0.6100409728514852,-0.04539589896480973,0.899999976,0.8296073876695694,-0.14171442602982226,0.5,0.5143181581485149,-0.03899933909626625,1.5,1.472963979148515,0.28391984122688774,0.0,0.056502104,0.20741677258403912
0.27,0.239999995,0.227622747,0.10143694979816514,0.300000012,0.29532215,0.0076006169187418085,0.600000024,0.609670401,-0.13363336728309305,0.899999976,0.8288531790393184,-0.24518535702490168,0.5,0.51468873,0.13317211657142858,1.5,1.4733476149606815,0.29270338631585846,0.0,0.05651516796068152,0.13606788694102226
0.272,0.239999995,0.22763560985710884,0.05507024963081499,0.300000012,0.29532215,-0.10037425137394408,0.600000024,0.609670401,-0.18918677403164783,0.899999976,0.8284571082776918,-0.21370301905698988,0.5,0.51468873,0.07918712467495538,1.5,1.473717928,0.19822811904223678,0.0,0.05689837586519929,0.07755885477977395
0.274,0.239999995,0.228006124,-0.006866455,0.300000012,0.29532215,0.03733591594446426,0.600000024,0.609670401,-0.07179371470008324,0.899999976,0.8277030763131169,-0.3252500114197883,0.5,0.5147008116868831,0.05129640490105839,1.5,1.473742121437983,-0.05426711777143537,0.0,0.057269812,0.048065186
0.276,0.239999995,0.228006124,-0.006646263984568264,0.300000012,0.29532215,-0.03471365531947226,0.600000024,0.6096593364028743,0.00010522400318058655,0.899999976,0.8273096518057487,-0.31071178305889974,0.5,0.515072107,0.009477830940275652,1.5,1.4744967005971257,0.14480804935481212,0.0,0.0572808765971257,0.05119200873118153
0.278,0.239999995,0.228006124,0.003034156849725472,0.300000012,0.295328785195154,0.06787332638935308,0.600000024,0.609287024,-0.03011849013487706,0.899999976,0.8265583752937455,-0.36750003879004534,0.5,0.515072107,-0.0014848336301026494,1.5,1.474869013,0.1603776454450943,0.0,0.057653189,0.15648562921389353
0.28,0.239999995,0.228006124,0.12780598164172013,0.300000012,0.295698467908173,0.06095263065217391,0.600000024,0.609287024,-0.1960174808370159,0.899999976,0.826166577816346,-0.3119812286987408,0.5,0.5150791836577572,0.21429474870539322,1.5,1.474876072091827,0.1666884634691138,0.0,0.057653189,0.15789342049560465
0.282,0.239999995,0.228006124,-0.09387812099782135,0.300000012,0.29532215,0.008329803191721132,0.600000024,0.6092811772766885,-0.08558074684313725,0.899999976,0.8254022340501089,-0.3884501322745098,0.5,0.515456438,0.04774943035294118,1.5,1.4752582512570807,0.027324260814814816,0.0,0.057653189,-0.006563938699346405
0.284,0.239999995,0.22801770355667145,0.00564487593543759,0.300000012,0.29532215,-0.005999857037302726,0.600000024,0.608903646,0.004320185978479197,0.899999976,0.8246346841563845,-0.2955459802912482,0.5,0.515456438,0.12381990625968436,1.5,1.475636721,0.2668354794691535,0.0,0.057653189,0.014900853631276901
0.286,0.239999995,0.22837776914597235,0.10828885544053861,0.300000012,0.29532215,0.011415214398474737,0.600000024,0.608903646,-0.005417815469613918,0.899999976,0.8242375482704958,-0.2647552035395615,0.5,0.5154690923647521,0.05938618155255005,1.5,1.4756493753647522,0.027338314292540515,0.0,0.057640534635247855,0.06925008477776455
0.288,0.239999995,0.22801841900221834,-0.048956483678925855,0.300000012,0.29532215,0.007351449870286048,0.600000024,0.6088913510297723,-0.04836168563152364,0.899999976,0.8234838080297723,-0.5214892277542323,0.5,0.515839815,0.12234511327425569,1.5,1.476020098,0.10373491465113836,0.0,0.057269812,-0.1568220888558085
0.29,0.239999995,0.228390455,-0.028442931361317366,0.300000012,0.29532215,0.031208265385508978,0.600000024,0.608519316,-0.06327659441353294,0.899999976,0.8231073193873054,-0.1650993437302994,0.5,0.515839815,0.10596141711293412,1.5,1.476024551601078,0.09258476123988023,0.0,0.057269812,-0.07817365338826347
0.292,0.239999995,0.228390455,0.08328560788222517,0.300000012,0.29532215,-0.012605028438156148,0.600000024,0.608519316,-0.1732836453060215,0.899999976,0.8227158116110775,-0.2566152355850127,0.5,0.515839815,-0.031731266343188125,1.5,1.476403475,9.684636454688057e-05,0.0,0.05726350464920961,-0.173366362018704
0.294,0.239999995,0.228390455,0.09005371190409484,0.300000012,0.29532215,-0.013852777105962645,0.600000024,0.6085084371267959,-0.007439590467313219,0.899999976,0.8219507350840517,-0.3151619355506466,0.5,0.515839815,-0.056711284691451154,1.5,1.476414353873204,0.09821896212284484,0.0,0.056885481,-0.1784597389619253
0.296,0.239999995,0.228390455,0.06255676018576369,0.300000012,0.29532215,-0.02088265280767855,0.600000024,0.608135939,-0.08722749172850841,0.899999976,0.8215647861911292,-0.21181707482961729,0.5,0.5158523397762013,0.014864265867294623,1.5,1.476786852,0.1255574639244068,0.0,0.05687295622379874,0.003676063620484082
0.298,0.239999995,0.228390455,-0.008549281357142856,0.300000012,0.29532215,0.02953909692142857,0.600000024,0.6081233423271428,-0.1671937673,0.899999976,0.8211687396542857,-0.18543297893857144,0.5,0.516223192,0.07180568138,1.5,1.4767994800185715,0.05524291983428571,0.0,0.056502104,-0.09449998591714286
0.3,0.239999995,0.228390455,-0.09578266511174785,0.300000012,0.29532215,-0.03214143710601719,0.600000024,0.607752562,-0.17271303651862463,0.899999976,0.8204150654469914,-0.3204799199512894,0.5,0.5162352755157593,0.09660474935530086,1.5,1.477171183,0.006393011902578796,0.0,0.056490020484240684,-0.2006305380687679
0.302,0.239999995,0.228390455,0.12175674601418694,0.300000012,0.29532215,0.044510586520743925,0.600000024,0.607752562,-0.10449260565236052,0.899999976,0.8200301886007392,-0.29730534783047213,0.5,0.516606569,0.0868814128158083,1.5,1.477183843399261,0.1527217308357177,0.0,0.05610606660073915,-0.11038222063292799
0.304,0.239999995,0.228390455,-0.0037712925472120707,0.300000012,0.29532215,-0.051457660535305906,0.600000024,0.607752562,-0.04509251835081929,0.899999976,0.8196344347331133,-0.2684432925770364,0.5,0.516619118768596,0.06488739236201815,1.5,1.47755456,0.05984318724213132,0.0,0.05573535,-0.23628147794082283
0.306,0.239999995,0.228390455,-0.13698834209191646,0.300000012,0.29532215,-0.008965338885687624,0.600000024,0.6077443783800304,-0.033314281460982156,0.899999976,0.8188845130585559,-0.2867851288674909,0.5,0.5169909,0.15849098176472648,1.5,1.47755456,0.10781315045375015,0.0,0.05572716640137642,-0.20350317025813602
0.308,0.239999995,0.228390455,-0.08621820998856876,0.300000012,0.29532215,0.01862769180811851,0.600000024,0.6073692287192347,-0.00763245636906567,0.899999976,0.8185084318302811,-0.24796376465099731,0.5,0.5169909,0.2540512618592092,1.5,1.47755456,0.19561102416691942,0.0,0.05535201771911816,-0.05418650010241455
0.31,0.239999995,0.228390455,0.01722007969978245,0.300000012,0.29532215,0.014692731011360888,0.600000024,0.607369184,-0.010966059358955766,0.899999976,0.8181181523894127,-0.23599775147739907,0.5,0.5169943288008219,0.08881356595213923,1.5,1.47755456,-0.1509024820988639,0.0,0.054964213199178144,-0.18593033387067925
0.312,0.239999995,0.228390455,-0.020381382218045113,0.300000012,0.29532215,0.02369667005263158,0.600000024,0.6073605149022556,-0.10858707820300753,0.899999976,0.8173496073984963,-0.2623918862857143,0.5,0.517374277,0.038909912,1.5,1.47755456,0.06798722664661655,0.0,0.05457561739849624,-0.24483854235338345
0.314,0.239999995,0.228390455,-0.07520425482662019,0.300000012,0.29532215,-0.019086510079716245,0.600000024,0.606984854,-0.040806307089695806,0.899999976,0.8169566014358542,-0.2271417232386678,0.5,0.5173834039262956,0.0371299339949501,1.5,1.47755456,-0.014706522817842974,0.0,0.054191761073704464,-0.23989401257412526
0.316,0.239999995,0.228390455,0.00164471922235434,0.300000012,0.29532215,-0.03711886417241379,0.600000024,0.606984854,-0.07273202074197384,0.899999976,0.8161948618204519,-0.25061173514982166,0.5,0.5177699621795481,-0.030420386971462546,1.5,1.47755456,-0.02652555661117717,0.0,0.05380517219262782,-0.15838042864209273
0.318,0.239999995,0.228390455,0.025410994628229662,0.300000012,0.29532215,-0.016934002984569377,0.600000024,0.606984854,-0.01110971267416268,0.899999976,0.8158009270857656,-0.28394396138935407,0.5,0.518141031,0.1323819096742823,1.5,1.47755456,0.06589777080813397,0.0,0.05342176123528708,-0.1304336068778708
0.32,0.239999995,0.228390455,-0.06365436599344224,0.300000012,0.29532215,0.004507844672230834,0.600000024,0.6069721920912126,-0.007244194207106236,0.899999976,0.815056086,-0.2572711113222845,0.5,0.518141031,0.09183973530893048,1.5,1.47755456,0.056587482862286875,0.0,0.05303714109121259,-0.2753521836677
0.322,0.239999995,0.22840320073200668,0.01663048046973308,0.300000012,0.29533489573200666,-0.02390603138560534,0.600000024,0.606601477,-0.06874442486415634,0.899999976,0.8150433402679933,-0.08640720149368446,0.5,0.518141031,-0.010480235467469018,1.5,1.47755456,0.09404216778527169,0.0,0.05265368026799333,-0.18559701891956626
0.324,0.239999995,0.228773832,0.03404084079754601,0.300000012,0.29569332319458275,0.025322427471698113,0.600000024,0.6065892731945827,-0.10742141553073271,0.899999976,0.814648301357333,-0.18276335976791297,0.5,0.518141031,0.01599329117930316,1.5,1.4775667638054173,0.03015546765424239,0.0,0.05225861102106725,-0.2356063888828568
0.326,0.239999995,0.228773832,0.025056591498603863,0.300000012,0.29532215,-0.046642772971105986,0.600000024,0.6062181,-0.1352336798544373,0.899999976,0.8139047875255554,-0.2417537351920602,0.5,0.518141031,-0.031280518,1.5,1.477936773417992,-0.06439955440864392,0.0,0.05151301383598397,-0.23127172363457568
0.328,0.239999995,0.228773832,-0.014753468276737809,0.300000012,0.29532215,0.013497478571479671,0.600000024,0.6062100091774174,-0.14975112467151544,0.899999976,0.813521624,-0.20590323540169309,0.5,0.518141031,-0.029090762594968404,1.5,1.4775626508225825,-0.06561960877989746,0.0,0.05074047604411589,-0.2675331127266007
0.33,0.239999995,0.228773832,-0.024369547982698962,0.300000012,0.29532215,-0.037230780847989496,0.600000024,0.6058265603800262,-0.22726148991098916,0.899999976,0.8135134816415702,-0.09902954956568429,0.5,0.518141031,0.07108572966638825,1.5,1.477937937,-0.03691439886063715,0.0,0.05034797128314044,-0.4652588777425128
0.332,0.239999995,0.22876532572277228,0.08028265390647739,0.300000012,0.29532215,-0.0123427076245974,0.600000024,0.605450392,-0.0851683452643445,0.899999976,0.8131297407005845,-0.26545951027782416,0.5,0.518141031,0.006832599161517356,1.5,1.477937937,-0.0066281658737921976,0.0,0.049588995722772276,-0.3508410166230467
0.334,0.239999995,0.22839932241163716,-0.047598102622696065,0.300000012,0.29533101741163714,-0.0011845109490422842,0.600000024,0.6054415245883628,-0.2181047513693531,0.899999976,0.8127371121340803,-0.16836867536610048,0.5,0.518141031,0.007352287699313335,1.5,1.477937937,0.06447870066461872,0.0,0.04919636811095048,-0.2462132269508493
0.336,0.239999995,0.228773832,-0.08875505020014136,0.300000012,0.295705527,0.01583217912368948,0.600000024,0.605054414907763,-0.1118037684761456,0.899999976,0.811974561907763,-0.4116972359104724,0.5,0.518141031,0.0868995138824361,1.5,1.477937937,0.062338923728707744,0.0,0.048421216815525976,-0.3083358230167276
0.338,0.239999995,0.228773832,0.017734363853129143,0.300000012,0.2956972520110937,0.1089781963976848,0.600000024,0.604683638,-0.139234259622935,0.899999976,0.811603785,-0.2898603638719402,0.5,0.5181493265804895,-0.06895517243060412,1.5,1.477937937,-0.10072039376787653,0.0,0.047671367419510426,-0.5082290882543109
0.34,0.239999995,0.228773832,0.09062762109423714,0.300000012,0.29532215,0.002869963800661314,0.600000024,0.604683638,-0.017570888345772317,0.899999976,0.811591379996221,-0.24789558571846956,0.5,0.5185129261598961,0.0864943413615966,1.5,1.477937937,0.12656799704770902,0.0,0.04727052205715636,-0.2732172264367029
0.342,0.239999995,0.228773832,-0.049056323260298504,0.300000012,0.29532215,-0.044320241796417914,0.600000024,0.6046747116101493,-0.0038386561056716418,0.899999976,0.8112114806101492,-0.1075726411480597,0.5,0.518141031,-0.04345384292298508,1.5,1.477937937,-0.09168559484,0.0,0.04651965161014925,-0.3423486395976119
0.344,0.239999995,0.228773832,0.03999844394582393,0.300000012,0.29532215,0.0597530393476298,0.600000024,0.604300261,0.022462406146726864,0.899999976,0.8108274868171557,-0.045268315112866817,0.5,0.518141031,-0.10343426775846501,1.5,1.477937937,0.042852053248307,0.0,0.04613568148081264,-0.2682605600361174
0.346,0.239999995,0.228773832,0.1390294093899409,0.300000012,0.29532215,0.013617444997105295,0.600000024,0.604300261,-0.15969154391231458,0.899999976,0.8104527,-0.11576710344313111,0.5,0.518141031,-0.0008623208188397058,1.5,1.477946260225184,0.012445142263297551,0.0,0.04574515683801713,-0.22798817737691474
0.348,0.239999995,0.228773832,-0.02417831021848146,0.300000012,0.29532215,0.013053690029782225,0.600000024,0.6042876837171277,-0.05450438537304297,0.899999976,0.810440153936904,-0.14124748315197175,0.5,0.518141031,-0.00404227669711595,1.5,1.478308767936904,0.03590760436845203,0.0,0.04496902387380812,-0.28564035250005887
0.35,0.239999995,0.228773832,0.004272111590389016,0.300000012,0.29532215,-0.03165158243935927,0.600000024,0.60391593,-0.0877060748375286,0.899999976,0.810069323,-0.14262802125171625,0.5,0.518141031,0.03379804280549199,1.5,1.477937937,0.005509226100686499,0.0,0.04421155108009153,-0.1398382210594966
0.352,0.239999995,0.228773832,-0.0475136525334832,0.300000012,0.29532215,0.020005529430194038,0.600000024,0.60391593,-0.11931510915522953,0.899999976,0.8100576656539281,-0.0697112258419309,0.5,0.518152717354354,0.01242902436441079,1.5,1.477949594346072,-0.00449077756519167,0.0,0.04343633930785613,-0.2920599619744439
0.354,0.239999995,0.228773832,-0.07706633776197283,0.300000012,0.29532215,0.03114113753562068,0.600000024,0.6039070694879676,-0.0239245305899452,0.899999976,0.809685946,-0.12639190876816772,0.5,0.5185164794393614,0.13829100197259947,1.5,1.478321314,0.11144192253752681,0.0,0.042675156927329046,-0.19392550035072673
0.356,0.239999995,0.228773832,-0.01054746372624912,0.300000012,0.2953306035392916,0.00630175151513019,0.600000024,0.603532553,-0.12134443611118931,0.899999976,0.8096774924386582,-0.08410257026882477,0.5,0.518141031,0.018287817552193292,1.5,1.478321314,-0.039408766322308234,0.0,0.04190828492141684,-0.36487812628618344
0.358,0.239999995,0.228773832,0.09684700069947631,0.300000012,0.2957031999079981,-0.004568537758985956,0.600000024,0.603532553,-0.20962432156807903,0.899999976,0.809302568,-0.12527750491859083,0.5,0.5181433638827659,0.05130218418995477,1.5,1.478321314,0.03978167134277553,0.0,0.04115377802523209,-0.5410682489122828
0.36,0.239999995,0.228773832,0.08906385880840664,0.300000012,0.29532215,-0.010683613619012707,0.600000024,0.6035308197462121,-0.003959006769916911,0.899999976,0.809302568,-0.025515029668866082,0.5,0.5185236244331622,0.08140686971566471,1.5,1.478321314,0.0077646060657380256,0.0,0.04038726349242424,-0.31332358313819647
0.362,0.239999995,0.228773832,0.045013428,0.300000012,0.29532215,-0.03353376606433302,0.600000024,0.6031601477637181,-0.000267154218543046,0.899999976,0.8092915689626301,-0.10239062550094608,0.5,0.5181520300659886,0.030363474883396406,1.5,1.478321314,0.03820038553145695,0.0,0.03960200517029328,-0.2609110624302271
0.364,0.239999995,0.228773832,0.042051042299773356,0.300000012,0.2953301532178218,0.00816277908063939,0.600000024,0.6035165465643564,0.05826775850554695,0.899999976,0.808918238,-0.18421951843802936,0.5,0.5185173388668735,-0.0011770359283072886,1.5,1.478321314,0.05911181664559227,0.0,0.03884026156435644,-0.34015211709543125
0.366,0.239999995,0.228773832,-0.09299582397400429,0.300000012,0.29569729806367756,0.03615316619580253,0.600000024,0.602765799,-0.1689205550002385,0.899999976,0.8089100090636775,-0.13057818160410206,0.5,0.518141031,-0.02020634109587408,1.5,1.478321314,-0.017675522171237776,0.0,0.03807303565036966,-0.4397843716143573
0.368,0.239999995,0.228773832,0.08344314027096619,0.300000012,0.29533059158236075,0.008914979510768861,0.600000024,0.602765799,-0.03524635276765732,0.899999976,0.808534861,-0.20352101242124895,0.5,0.5181494935884972,-0.0004745074040428351,1.5,1.478321314,-0.056675853482493085,0.0,0.037304922835278545,-0.34942026207664545
0.37,0.239999995,0.228773832,0.027423364141390016,0.300000012,0.295705527,0.024016827497969906,0.600000024,0.602765799,0.034762647624074515,0.899999976,0.808534861,-0.1238139914093623,0.5,0.518513429105326,0.07551314908550275,1.5,1.478321314,0.013987138013135897,0.0,0.036531215830905184,-0.3157610761721997
0.372,0.239999995,0.228773832,0.004916380033317581,0.300000012,0.29569307087110114,0.0030666918295132323,0.600000024,0.602765799,-0.10887033838067108,0.899999976,0.808534861,-0.01263393141989603,0.5,0.518141031,-0.06938891029111531,1.5,1.478321314,-0.012188292013114367,0.0,0.03576243174220227,-0.3400297561461484
0.374,0.239999995,0.228773832,0.08312401757272293,0.300000012,0.29532215,-0.010718415391988555,0.600000024,0.6027566578936576,-0.10506746549117787,0.899999976,0.808534861,-0.0461732998769671,0.5,0.5181501948292799,-0.10858443949117787,1.5,1.478321314,0.10314647345493562,0.0,0.035002285088221265,-0.44465361746447307
0.376,0.239999995,0.228773832,0.07841032294681861,0.300000012,0.29533125201804367,-0.014608399205128205,0.600000024,0.602382421,-0.046298904657169994,0.899999976,0.8085257589819563,0.027078101855650523,0.5,0.518525362,0.10048847217853751,1.5,1.478321314,-0.030050639709401708,0.0,0.03423467796391263,-0.37349212247388414
0.378,0.239999995,0.2287812792810219,-0.052775577522251,0.300000012,0.295705527,0.06746926672239228,0.600000024,0.602382421,-0.05368363152743113,0.899999976,0.8081589312810219,-0.14329462002295737,0.5,0.5185178961870732,0.1220033060987756,1.5,1.478321314,0.15132425603108077,0.0,0.03347121490605133,-0.26616656940487404
0.38,0.239999995,0.229154476448325,0.018026143507483963,0.300000012,0.29570279444832503,0.04115497676336422,0.600000024,0.602382421,0.023405424179615112,0.899999976,0.808534861,-0.020980019041339986,0.5,0.518141031,0.07912981832430506,1.5,1.478321314,0.10228928992017106,0.0,0.032712954896650034,-0.33763796544975055
0.382,0.239999995,0.228773832,0.08434386840649909,0.300000012,0.29532215,-0.047947447109748624,0.600000024,0.602382421,-0.15891054090312692,0.899999976,0.808534861,-0.0734325715812385,0.5,0.518141031,-0.057282205172900065,1.5,1.478321314,0.024636161330472105,0.0,0.031947431475168604,-0.28967430357265483
0.384,0.239999995,0.228773832,-0.012098316480286739,0.300000012,0.29533424217777776,-0.074268726590681,0.600000024,0.602382421,0.03027015570609319,0.899999976,0.808534861,0.07739924996630825,0.5,0.518141031,-0.07106931411684589,1.5,1.478321314,0.0031950477663082438,0.0,0.030776396644444443,-0.42968692621792115
0.386,0.239999995,0.228773832,-0.12224731944767582,0.300000012,0.295705527,0.04054139468462455,0.600000024,0.6023695031144218,0.030115066147318233,0.899999976,0.808534861,-0.0499246114965435,0.5,0.518141031,0.01599626657353993,1.5,1.478321314,0.03619792112705602,0.0,0.03000802322693683,-0.4324789942991657
0.388,0.239999995,0.228773832,-0.014149887074985216,0.300000012,0.29569278555269074,0.004331039552927262,0.600000024,0.601998091,-0.025532438931401537,0.899999976,0.808534861,0.027366651933530453,0.5,0.518141031,-0.07065360741797752,1.5,1.478321314,0.0482443748807806,0.0,0.02924063610538143,-0.38752339147806036
0.39,0.239999995,0.228773832,0.081877979699679,0.300000012,0.2953319497925336,-0.0018710184086315538,0.600000024,0.601998091,-0.03074663185530853,0.899999976,0.808534861,0.003653963503507312,0.5,0.518141031,-0.017469598706693616,1.5,1.478321314,-0.01221766254714065,0.0,0.028479741029009627,-0.4506755379277137
0.392,0.239999995,0.228773832,-0.026762853089668158,0.300000012,0.295705527,-0.015018149596846317,0.600000024,0.601998091,-0.00541882756719228,0.899999976,0.808534861,0.055487729868674986,0.5,0.518141031,-0.012427348573782065,1.5,1.478321314,0.02009896742386444,0.0,0.02770567145610732,-0.3841109242339374
0.394,0.239999995,0.228773832,-0.09441066668758377,0.300000012,0.295705527,0.010615080680760326,0.600000024,0.601998091,-0.04135847640575119,0.899999976,0.808534861,0.04701768965115146,0.5,0.518141031,0.07657850234884855,1.5,1.478321314,-0.07343122654051419,0.0,0.026573761924942124,-0.4003366573683441
0.396,0.239999995,0.228773832,0.0028952321248655755,0.300000012,0.295705527,0.015682784177440554,0.600000024,0.6019859973773449,0.00164913065623133,0.899999976,0.8085469546226551,0.0954300897370056,0.5,0.518141031,0.029850906636276736,1.5,1.478321314,-0.0013660887205161907,0.0,0.025789630754689926,-0.5254515695148764
0.398,0.239999995,0.228773832,0.11179693931232877,0.300000012,0.295705527,0.04925221412793329,0.600000024,0.601614714,-0.031134945600833828,0.899999976,0.808918238,0.14136014387242404,0.5,0.518141031,0.032961255905658134,1.5,1.478321314,0.01847853801786778,0.0,0.025021092698987495,-0.42594568433484215
0.4,0.239999995,0.228773832,0.016671465035066793,0.300000012,0.295705527,0.058657610030057254,0.600000024,0.601614714,-0.007414262002862595,0.899999976,0.808918238,0.06179008794775764,0.5,0.518141031,0.03536020506965649,1.5,1.478321314,-0.0865679539649332,0.0,0.024253931666507633,-0.45557566635090646
0.402,0.239999995,0.228773832,0.07652921937932264,0.300000012,0.295705527,-0.00623689580855615,0.600000024,0.601614714,-0.06889225741889482,0.899999976,0.8089311175080214,0.1033384489882353,0.5,0.518141031,-0.02099212261426025,1.5,1.478321314,0.017043233986452765,0.0,0.02347402731550802,-0.5029892675040999
0.404,0.239999995,0.228773832,-0.025824448647768967,0.300000012,0.295705527,0.029922698015623146,0.600000024,0.6016263301098355,0.030674734818558407,0.899999976,0.809302568,0.023882470114096343,0.5,0.518141031,0.05287434980376376,1.5,1.478321314,0.09313615918842466,0.0,0.022338255874659724,-0.511199909092792
0.406,0.239999995,0.228773832,0.0016600512824606717,0.300000012,0.29569675046618926,-0.0273719350834703,0.600000024,0.6019893144661893,0.0432914663715661,0.899999976,0.809302568,-0.015905827232448932,0.5,0.518141031,-0.03602170510436722,1.5,1.478321314,0.03442961782448932,0.0,0.021585032466189244,-0.5816191785700869
0.408,0.239999995,0.228773832,-0.02503357734986945,0.300000012,0.2953251529530026,-0.013698129624020889,0.600000024,0.601614714,-0.048997843830287206,0.899999976,0.8093055709608356,0.05462287906005222,0.5,0.518141031,0.02201767551436031,1.5,1.478321314,-0.04512058291383812,0.0,0.02120442609399478,-0.4290524779007833
0.41,0.239999995,0.228773832,-0.006936132368459302,0.300000012,0.2957041803511386,-0.02664517240346415,0.600000024,0.601614714,0.0452975335625,0.899999976,0.809685946,0.11195378749031008,0.5,0.518141031,0.008537048531249999,1.5,1.478321314,0.07699980363493217,0.0,0.02044098135125969,-0.36652746900920546
0.412,0.239999995,0.228773832,-0.02655582813336526,0.300000012,0.29532953940464507,-0.014505606121513229,0.600000024,0.601614714,-0.006131939830001197,0.899999976,0.809693335404645,0.05554752715263977,0.5,0.518141031,0.04847346229067401,1.5,1.478321314,0.18621076434730036,0.0,0.019661191190709925,-0.23927443313468216
0.414,0.239999995,0.228773832,-0.016132072182577565,0.300000012,0.295705527,-0.009661960169451074,0.600000024,0.601614714,-0.1132750278940334,0.899999976,0.8100783355619332,0.05125778579582339,0.5,0.518141031,-0.013306737022076371,1.5,1.478321314,-0.013581706523866349,0.0,0.01890018101109785,-0.26540605091181385
0.416,0.239999995,0.228773832,0.1054471801409517,0.300000012,0.295705527,-0.011362869219778901,0.600000024,0.601614714,0.010224012170511897,0.899999976,0.8104621673936554,0.18285735399555395,0.5,0.518141031,-0.21090119818228792,1.5,1.478321314,-0.0318870190877193,0.0,0.018505997164143237,-0.3562213635145398
0.418,0.239999995,0.228773832,0.07925834317748091,0.300000012,0.2956930891965649,0.07475455484541985,0.600000024,0.601614714,-0.03372664484351145,0.899999976,0.81083703,0.144059595759542,0.5,0.518141031,0.04712461558015268,1.5,1.478321314,-0.005822862458015267,0.0,0.01773325539312977,-0.35700718635114503
0.42,0.239999995,0.228773832,0.006029653506065651,0.300000012,0.2953347802841342,0.006645555191246432,0.600000024,0.601614714,-0.08374427573120836,0.899999976,0.81083703,0.1815774717045671,0.5,0.518141031,0.021938864466460515,1.5,1.478321314,-0.13063609763534728,0.0,0.016991377,-0.4626299238721456
0.422,0.239999995,0.228773832,-0.06327719011536627,0.300000012,0.295705527,0.01067886979634932,0.600000024,0.601614714,-0.07330434299152946,0.899999976,0.8108605394291338,0.07396574050501073,0.5,0.518141031,0.10370933992161775,1.5,1.478321314,-0.03257895316618945,0.0,0.016967838350990215,-0.2709589128395371
0.424,0.239999995,0.228773832,-0.05712453862909908,0.300000012,0.295705527,0.04490936961003907,0.600000024,0.601614714,0.08417259451308157,0.899999976,0.811603785,0.2141031845200663,0.5,0.518141031,0.028848541119095537,1.5,1.478321314,-0.029163236058955842,0.0,0.016211687050432105,-0.31872129669101457
0.426,0.239999995,0.228773832,0.08627707751221547,0.300000012,0.295705527,0.015578415949588845,0.600000024,0.601614714,-0.05795092021630318,0.899999976,0.8116131969487546,0.10785414400869979,0.5,0.518141031,0.0010251625154332022,1.5,1.478321314,0.0016936409734239063,0.0,0.01583088005124538,-0.19402892801823382
0.428,0.239999995,0.22878318827927388,0.02953212252500601,0.300000012,0.295705527,-0.025950896633685983,0.600000024,0.601614714,0.003490626698725655,0.899999976,0.811987162,0.001062778771820149,0.5,0.518141031,0.00991729588254388,1.5,1.478321314,-0.06379812757105073,0.0,0.015447535438446743,-0.17237181454315942
0.43,0.239999995,0.2291446887022646,0.07879409470941598,0.300000012,0.295705527,-0.034785074183551846,0.600000024,0.6016021937022646,-0.015105510224791419,0.899999976,0.811999713420739,0.13683805147246722,0.5,0.518141031,-0.053658501651489866,1.5,1.478321314,-0.03674891077568534,0.0,0.015060063702264601,-0.14525275557020262
0.432,0.239999995,0.228773832,-0.0026667380863755665,0.300000012,0.295705527,0.02539843477594846,0.600000024,0.601231337,-0.004061135347411119,0.899999976,0.812371492,0.18809414934025293,0.5,0.518141031,-0.12255295655308995,1.5,1.478321314,0.05881970118110236,0.0,0.01467676622882367,-0.3095207596461465
0.434,0.239999995,0.228773832,0.07634625150828664,0.300000012,0.295705527,0.07318897734005007,0.600000024,0.601231337,-0.07794720221533326,0.899999976,0.8123842453305116,0.13128157963264578,0.5,0.518141031,0.06404388638297365,1.5,1.478321314,0.05678244445785143,0.0,0.014280291603433887,-0.23818547065875761
0.436,0.239999995,0.22878667215935639,0.05768767974219309,0.300000012,0.295705527,-0.036816278918355184,0.600000024,0.601231337,-0.028442674123241956,0.899999976,0.812754869,0.11185287167318236,0.5,0.518141031,-0.04678755794123957,1.5,1.478321314,0.060787339278903466,0.0,0.013525281840643623,-0.34971852760738975
0.438,0.239999995,0.2291445312492592,0.11237816874327368,0.300000012,0.295705527,0.01790631872217613,0.600000024,0.601231337,-0.02958671389498637,0.899999976,0.8127675467838095,0.14750342261206592,0.5,0.518141031,-0.009110873474457746,1.5,1.4783086362492592,-0.09320560923657699,0.0,0.013129389498518431,-0.25411522689439375
0.44,0.239999995,0.228773832,0.028809327122084886,0.300000012,0.295705527,-0.031536543993003735,0.600000024,0.601231337,-0.00963104313852612,0.899999976,0.813148573502682,0.1529897974847248,0.5,0.518141031,0.0121942210833722,1.5,1.477948263502682,-0.0074649929249067165,0.0,0.012367312298041043,-0.43301046407392724
0.442,0.239999995,0.228773832,-0.0051922543989292086,0.300000012,0.295705527,0.011256830882807852,0.600000024,0.601231337,0.05043832287650208,0.899999976,0.813521624,0.08504539292444974,0.5,0.518141031,-0.070953369,1.5,1.4783193526423557,-0.0013853637995240927,0.0,0.011616360284711481,-0.3930073184014277
0.444,0.239999995,0.228773832,0.023373944996330276,0.300000012,0.295705527,-0.051801427416880735,0.600000024,0.601231337,0.06658341669981652,0.899999976,0.8135228933467891,0.15466380859743117,0.5,0.518141031,-0.07051492379449542,1.5,1.477937937,0.025633527019816516,0.0,0.010852259649908257,-0.4095952447985321
0.446,0.239999995,0.228773832,-0.05875978590223267,0.300000012,0.2956946699075206,-0.031817458853936546,0.600000024,0.601231337,-0.006521957437955346,0.899999976,0.813905954,0.090517181220094,0.5,0.518141031,0.05743365198472385,1.5,1.4779487940924796,-0.06341293351045829,0.0,0.010458340907520564,-0.37363035759917745
0.448,0.239999995,0.2287794490725191,-0.005435638236887466,0.300000012,0.29532776707251907,0.0005145755472789953,0.600000024,0.6012257199274809,0.09252161769477961,0.899999976,0.8139115710725191,0.13497139227640975,0.5,0.518141031,-0.09126491793363703,1.5,1.478321314,0.05322916378761389,0.0,0.010074586854961832,-0.2896441309606008
0.45,0.239999995,0.22913955408208064,0.08566020590909092,0.300000012,0.2956878720820807,0.06290958400501073,0.600000024,0.60084796,-0.02800386508542114,0.899999976,0.8143069859639704,0.22890585743140063,0.5,0.518141031,-0.023199293742543547,1.5,1.4783036590820806,0.00367814434526366,0.0,0.009283669344786447,-0.4186405783982343
0.452,0.239999995,0.228773832,-0.018456757732656717,0.300000012,0.2953400943324179,-0.06039708756620895,0.600000024,0.60084796,-0.04355712853217911,0.899999976,0.8146906533324179,0.1583019541407761,0.5,0.518141031,-0.07634268257755224,1.5,1.477937937,0.06312173703940299,0.0,0.00853246162077612,-0.2888461331041194
0.454,0.239999995,0.22879237734278565,0.023996004790658883,0.300000012,0.295705527,-0.007049980821517932,0.600000024,0.60084796,-0.0051681355804837365,0.899999976,0.815056086,0.31027691554628856,0.5,0.518141031,-0.06283146850375312,1.5,1.477937937,-0.1434754104587156,0.0,0.00812993731442869,-0.3100289384203503
0.456,0.239999995,0.2291395975779911,-0.004354012470689064,0.300000012,0.295705527,0.019744742510798764,0.600000024,0.6008303047535138,-0.02087831677956805,0.899999976,0.8150737412005485,0.09803122580939322,0.5,0.518141031,-0.07916497216386698,1.5,1.477937937,-0.037614633111415836,0.0,0.007382618799451492,-0.2455868839307508
0.458,0.239999995,0.22877563667145445,-0.10956317054230537,0.300000012,0.295705527,-0.04054023021834641,0.600000024,0.600463629,-0.10584618703234762,0.899999976,0.8154422206714543,0.15339055886433314,0.5,0.5181392263285456,0.003620762121303561,1.5,1.4779397416714546,-0.1913059243803259,0.0,0.007012334652383826,-0.35453362847845504
0.46,0.239999995,0.22915063393271767,0.11261308372427441,0.300000012,0.295705527,0.010735101722955144,0.600000024,0.600463629,-0.09190725934168865,0.899999976,0.815823793,0.1598848576490765,0.5,0.517757654,-0.03850931836807388,1.5,1.478321314,-0.17775344873482848,0.0,0.0062426139327176776,-0.3025062878205805
0.462,0.239999995,0.228773832,-0.0349018876271798,0.300000012,0.295705527,-0.036152600375225497,0.600000024,0.600463629,0.07585714062862296,0.899999976,0.815832691588214,0.09721206645760673,0.5,0.517757654,-0.1024655669117258,1.5,1.478321314,0.07548179790499099,0.0,0.005856891291641611,-0.1927795750936861
0.464,0.239999995,0.22878591149716782,0.007984844560302101,0.300000012,0.295705527,0.032135527894146795,0.600000024,0.600463629,-0.10555989572232712,0.899999976,0.81620717,0.11105891948595704,0.5,0.517757654,-0.07881054751062072,1.5,1.478321314,0.026515936714420582,0.0,0.00546940247132405,-0.18003849852749587
0.466,0.239999995,0.2291488125362214,0.08692460225920577,0.300000012,0.295705527,0.04450627358700361,0.600000024,0.6004552325362215,0.013799118797111914,0.899999976,0.8162155664856798,0.12592989663008422,0.5,0.517757654,-0.03981221874392298,1.5,1.478321314,-0.03233332408279182,0.0,0.00508131107244284,-0.1107045264
0.468,0.239999995,0.228773832,-0.017216921179566563,0.300000012,0.295705527,0.028782847139318887,0.600000024,0.600080252,-0.14357902230340558,0.899999976,0.8166024467616099,0.19206366508359135,0.5,0.517757654,-0.07911658550773994,1.5,1.478309444743034,-0.09550486131269349,0.0,0.0043194512383900934,-0.1836690873126935
0.47,0.239999995,0.228773832,-0.00636329583745372,0.300000012,0.295705527,-0.03117961011764003,0.600000024,0.600080252,-0.04652451126967634,0.899999976,0.816974878,0.06665018246864923,0.5,0.5177461613895855,-0.04980337218153589,1.5,1.4779494296104145,0.034420949704407025,0.0,0.003935527389585572,-0.22205188369126955
0.472,0.239999995,0.22878586483563423,0.010205564341356933,0.300000012,0.295705527,-0.011951931250855459,0.600000024,0.600080252,-0.15750159772542774,0.899999976,0.8169869108356342,0.07682408708318583,0.5,0.5173863098356343,-0.10101993529085546,1.5,1.478321314,-0.1034266215099705,0.0,0.0035516101329793512,-0.12756800751516223
0.474,0.239999995,0.22914901231868393,0.017996906748307402,0.300000012,0.295705527,0.03728690364378192,0.600000024,0.600072055318684,-0.08967754688811024,0.899999976,0.817366451681316,0.11653399432759236,0.5,0.5177494573186839,0.05423394823126262,1.5,1.4783131173186839,-0.026756112178999883,0.0,0.003172068318683929,-0.22643371394322365
0.476,0.239999995,0.228773832,-0.029472474768402156,0.300000012,0.295705527,-0.030372413795332134,0.600000024,0.599696875,0.03627314849371634,0.899999976,0.817741632,0.10853334228186715,0.5,0.517374277,0.05464536713285458,1.5,1.4779448198904848,-0.007154920057450628,0.0,0.002789988,-0.21926877853859963
0.478,0.239999995,0.22878219210378933,0.0701262450799571,0.300000012,0.295705527,-0.011317890511081983,0.600000024,0.599696875,-0.06440159237464252,0.899999976,0.817741632,0.1597860899693756,0.5,0.517374277,-0.08551340292004289,1.5,1.478321314,0.05098719313929933,0.0,0.0024041978962106767,-0.23275735816742135
0.48,0.239999995,0.2291489564455872,0.101470947,0.300000012,0.295705527,0.0007636802750538149,0.600000024,0.5996886224455872,0.015700166692178906,0.899999976,0.8177498845759388,0.10417636232575939,0.5,0.517374277,-0.05495700486510404,1.5,1.478321314,-0.0010911028419038511,0.0,0.0020209284240612297,-0.09933895897129874
0.482,0.239999995,0.228773832,0.09861879165247102,0.300000012,0.295705527,0.01037538261452105,0.600000024,0.599313498,-0.06178747480915192,0.899999976,0.81812501,0.021308959122513727,0.5,0.517374277,-0.0894408025980476,1.5,1.4783116301636363,0.07072157034142769,0.0,0.0016264112551555826,-0.14268931958779743
0.484,0.239999995,0.228773832,-0.015592182950280194,0.300000012,0.295705527,-0.07089684065124598,0.600000024,0.599313498,-0.07790707699356146,0.899999976,0.8181432943448194,0.1132509799428878,0.5,0.5173559926551807,-0.034618639033146534,1.5,1.477937937,-0.05665277127793013,0.0,0.0008598116551806367,-0.20531203161917255
0.486,0.239999995,0.22879219681816015,-0.09586090540586273,0.300000012,0.295705527,0.012739227082459484,0.600000024,0.599313498,-0.058043710008102954,0.899999976,0.818508387,0.2151940136673022,0.5,0.5169909,0.01475185958722593,1.5,1.477937937,0.05170629476668255,0.0,0.000494719,-0.26538346700285986
0.488,0.239999995,0.2291389943591978,-0.041243630961203294,0.300000012,0.295705527,0.033741751156619315,0.600000024,0.599313498,-0.10150795625593888,0.899999976,0.8185266469188253,-0.0005694961902829171,0.5,0.5169909,-0.09356887241506506,1.5,1.4779561516408022,0.09614741598185508,0.0,0.0004765043116867614,-0.2119316743663603
0.49,0.239999995,0.2287924359259084,0.029889545571665288,0.300000012,0.295705527,-0.009478222401349271,0.600000024,0.5992948477798556,0.1403282416919162,0.899999976,0.818892717,0.21003682482435793,0.5,0.5169909,0.05707507742762457,1.5,1.478321314,-0.040723848621967096,0.0,9.273707409160848e-05,-0.10117476506722689
0.492,0.239999995,0.22914154268943374,-0.060650056694103914,0.300000012,0.295705527,-0.06429586040572095,0.600000024,0.598929167,0.03282261941798015,0.899999976,0.8189083833105663,0.06316630982603619,0.5,0.5169751947051956,-0.09480625058143607,1.5,1.4783056476894338,-0.0881317136882662,0.0,-0.00028774125394045536,-0.10060528076824285
0.494,0.239999995,0.228773832,-0.13801316076585135,0.300000012,0.295705527,-0.0012623775097364046,0.600000024,0.598929167,-0.07620435539028735,0.899999976,0.819276094,0.02383918548266445,0.5,0.516606569,-0.08150914601840419,1.5,1.4779458121152933,-0.015204363004274518,0.0,-0.0006642411152932796,-0.22116287075813346
0.496,0.239999995,0.228773832,0.011086307253020697,0.300000012,0.295705527,0.01055747400634047,0.600000024,0.5989227460429477,-0.0019467828815647804,0.899999976,0.8192825149738007,0.03495316834358177,0.5,0.516606569,-0.075531006,1.5,1.478321314,-0.026097513187582248,0.0,-0.001039743,-0.10494218954863022
0.498,0.239999995,0.228773832,-0.006777128617945008,0.300000012,0.295705527,0.009957243398576942,0.600000024,0.59854579,-0.1667255959940907,0.899999976,0.8196672856412205,0.16054865195513748,0.5,0.516606569,-0.07562430323263386,1.5,1.478321314,0.036713986168113846,0.0,-0.0010553703028219972,0.045330412907863
0.5,0.239999995,0.228773832,0.14367087648200758,0.300000012,0.295705527,0.028321265945785982,0.600000024,0.59854579,-0.008341182568892047,0.899999976,0.820042849,0.14019827444554925,0.5,0.516606569,-0.07535219233806817,1.5,1.478321314,0.053387266248106066,0.0,-0.001806498,-0.1570557920833333
0.502,0.239999995,0.228773832,0.1244534493481971,0.300000012,0.295705527,0.01684232463545673,0.600000024,0.59854579,0.04472417113605769,0.899999976,0.8200524110564904,0.15500899092427886,0.5,0.516606569,0.07091540542391828,1.5,1.478321314,-0.019650705233653847,0.0,-0.0018160363460336538,-0.08634943510829327
0.504,0.239999995,0.228773832,0.011186452338287751,0.300000012,0.295705527,0.02538416586741974,0.600000024,0.5985332538912009,0.036433851743162896,0.899999976,0.820427179,0.04477677815814506,0.5,0.516606569,0.06758137612068965,1.5,1.478321314,0.08333485396967895,0.0,-0.0022024422711058264,-0.20984119390071343
0.506,0.239999995,0.228773832,0.08841652219094832,0.300000012,0.295705527,0.016527307998716902,0.600000024,0.598162413,-0.05174648509319958,0.899999976,0.820427179,0.17106615422687507,0.5,0.5165952103439869,0.009443700969672227,1.5,1.478321314,0.07900643937606439,0.0,-0.002585563656013064,-0.16406967949632567
0.508,0.239999995,0.228773832,-0.08851104121107138,0.300000012,0.295705527,0.013270027558130934,0.600000024,0.598162413,-0.09693239434175811,0.899999976,0.8204304403750462,0.10165267539908766,0.5,0.516223192,-0.1050101360161509,1.5,1.478321314,-0.08181898805252126,0.0,-0.002957582,-0.11512597340525213
0.51,0.239999995,0.228773832,-0.0003828840016748415,0.300000012,0.295705527,-0.022415935211149658,0.600000024,0.598162413,-0.053486817415839216,0.899999976,0.820810556,0.12004618187390836,0.5,0.516223192,0.018998826604498146,1.5,1.478321314,-0.0502503920531164,0.0,-0.0029734968422060054,-0.10516178894855845
0.512,0.239999995,0.228773832,0.005999989385693916,0.300000012,0.295705527,0.03047577935670152,0.600000024,0.598162413,-0.1716654473076283,0.899999976,0.8208277296132367,0.054395878654586505,0.5,0.516223192,0.0852773396785884,1.5,1.478321314,-0.06085704073110741,0.0,-0.00334096,-0.08304581416385456
0.514,0.239999995,0.22878988847101886,-0.04066779517460699,0.300000012,0.295705527,0.04569041258298332,0.600000024,0.598162413,0.0507248438024721,0.899999976,0.821193933,0.027086319170766832,0.5,0.516223192,0.038110784051842074,1.5,1.478321314,-0.03582393040897636,0.0,-0.0033570164710188407,-0.046147995020520825
0.516,0.239999995,0.22913877522521667,0.054344241683960584,0.300000012,0.295705527,0.017652716515018402,0.600000024,0.598162413,0.002799335115991927,0.899999976,0.8212123668228659,0.039012989707586376,0.5,0.516223192,0.1478657896088092,1.5,1.4783028802252167,-0.004068026876765997,0.0,-0.003742816597530571,-0.007277860529977443
0.518,0.239999995,0.228773832,-0.03373825792525348,0.300000012,0.295705527,-0.02125684629026173,0.600000024,0.598162413,-0.0040063472473473236,0.899999976,0.821577311,0.10293546785239331,0.5,0.516223192,-0.07604334953572271,1.5,1.477937937,-0.1511437928917708,0.0,-0.004108667,-0.10039085096651733
0.52,0.239999995,0.22878646829569255,-0.04918962230842456,0.300000012,0.295705527,-0.01358431672513089,0.600000024,0.598162413,0.08760094775856735,0.899999976,0.8215899787070442,0.13474233563707758,0.5,0.516223192,0.04301874629700143,1.5,1.4779505732956926,-0.14935423293729175,0.0,-0.0041213032956925275,0.018319862507020467
0.522,0.239999995,0.22914541832339477,0.09276364036635755,0.300000012,0.295705527,-0.04072574351766639,0.600000024,0.598162413,0.0538369858843761,0.899999976,0.821961641,0.12401158369714756,0.5,0.516223192,-0.05848895012149313,1.5,1.4783095233233947,-0.0432186434012208,0.0,-0.004503834707360019,-0.1376733859976523
0.524,0.239999995,0.22877975584843124,-0.036087269902571356,0.300000012,0.295705527,0.024642339688133993,0.600000024,0.5981564891515687,0.10505851414932767,0.899999976,0.821961641,0.06532140421443737,0.5,0.516223192,-0.0019587328591648976,1.5,1.4779438608484312,0.027742702982189196,0.0,-0.004875422,-0.12348676309247464
0.526,0.239999995,0.22915525702594253,0.046166392477512426,0.300000012,0.295705527,0.0223875405443084,0.600000024,0.597779036,0.050735639619953934,0.899999976,0.8219635929740575,0.09521981999854529,0.5,0.5162212400259425,0.01797026112449994,1.5,1.4783193620259425,0.02565714748999879,0.0,-0.004877373974057461,-0.06823569968177962
0.528,0.239999995,0.2287821444391232,-0.024618567499642603,0.300000012,0.295705527,-0.03030106437050274,0.600000024,0.597779036,-0.10996658145389564,0.899999976,0.822345018,0.06617722596163927,0.5,0.5158481274391231,-0.19211304963497736,1.5,1.4779462494391233,-0.027603715414105313,0.0,-0.0052671321022158685,-0.13427915885346675
0.53,0.239999995,0.2291491581287436,0.06792145608901086,0.300000012,0.295705527,-0.011602569559837728,0.600000024,0.597779036,0.038143954486338144,0.899999976,0.8223530688712565,0.0578933677736547,0.5,0.516223192,0.05550232035938432,1.5,1.478321314,0.06046086409963011,0.0,-0.005643129,-0.1657935456830927
0.532,0.239999995,0.228782203868977,-0.0025220641609304535,0.300000012,0.295713898868977,-0.010587249064562071,0.600000024,0.597779036,0.09212590793899833,0.899999976,0.822728395,0.088197647901258,0.5,0.516223192,0.044406770802516024,1.5,1.478321314,-0.03665694982126751,0.0,-0.005643129,-0.03663149890695467
0.534,0.239999995,0.229157209,-0.012619308910642935,0.300000012,0.296082126782177,0.07706186742947088,0.600000024,0.597779036,-0.03167195514626468,0.899999976,0.822728395,0.04121803718573677,0.5,0.516223192,-0.050307722806029784,1.5,1.478314536782177,0.0013546895415909915,0.0,-0.0056499062178229816,-0.13730190299297734
0.536,0.239999995,0.229157209,0.007221678274129412,0.300000012,0.295705527,-0.03276590102048439,0.600000024,0.597779036,0.020777142743463067,0.899999976,0.822728395,0.08448329428617907,0.5,0.516223192,-0.0048331141655621156,1.5,1.477937937,-0.0720527096983974,0.0,-0.006026506,-0.008646064933847451
0.538,0.239999995,0.22914039663695182,0.013331968875629045,0.300000012,0.295705527,-0.0028536345341480954,0.600000024,0.597779036,-0.03694820891157441,0.899999976,0.822728395,0.07583925347879224,0.5,0.516223192,0.007776936490294753,1.5,1.4779547493630483,0.042125008444284684,0.0,-0.006043318363048167,-0.015084920513299783
0.54,0.239999995,0.22879241555898777,-0.07044667686206486,0.300000012,0.295705527,0.030564109025899962,0.600000024,0.597779036,0.041650203926577166,0.899999976,0.822746978607461,0.027782257986574792,0.5,0.5162046084410122,-0.04408760689176666,1.5,1.478321314,0.03567598025591066,0.0,-0.006409883,0.0009766747477723652
0.542,0.239999995,0.229157209,0.0872611545135779,0.300000012,0.295705527,-0.030537939679847543,0.600000024,0.597779036,0.0233458746126727,0.899999976,0.823111773,0.2509743740714626,0.5,0.5158571665078608,-0.14137425063363507,1.5,1.478321314,0.03539908225345403,0.0,-0.006409883,-0.08599843312101
0.544,0.239999995,0.229157209,0.04217461732984044,0.300000012,0.295705527,-0.007367945197427959,0.600000024,0.597779036,-0.044088270263872346,0.899999976,0.823111773,0.08696583116122886,0.5,0.516223192,-0.047360569939985706,1.5,1.478321314,0.03840250918694927,0.0,-0.006426865211955227,-0.11266411802738747
0.546,0.239999995,0.22914123312455517,-0.01773818868729193,0.300000012,0.295705527,-0.046913156967512346,0.600000024,0.597779036,-0.03580666342624268,0.899999976,0.823111773,0.03744761859028814,0.5,0.516223192,0.0009536957708644243,1.5,1.478321314,-0.02685444350625646,0.0,-0.006809276588336586,-0.09473226032441741
0.548,0.239999995,0.22877574096975956,0.012856002631770707,0.300000012,0.295705527,-0.0484422153521982,0.600000024,0.597779036,0.07315364222564974,0.899999976,0.823111773,0.03866677948542628,0.5,0.516223192,0.005826841029147437,1.5,1.4783194050302404,0.16159688475248968,0.0,-0.007177591,-0.18489662219152297
0.55,0.239999995,0.229157209,-0.0090246802990991,0.300000012,0.295705527,0.030095362855855852,0.600000024,0.597779036,-0.12322410063243243,0.899999976,0.823111773,-0.009417834684684686,0.5,0.516223192,0.09931547131351351,1.5,1.4779469170018018,-0.05199374934234235,0.0,-0.007177591,-0.08336385062702703
0.552,0.239999995,0.2291453628245049,0.02572986477952756,0.300000012,0.295705527,-0.037827739630875684,0.600000024,0.597779036,0.06942245761071343,0.899999976,0.823111773,0.014744519637437364,0.5,0.5162113458245049,-0.05270708304318778,1.5,1.4783094678245048,-0.09136591379038415,0.0,-0.007189437175495108,-0.027521525490813648
0.554,0.239999995,0.22878595549701672,-0.051677767325775656,0.300000012,0.295705527,-0.03777331432159904,0.600000024,0.597779036,0.03344733807875895,0.899999976,0.823111773,0.11232052874403341,0.5,0.5158519384970167,-0.009713366317422433,1.5,1.4779500604970168,0.01877486585202864,0.0,-0.007560968,-0.008235740054295943
0.556,0.239999995,0.22914478789346104,-0.021334248021757124,0.300000012,0.295705527,0.023666382,0.600000024,0.597779036,-0.03841478909660636,0.899999976,0.823111773,-0.06740056276930353,0.5,0.516223192,-0.09313608002234834,1.5,1.4783088928934611,-0.015196252601868274,0.0,-0.007560968,-0.09585512875830672
0.558,0.239999995,0.22878332312630695,0.005197541862035813,0.300000012,0.295705527,0.02241978605912751,0.600000024,0.597779036,-0.11976383535248167,0.899999976,0.823111773,-0.0033532265517365696,0.5,0.516223192,0.022057855582261747,1.5,1.477937937,-0.05841539787838,0.0,-0.007570459126306934,-0.06617200118976084
0.56,0.239999995,0.229157209,0.11545625829824561,0.300000012,0.295705527,-0.02504701535338346,0.600000024,0.597779036,-0.13279002279949875,0.899999976,0.823111773,0.12858097782706768,0.5,0.516223192,0.13460036005012532,1.5,1.477937937,-0.03861200261654135,0.0,-0.007944345,-0.11243891871929824
0.562,0.239999995,0.2291442759101204,-0.012197846065919657,0.300000012,0.295705527,0.020404926319465968,0.600000024,0.5977919690898796,-0.008583882847061628,0.899999976,0.823111773,-0.05920597540779593,0.5,0.516223192,-0.014959124946954344,1.5,1.4779508700898798,-0.013600566275956611,0.0,-0.007944345,0.053734763979616164
0.564,0.239999995,0.2287867240002385,0.010893130614834249,0.300000012,0.295705527,-0.07084591019150965,0.600000024,0.5981495209997615,-0.04860294578416408,0.899999976,0.823111773,0.05484666750703554,0.5,0.516223192,-0.02602236748557119,1.5,1.478321314,0.0579234987836871,0.0,-0.007944345,-0.13008022333078942
0.566,0.239999995,0.229157209,0.03896160289682634,0.300000012,0.295705527,-0.011016532245096874,0.600000024,0.597779036,0.0862341873366219,0.899999976,0.823111773,-0.05380886001271841,0.5,0.516223192,0.03728065120634732,1.5,1.4783083266655177,-0.0017142953279448469,0.0,-0.007957332368358492,-0.03665650016866754
0.568,0.239999995,0.229157209,0.040483389233416996,0.300000012,0.295705527,-0.07852534460810327,0.600000024,0.597779036,-0.004330126179992829,0.899999976,0.823111773,0.043677941902474,0.5,0.516223192,0.03166677411581212,1.5,1.4779498960530657,0.09761953206346362,0.0,-0.00831576391574041,-0.1838830464919326
0.57,0.239999995,0.229157209,0.04052563427437426,0.300000012,0.295705527,0.0003342929439809297,0.600000024,0.597779036,0.0033364191890345647,0.899999976,0.823111773,0.049078194095589986,0.5,0.516223192,-0.04644982686650775,1.5,1.4783084281461263,0.1005434770727056,0.0,-0.007957230887485102,0.0033403833761620973
0.572,0.239999995,0.229157209,0.0003613736501787842,0.300000012,0.295705527,-0.005611200191060787,0.600000024,0.597779036,-0.0003811153272943982,0.899999976,0.823111773,0.03208364966615018,0.5,0.516223192,0.08303636579868892,1.5,1.477937937,-0.049521708828963056,0.0,-0.008327723,-0.05667297973194279
0.574,0.239999995,0.229157209,0.03265703797824816,0.300000012,0.2957180357338323,-0.034359732784352705,0.600000024,0.597779036,-0.09125646060519238,0.899999976,0.823111773,-0.030018379180680625,0.5,0.516223192,-0.0534393982573968,1.5,1.477937937,0.059515976626125594,0.0,-0.008327723,-0.12849238339457372
0.576,0.239999995,0.2291517621136612,0.025713923951912566,0.300000012,0.2960834571136612,0.036243326301639345,0.600000024,0.597779036,-0.10751347377814208,0.899999976,0.823111773,0.05223091807978142,0.5,0.516223192,-0.0759295690010929,1.5,1.477943383886339,-0.03095282891693989,0.0,-0.008327723,-0.11299258331256831
0.578,0.239999995,0.228773832,-0.146773098964425,0.300000012,0.295705527,0.001116405555135327,0.600000024,0.5977913153011465,0.03618569929287318,0.899999976,0.823111773,0.021011989099633612,0.5,0.516223192,0.0018000895023046924,1.5,1.4783090346988537,-0.04085779940137099,0.0,-0.008315443666824253,0.04375926696974353
0.58,0.239999995,0.22878290113333336,-0.0865370225376344,0.300000012,0.295705527,0.019733355591397852,0.600000024,0.5981533438666666,0.08367445381935484,0.899999976,0.823111773,-0.06022627646236559,0.5,0.516223192,-0.013547507950537635,1.5,1.477937937,-0.06711362613333333,0.0,-0.007953414156989247,0.14243057381505375
0.582,0.239999995,0.229157209,-0.09736071137259845,0.300000012,0.295705527,0.022380565176272814,0.600000024,0.597779036,-0.07774221332973104,0.899999976,0.823111773,-0.11705312440117675,0.5,0.516223192,-0.037344273664865514,1.5,1.4779479265303794,-0.05284913133417388,0.0,-0.008327723,0.06537203807684917
0.584,0.239999995,0.229157209,0.002063004683559363,0.300000012,0.295705527,-0.024481534448965024,0.600000024,0.5977917148967404,-0.07214582031715441,0.899999976,0.823111773,0.03772275444158934,0.5,0.5162105131032596,-0.03242665094622889,1.5,1.4783086351032595,-0.027279660244349274,0.0,-0.008327723,-0.0866663275193909
0.586,0.239999995,0.22914529576706108,0.08098784180148201,0.300000012,0.295705527,0.010699518865423687,0.600000024,0.598162413,0.005222492716505318,0.899999976,0.823111773,-0.08687598007481773,0.5,0.5158517282329389,0.0682335220529461,1.5,1.477937937,0.10818912445476277,0.0,-0.008327723,-0.09653112595864706
0.588,0.239999995,0.228773832,-0.036367983370668246,0.300000012,0.295705527,0.013796520490952098,0.600000024,0.598162413,0.028912500292607925,0.899999976,0.823111773,-0.10441911507049083,0.5,0.516223192,0.07649616295091662,1.5,1.4779507237905383,-0.008665800760733294,0.0,-0.008327723,0.012157492184387936
0.59,0.239999995,0.22878364579390403,-0.092203581389213,0.300000012,0.295705527,-0.00853608006834147,0.600000024,0.5981525992060959,0.12992538758518873,0.899999976,0.823111773,-0.013243390178473629,0.5,0.516223192,0.016021729,1.5,1.478311500206096,0.04588448665353018,0.0,-0.008327723,0.07315089660078582
0.592,0.239999995,0.229157209,0.026264927459132906,0.300000012,0.295705527,0.029566544177801468,0.600000024,0.5977883456760247,0.023433945769841272,0.899999976,0.823111773,-0.020835061239161335,0.5,0.516223192,0.016169942761549393,1.5,1.477937937,-0.10051116416216536,0.0,-0.008327723,-0.07538279221416726
0.594,0.239999995,0.22915025265476902,-0.05147997003294735,0.300000012,0.295705527,-0.016964015382714574,0.600000024,0.598162413,0.07117183556893876,0.899999976,0.823111773,0.08965772664414469,0.5,0.516223192,0.02439564325032828,1.5,1.477937937,-0.08052893272651307,0.0,-0.008327723,-0.06912293353157455
0.596,0.239999995,0.22878138371613294,0.011714601284592145,0.300000012,0.295705527,-0.035989391174380665,0.600000024,0.598162413,0.140038720697281,0.899999976,0.823111773,-0.0557016621065861,0.5,0.516223192,0.14334369749111783,1.5,1.477937937,-0.09458696385848943,0.0,-0.008327723,-0.050088012061510576
0.598,0.239999995,0.229157209,0.0283019059212974,0.300000012,0.295705527,-0.04770324355199142,0.600000024,0.598162413,0.10680156715287384,0.899999976,0.823111773,-0.1301777536614596,0.5,0.516210528581326,-0.05242738659694729,1.5,1.477937937,-0.07512567005568806,0.0,-0.008327723,0.07831692688456952
0.6,0.239999995,0.22914447389070128,0.1134963045088701,0.300000012,0.295705527,-0.04123206904429099,0.600000024,0.598162413,0.08058542702726515,0.899999976,0.823111773,-0.07219093183593285,0.5,0.5158525501092988,-0.08191944117013931,1.5,1.477937937,0.020227968886772234,0.0,-0.008327723,0.11469698688081915
0.602,0.239999995,0.22878613555678837,-0.06487333675232641,0.300000012,0.295705527,0.031636396177642565,0.600000024,0.598162413,0.10496702318945358,0.899999976,0.823111773,0.06800737770317346,0.5,0.516223192,0.16772203175375805,1.5,1.4779502405567884,-0.018885957451562872,0.0,-0.008327723,0.09509709842722501
0.604,0.239999995,0.22914458527630638,0.07072071897208303,0.300000012,0.295705527,-0.031092966190408015,0.600000024,0.598162413,0.015517590014316391,0.899999976,0.823111773,0.024423346692913385,0.5,0.516223192,-0.08459125318826055,1.5,1.4783086902763063,0.06020092698997853,0.0,-0.008315099243378669,-0.05016231296850394
0.606,0.239999995,0.22878654361834216,0.01664499725996473,0.300000012,0.2957182386183422,-0.013022593364726632,0.600000024,0.598162413,-0.1602449642564374,0.899999976,0.823111773,0.00152991528324515,0.5,0.516223192,0.05279460255661376,1.5,1.477937937,-0.08279604261763669,0.0,-0.007944345,-0.0183813238356261
0.608,0.239999995,0.229157209,-0.053665542527693386,0.300000012,0.29608146761509696,-0.0259344890444029,0.600000024,0.598162413,-0.016105813105865858,0.899999976,0.8231043365956999,-0.022020047777284415,0.5,0.516223192,0.05541500798831503,1.5,1.477945373384903,-0.13727042190722133,0.0,-0.007944345,0.09138174615073616
0.61,0.239999995,0.229157209,-0.02824088430053751,0.300000012,0.2957057061899977,-0.03876646379411077,0.600000024,0.598162413,0.11072023624351485,0.899999976,0.822728574190465,-0.09380731968006542,0.5,0.516223192,-0.03581464915634494,1.5,1.4783211348100023,-0.057106099098621174,0.0,-0.007944345,0.12129310911684973
0.612,0.239999995,0.229157209,0.13082609986664273,0.300000012,0.29571235909819404,0.019994953588685565,0.600000024,0.598162413,-0.0431615501227126,0.899999976,0.822728395,-0.021581395283100106,0.5,0.516223192,-0.11362979830654228,1.5,1.478321314,0.09232033924123909,0.0,-0.008320890883985169,-0.08313941274416936
0.614,0.239999995,0.229157209,-0.01696061712557353,0.300000012,0.2960807106011833,0.09383464335498672,0.600000024,0.598162413,-0.01602810325633905,0.899999976,0.822728395,0.008033617960879015,0.5,0.516223192,0.05819877546450133,1.5,1.4783131206011833,0.015871572637406423,0.0,-0.007944345,0.08454902000821057
0.616,0.239999995,0.229157209,0.00512862605915325,0.300000012,0.29571846625951104,0.030248854649612408,0.600000024,0.598162413,0.01661754042802624,0.899999976,0.822728395,-0.007877338497674418,0.5,0.516223192,0.10145183949302325,1.5,1.477950876259511,-0.02359156150399523,0.0,-0.007944345,0.010452316009302324
0.618,0.239999995,0.229157209,-0.12797452841534612,0.300000012,0.2960757943611343,-0.039753625,0.600000024,0.598162413,-0.03916914618432027,0.899999976,0.822728395,0.0073882317714762296,0.5,0.516223192,0.05247229037614679,1.5,1.478321314,0.03748310582485405,0.0,-0.007944345,0.0718277936238532
0.62,0.239999995,0.229157209,-0.01444454466102301,0.300000012,0.295705527,-0.010371171852271372,0.600000024,0.598162413,0.005061062267199237,0.899999976,0.822728395,0.019252145185405984,0.5,0.516223192,-0.07768401016775962,1.5,1.478321314,-0.12937626164921903,0.0,-0.007944345,0.13731286660701084
